luts/CoolCrisp.cube
TITLE "CoolCrisp"
LUT_3D_SIZE 5
DOMAIN_MIN 0.0 0.0 0.0
DOMAIN_MAX 1.0 1.0 1.0
0.000000 0.000000 0.000000
0.206000 0.000000 0.000000
0.472000 0.000000 0.000000
0.738000 0.000000 0.000000
1.000000 0.000000 0.000000
0.000000 0.220000 0.000000
0.206000 0.220000 0.000000
0.472000 0.220000 0.000000
0.738000 0.220000 0.000000
1.000000 0.220000 0.000000
0.000000 0.500000 0.000000
0.206000 0.500000 0.000000
0.472000 0.500000 0.000000
0.738000 0.500000 0.000000
1.000000 0.500000 0.000000
0.000000 0.780000 0.000000
0.206000 0.780000 0.000000
0.472000 0.780000 0.000000
0.738000 0.780000 0.000000
1.000000 0.780000 0.000000
0.000000 1.000000 0.000000
0.206000 1.000000 0.000000
0.472000 1.000000 0.000000
0.738000 1.000000 0.000000
1.000000 1.000000 0.000000
0.000000 0.000000 0.245760
0.206000 0.000000 0.245760
0.472000 0.000000 0.245760
0.738000 0.000000 0.245760
1.000000 0.000000 0.245760
0.000000 0.220000 0.245760
0.206000 0.220000 0.245760
0.472000 0.220000 0.245760
0.738000 0.220000 0.245760
1.000000 0.220000 0.245760
0.000000 0.500000 0.245760
0.206000 0.500000 0.245760
0.472000 0.500000 0.245760
0.738000 0.500000 0.245760
1.000000 0.500000 0.245760
0.000000 0.780000 0.245760
0.206000 0.780000 0.245760
0.472000 0.780000 0.245760
0.738000 0.780000 0.245760
1.000000 0.780000 0.245760
0.000000 1.000000 0.245760
0.206000 1.000000 0.245760
0.472000 1.000000 0.245760
0.738000 1.000000 0.245760
1.000000 1.000000 0.245760
0.000000 0.000000 0.542560
0.206000 0.000000 0.542560
0.472000 0.000000 0.542560
0.738000 0.000000 0.542560
1.000000 0.000000 0.542560
0.000000 0.220000 0.542560
0.206000 0.220000 0.542560
0.472000 0.220000 0.542560
0.738000 0.220000 0.542560
1.000000 0.220000 0.542560
0.000000 0.500000 0.542560
0.206000 0.500000 0.542560
0.472000 0.500000 0.542560
0.738000 0.500000 0.542560
1.000000 0.500000 0.542560
0.000000 0.780000 0.542560
0.206000 0.780000 0.542560
0.472000 0.780000 0.542560
0.738000 0.780000 0.542560
1.000000 0.780000 0.542560
0.000000 1.000000 0.542560
0.206000 1.000000 0.542560
0.472000 1.000000 0.542560
0.738000 1.000000 0.542560
1.000000 1.000000 0.542560
0.000000 0.000000 0.839360
0.206000 0.000000 0.839360
0.472000 0.000000 0.839360
0.738000 0.000000 0.839360
1.000000 0.000000 0.839360
0.000000 0.220000 0.839360
0.206000 0.220000 0.839360
0.472000 0.220000 0.839360
0.738000 0.220000 0.839360
1.000000 0.220000 0.839360
0.000000 0.500000 0.839360
0.206000 0.500000 0.839360
0.472000 0.500000 0.839360
0.738000 0.500000 0.839360
1.000000 0.500000 0.839360
0.000000 0.780000 0.839360
0.206000 0.780000 0.839360
0.472000 0.780000 0.839360
0.738000 0.780000 0.839360
1.000000 0.780000 0.839360
0.000000 1.000000 0.839360
0.206000 1.000000 0.839360
0.472000 1.000000 0.839360
0.738000 1.000000 0.839360
1.000000 1.000000 0.839360
0.000000 0.000000 1.000000
0.206000 0.000000 1.000000
0.472000 0.000000 1.000000
0.738000 0.000000 1.000000
1.000000 0.000000 1.000000
0.000000 0.220000 1.000000
0.206000 0.220000 1.000000
0.472000 0.220000 1.000000
0.738000 0.220000 1.000000
1.000000 0.220000 1.000000
0.000000 0.500000 1.000000
0.206000 0.500000 1.000000
0.472000 0.500000 1.000000
0.738000 0.500000 1.000000
1.000000 0.500000 1.000000
0.000000 0.780000 1.000000
0.206000 0.780000 1.000000
0.472000 0.780000 1.000000
0.738000 0.780000 1.000000
1.000000 0.780000 1.000000
0.000000 1.000000 1.000000
0.206000 1.000000 1.000000
0.472000 1.000000 1.000000
0.738000 1.000000 1.000000
1.000000 1.000000 1.000000
