luts/CoolCrisp.cube
TITLE "CoolCrisp"
LUT_3D_SIZE 9
DOMAIN_MIN 0.0 0.0 0.0
DOMAIN_MAX 1.0 1.0 1.0
0.000000 0.000000 0.000000
0.073000 0.000000 0.000000
0.206000 0.000000 0.000000
0.339000 0.000000 0.000000
0.472000 0.000000 0.000000
0.605000 0.000000 0.000000
0.738000 0.000000 0.000000
0.871000 0.000000 0.000000
1.000000 0.000000 0.000000
0.000000 0.080000 0.000000
0.073000 0.080000 0.000000
0.206000 0.080000 0.000000
0.339000 0.080000 0.000000
0.472000 0.080000 0.000000
0.605000 0.080000 0.000000
0.738000 0.080000 0.000000
0.871000 0.080000 0.000000
1.000000 0.080000 0.000000
0.000000 0.220000 0.000000
0.073000 0.220000 0.000000
0.206000 0.220000 0.000000
0.339000 0.220000 0.000000
0.472000 0.220000 0.000000
0.605000 0.220000 0.000000
0.738000 0.220000 0.000000
0.871000 0.220000 0.000000
1.000000 0.220000 0.000000
0.000000 0.360000 0.000000
0.073000 0.360000 0.000000
0.206000 0.360000 0.000000
0.339000 0.360000 0.000000
0.472000 0.360000 0.000000
0.605000 0.360000 0.000000
0.738000 0.360000 0.000000
0.871000 0.360000 0.000000
1.000000 0.360000 0.000000
0.000000 0.500000 0.000000
0.073000 0.500000 0.000000
0.206000 0.500000 0.000000
0.339000 0.500000 0.000000
0.472000 0.500000 0.000000
0.605000 0.500000 0.000000
0.738000 0.500000 0.000000
0.871000 0.500000 0.000000
1.000000 0.500000 0.000000
0.000000 0.640000 0.000000
0.073000 0.640000 0.000000
0.206000 0.640000 0.000000
0.339000 0.640000 0.000000
0.472000 0.640000 0.000000
0.605000 0.640000 0.000000
0.738000 0.640000 0.000000
0.871000 0.640000 0.000000
1.000000 0.640000 0.000000
0.000000 0.780000 0.000000
0.073000 0.780000 0.000000
0.206000 0.780000 0.000000
0.339000 0.780000 0.000000
0.472000 0.780000 0.000000
0.605000 0.780000 0.000000
0.738000 0.780000 0.000000
0.871000 0.780000 0.000000
1.000000 0.780000 0.000000
0.000000 0.920000 0.000000
0.073000 0.920000 0.000000
0.206000 0.920000 0.000000
0.339000 0.920000 0.000000
0.472000 0.920000 0.000000
0.605000 0.920000 0.000000
0.738000 0.920000 0.000000
0.871000 0.920000 0.000000
1.000000 0.920000 0.000000
0.000000 1.000000 0.000000
0.073000 1.000000 0.000000
0.206000 1.000000 0.000000
0.339000 1.000000 0.000000
0.472000 1.000000 0.000000
0.605000 1.000000 0.000000
0.738000 1.000000 0.000000
0.871000 1.000000 0.000000
1.000000 1.000000 0.000000
0.000000 0.000000 0.097360
0.073000 0.000000 0.097360
0.206000 0.000000 0.097360
0.339000 0.000000 0.097360
0.472000 0.000000 0.097360
0.605000 0.000000 0.097360
0.738000 0.000000 0.097360
0.871000 0.000000 0.097360
1.000000 0.000000 0.097360
0.000000 0.080000 0.097360
0.073000 0.080000 0.097360
0.206000 0.080000 0.097360
0.339000 0.080000 0.097360
0.472000 0.080000 0.097360
0.605000 0.080000 0.097360
0.738000 0.080000 0.097360
0.871000 0.080000 0.097360
1.000000 0.080000 0.097360
0.000000 0.220000 0.097360
0.073000 0.220000 0.097360
0.206000 0.220000 0.097360
0.339000 0.220000 0.097360
0.472000 0.220000 0.097360
0.605000 0.220000 0.097360
0.738000 0.220000 0.097360
0.871000 0.220000 0.097360
1.000000 0.220000 0.097360
0.000000 0.360000 0.097360
0.073000 0.360000 0.097360
0.206000 0.360000 0.097360
0.339000 0.360000 0.097360
0.472000 0.360000 0.097360
0.605000 0.360000 0.097360
0.738000 0.360000 0.097360
0.871000 0.360000 0.097360
1.000000 0.360000 0.097360
0.000000 0.500000 0.097360
0.073000 0.500000 0.097360
0.206000 0.500000 0.097360
0.339000 0.500000 0.097360
0.472000 0.500000 0.097360
0.605000 0.500000 0.097360
0.738000 0.500000 0.097360
0.871000 0.500000 0.097360
1.000000 0.500000 0.097360
0.000000 0.640000 0.097360
0.073000 0.640000 0.097360
0.206000 0.640000 0.097360
0.339000 0.640000 0.097360
0.472000 0.640000 0.097360
0.605000 0.640000 0.097360
0.738000 0.640000 0.097360
0.871000 0.640000 0.097360
1.000000 0.640000 0.097360
0.000000 0.780000 0.097360
0.073000 0.780000 0.097360
0.206000 0.780000 0.097360
0.339000 0.780000 0.097360
0.472000 0.780000 0.097360
0.605000 0.780000 0.097360
0.738000 0.780000 0.097360
0.871000 0.780000 0.097360
1.000000 0.780000 0.097360
0.000000 0.920000 0.097360
0.073000 0.920000 0.097360
0.206000 0.920000 0.097360
0.339000 0.920000 0.097360
0.472000 0.920000 0.097360
0.605000 0.920000 0.097360
0.738000 0.920000 0.097360
0.871000 0.920000 0.097360
1.000000 0.920000 0.097360
0.000000 1.000000 0.097360
0.073000 1.000000 0.097360
0.206000 1.000000 0.097360
0.339000 1.000000 0.097360
0.472000 1.000000 0.097360
0.605000 1.000000 0.097360
0.738000 1.000000 0.097360
0.871000 1.000000 0.097360
1.000000 1.000000 0.097360
0.000000 0.000000 0.245760
0.073000 0.000000 0.245760
0.206000 0.000000 0.245760
0.339000 0.000000 0.245760
0.472000 0.000000 0.245760
0.605000 0.000000 0.245760
0.738000 0.000000 0.245760
0.871000 0.000000 0.245760
1.000000 0.000000 0.245760
0.000000 0.080000 0.245760
0.073000 0.080000 0.245760
0.206000 0.080000 0.245760
0.339000 0.080000 0.245760
0.472000 0.080000 0.245760
0.605000 0.080000 0.245760
0.738000 0.080000 0.245760
0.871000 0.080000 0.245760
1.000000 0.080000 0.245760
0.000000 0.220000 0.245760
0.073000 0.220000 0.245760
0.206000 0.220000 0.245760
0.339000 0.220000 0.245760
0.472000 0.220000 0.245760
0.605000 0.220000 0.245760
0.738000 0.220000 0.245760
0.871000 0.220000 0.245760
1.000000 0.220000 0.245760
0.000000 0.360000 0.245760
0.073000 0.360000 0.245760
0.206000 0.360000 0.245760
0.339000 0.360000 0.245760
0.472000 0.360000 0.245760
0.605000 0.360000 0.245760
0.738000 0.360000 0.245760
0.871000 0.360000 0.245760
1.000000 0.360000 0.245760
0.000000 0.500000 0.245760
0.073000 0.500000 0.245760
0.206000 0.500000 0.245760
0.339000 0.500000 0.245760
0.472000 0.500000 0.245760
0.605000 0.500000 0.245760
0.738000 0.500000 0.245760
0.871000 0.500000 0.245760
1.000000 0.500000 0.245760
0.000000 0.640000 0.245760
0.073000 0.640000 0.245760
0.206000 0.640000 0.245760
0.339000 0.640000 0.245760
0.472000 0.640000 0.245760
0.605000 0.640000 0.245760
0.738000 0.640000 0.245760
0.871000 0.640000 0.245760
1.000000 0.640000 0.245760
0.000000 0.780000 0.245760
0.073000 0.780000 0.245760
0.206000 0.780000 0.245760
0.339000 0.780000 0.245760
0.472000 0.780000 0.245760
0.605000 0.780000 0.245760
0.738000 0.780000 0.245760
0.871000 0.780000 0.245760
1.000000 0.780000 0.245760
0.000000 0.920000 0.245760
0.073000 0.920000 0.245760
0.206000 0.920000 0.245760
0.339000 0.920000 0.245760
0.472000 0.920000 0.245760
0.605000 0.920000 0.245760
0.738000 0.920000 0.245760
0.871000 0.920000 0.245760
1.000000 0.920000 0.245760
0.000000 1.000000 0.245760
0.073000 1.000000 0.245760
0.206000 1.000000 0.245760
0.339000 1.000000 0.245760
0.472000 1.000000 0.245760
0.605000 1.000000 0.245760
0.738000 1.000000 0.245760
0.871000 1.000000 0.245760
1.000000 1.000000 0.245760
0.000000 0.000000 0.394160
0.073000 0.000000 0.394160
0.206000 0.000000 0.394160
0.339000 0.000000 0.394160
0.472000 0.000000 0.394160
0.605000 0.000000 0.394160
0.738000 0.000000 0.394160
0.871000 0.000000 0.394160
1.000000 0.000000 0.394160
0.000000 0.080000 0.394160
0.073000 0.080000 0.394160
0.206000 0.080000 0.394160
0.339000 0.080000 0.394160
0.472000 0.080000 0.394160
0.605000 0.080000 0.394160
0.738000 0.080000 0.394160
0.871000 0.080000 0.394160
1.000000 0.080000 0.394160
0.000000 0.220000 0.394160
0.073000 0.220000 0.394160
0.206000 0.220000 0.394160
0.339000 0.220000 0.394160
0.472000 0.220000 0.394160
0.605000 0.220000 0.394160
0.738000 0.220000 0.394160
0.871000 0.220000 0.394160
1.000000 0.220000 0.394160
0.000000 0.360000 0.394160
0.073000 0.360000 0.394160
0.206000 0.360000 0.394160
0.339000 0.360000 0.394160
0.472000 0.360000 0.394160
0.605000 0.360000 0.394160
0.738000 0.360000 0.394160
0.871000 0.360000 0.394160
1.000000 0.360000 0.394160
0.000000 0.500000 0.394160
0.073000 0.500000 0.394160
0.206000 0.500000 0.394160
0.339000 0.500000 0.394160
0.472000 0.500000 0.394160
0.605000 0.500000 0.394160
0.738000 0.500000 0.394160
0.871000 0.500000 0.394160
1.000000 0.500000 0.394160
0.000000 0.640000 0.394160
0.073000 0.640000 0.394160
0.206000 0.640000 0.394160
0.339000 0.640000 0.394160
0.472000 0.640000 0.394160
0.605000 0.640000 0.394160
0.738000 0.640000 0.394160
0.871000 0.640000 0.394160
1.000000 0.640000 0.394160
0.000000 0.780000 0.394160
0.073000 0.780000 0.394160
0.206000 0.780000 0.394160
0.339000 0.780000 0.394160
0.472000 0.780000 0.394160
0.605000 0.780000 0.394160
0.738000 0.780000 0.394160
0.871000 0.780000 0.394160
1.000000 0.780000 0.394160
0.000000 0.920000 0.394160
0.073000 0.920000 0.394160
0.206000 0.920000 0.394160
0.339000 0.920000 0.394160
0.472000 0.920000 0.394160
0.605000 0.920000 0.394160
0.738000 0.920000 0.394160
0.871000 0.920000 0.394160
1.000000 0.920000 0.394160
0.000000 1.000000 0.394160
0.073000 1.000000 0.394160
0.206000 1.000000 0.394160
0.339000 1.000000 0.394160
0.472000 1.000000 0.394160
0.605000 1.000000 0.394160
0.738000 1.000000 0.394160
0.871000 1.000000 0.394160
1.000000 1.000000 0.394160
0.000000 0.000000 0.542560
0.073000 0.000000 0.542560
0.206000 0.000000 0.542560
0.339000 0.000000 0.542560
0.472000 0.000000 0.542560
0.605000 0.000000 0.542560
0.738000 0.000000 0.542560
0.871000 0.000000 0.542560
1.000000 0.000000 0.542560
0.000000 0.080000 0.542560
0.073000 0.080000 0.542560
0.206000 0.080000 0.542560
0.339000 0.080000 0.542560
0.472000 0.080000 0.542560
0.605000 0.080000 0.542560
0.738000 0.080000 0.542560
0.871000 0.080000 0.542560
1.000000 0.080000 0.542560
0.000000 0.220000 0.542560
0.073000 0.220000 0.542560
0.206000 0.220000 0.542560
0.339000 0.220000 0.542560
0.472000 0.220000 0.542560
0.605000 0.220000 0.542560
0.738000 0.220000 0.542560
0.871000 0.220000 0.542560
1.000000 0.220000 0.542560
0.000000 0.360000 0.542560
0.073000 0.360000 0.542560
0.206000 0.360000 0.542560
0.339000 0.360000 0.542560
0.472000 0.360000 0.542560
0.605000 0.360000 0.542560
0.738000 0.360000 0.542560
0.871000 0.360000 0.542560
1.000000 0.360000 0.542560
0.000000 0.500000 0.542560
0.073000 0.500000 0.542560
0.206000 0.500000 0.542560
0.339000 0.500000 0.542560
0.472000 0.500000 0.542560
0.605000 0.500000 0.542560
0.738000 0.500000 0.542560
0.871000 0.500000 0.542560
1.000000 0.500000 0.542560
0.000000 0.640000 0.542560
0.073000 0.640000 0.542560
0.206000 0.640000 0.542560
0.339000 0.640000 0.542560
0.472000 0.640000 0.542560
0.605000 0.640000 0.542560
0.738000 0.640000 0.542560
0.871000 0.640000 0.542560
1.000000 0.640000 0.542560
0.000000 0.780000 0.542560
0.073000 0.780000 0.542560
0.206000 0.780000 0.542560
0.339000 0.780000 0.542560
0.472000 0.780000 0.542560
0.605000 0.780000 0.542560
0.738000 0.780000 0.542560
0.871000 0.780000 0.542560
1.000000 0.780000 0.542560
0.000000 0.920000 0.542560
0.073000 0.920000 0.542560
0.206000 0.920000 0.542560
0.339000 0.920000 0.542560
0.472000 0.920000 0.542560
0.605000 0.920000 0.542560
0.738000 0.920000 0.542560
0.871000 0.920000 0.542560
1.000000 0.920000 0.542560
0.000000 1.000000 0.542560
0.073000 1.000000 0.542560
0.206000 1.000000 0.542560
0.339000 1.000000 0.542560
0.472000 1.000000 0.542560
0.605000 1.000000 0.542560
0.738000 1.000000 0.542560
0.871000 1.000000 0.542560
1.000000 1.000000 0.542560
0.000000 0.000000 0.690960
0.073000 0.000000 0.690960
0.206000 0.000000 0.690960
0.339000 0.000000 0.690960
0.472000 0.000000 0.690960
0.605000 0.000000 0.690960
0.738000 0.000000 0.690960
0.871000 0.000000 0.690960
1.000000 0.000000 0.690960
0.000000 0.080000 0.690960
0.073000 0.080000 0.690960
0.206000 0.080000 0.690960
0.339000 0.080000 0.690960
0.472000 0.080000 0.690960
0.605000 0.080000 0.690960
0.738000 0.080000 0.690960
0.871000 0.080000 0.690960
1.000000 0.080000 0.690960
0.000000 0.220000 0.690960
0.073000 0.220000 0.690960
0.206000 0.220000 0.690960
0.339000 0.220000 0.690960
0.472000 0.220000 0.690960
0.605000 0.220000 0.690960
0.738000 0.220000 0.690960
0.871000 0.220000 0.690960
1.000000 0.220000 0.690960
0.000000 0.360000 0.690960
0.073000 0.360000 0.690960
0.206000 0.360000 0.690960
0.339000 0.360000 0.690960
0.472000 0.360000 0.690960
0.605000 0.360000 0.690960
0.738000 0.360000 0.690960
0.871000 0.360000 0.690960
1.000000 0.360000 0.690960
0.000000 0.500000 0.690960
0.073000 0.500000 0.690960
0.206000 0.500000 0.690960
0.339000 0.500000 0.690960
0.472000 0.500000 0.690960
0.605000 0.500000 0.690960
0.738000 0.500000 0.690960
0.871000 0.500000 0.690960
1.000000 0.500000 0.690960
0.000000 0.640000 0.690960
0.073000 0.640000 0.690960
0.206000 0.640000 0.690960
0.339000 0.640000 0.690960
0.472000 0.640000 0.690960
0.605000 0.640000 0.690960
0.738000 0.640000 0.690960
0.871000 0.640000 0.690960
1.000000 0.640000 0.690960
0.000000 0.780000 0.690960
0.073000 0.780000 0.690960
0.206000 0.780000 0.690960
0.339000 0.780000 0.690960
0.472000 0.780000 0.690960
0.605000 0.780000 0.690960
0.738000 0.780000 0.690960
0.871000 0.780000 0.690960
1.000000 0.780000 0.690960
0.000000 0.920000 0.690960
0.073000 0.920000 0.690960
0.206000 0.920000 0.690960
0.339000 0.920000 0.690960
0.472000 0.920000 0.690960
0.605000 0.920000 0.690960
0.738000 0.920000 0.690960
0.871000 0.920000 0.690960
1.000000 0.920000 0.690960
0.000000 1.000000 0.690960
0.073000 1.000000 0.690960
0.206000 1.000000 0.690960
0.339000 1.000000 0.690960
0.472000 1.000000 0.690960
0.605000 1.000000 0.690960
0.738000 1.000000 0.690960
0.871000 1.000000 0.690960
1.000000 1.000000 0.690960
0.000000 0.000000 0.839360
0.073000 0.000000 0.839360
0.206000 0.000000 0.839360
0.339000 0.000000 0.839360
0.472000 0.000000 0.839360
0.605000 0.000000 0.839360
0.738000 0.000000 0.839360
0.871000 0.000000 0.839360
1.000000 0.000000 0.839360
0.000000 0.080000 0.839360
0.073000 0.080000 0.839360
0.206000 0.080000 0.839360
0.339000 0.080000 0.839360
0.472000 0.080000 0.839360
0.605000 0.080000 0.839360
0.738000 0.080000 0.839360
0.871000 0.080000 0.839360
1.000000 0.080000 0.839360
0.000000 0.220000 0.839360
0.073000 0.220000 0.839360
0.206000 0.220000 0.839360
0.339000 0.220000 0.839360
0.472000 0.220000 0.839360
0.605000 0.220000 0.839360
0.738000 0.220000 0.839360
0.871000 0.220000 0.839360
1.000000 0.220000 0.839360
0.000000 0.360000 0.839360
0.073000 0.360000 0.839360
0.206000 0.360000 0.839360
0.339000 0.360000 0.839360
0.472000 0.360000 0.839360
0.605000 0.360000 0.839360
0.738000 0.360000 0.839360
0.871000 0.360000 0.839360
1.000000 0.360000 0.839360
0.000000 0.500000 0.839360
0.073000 0.500000 0.839360
0.206000 0.500000 0.839360
0.339000 0.500000 0.839360
0.472000 0.500000 0.839360
0.605000 0.500000 0.839360
0.738000 0.500000 0.839360
0.871000 0.500000 0.839360
1.000000 0.500000 0.839360
0.000000 0.640000 0.839360
0.073000 0.640000 0.839360
0.206000 0.640000 0.839360
0.339000 0.640000 0.839360
0.472000 0.640000 0.839360
0.605000 0.640000 0.839360
0.738000 0.640000 0.839360
0.871000 0.640000 0.839360
1.000000 0.640000 0.839360
0.000000 0.780000 0.839360
0.073000 0.780000 0.839360
0.206000 0.780000 0.839360
0.339000 0.780000 0.839360
0.472000 0.780000 0.839360
0.605000 0.780000 0.839360
0.738000 0.780000 0.839360
0.871000 0.780000 0.839360
1.000000 0.780000 0.839360
0.000000 0.920000 0.839360
0.073000 0.920000 0.839360
0.206000 0.920000 0.839360
0.339000 0.920000 0.839360
0.472000 0.920000 0.839360
0.605000 0.920000 0.839360
0.738000 0.920000 0.839360
0.871000 0.920000 0.839360
1.000000 0.920000 0.839360
0.000000 1.000000 0.839360
0.073000 1.000000 0.839360
0.206000 1.000000 0.839360
0.339000 1.000000 0.839360
0.472000 1.000000 0.839360
0.605000 1.000000 0.839360
0.738000 1.000000 0.839360
0.871000 1.000000 0.839360
1.000000 1.000000 0.839360
0.000000 0.000000 0.987760
0.073000 0.000000 0.987760
0.206000 0.000000 0.987760
0.339000 0.000000 0.987760
0.472000 0.000000 0.987760
0.605000 0.000000 0.987760
0.738000 0.000000 0.987760
0.871000 0.000000 0.987760
1.000000 0.000000 0.987760
0.000000 0.080000 0.987760
0.073000 0.080000 0.987760
0.206000 0.080000 0.987760
0.339000 0.080000 0.987760
0.472000 0.080000 0.987760
0.605000 0.080000 0.987760
0.738000 0.080000 0.987760
0.871000 0.080000 0.987760
1.000000 0.080000 0.987760
0.000000 0.220000 0.987760
0.073000 0.220000 0.987760
0.206000 0.220000 0.987760
0.339000 0.220000 0.987760
0.472000 0.220000 0.987760
0.605000 0.220000 0.987760
0.738000 0.220000 0.987760
0.871000 0.220000 0.987760
1.000000 0.220000 0.987760
0.000000 0.360000 0.987760
0.073000 0.360000 0.987760
0.206000 0.360000 0.987760
0.339000 0.360000 0.987760
0.472000 0.360000 0.987760
0.605000 0.360000 0.987760
0.738000 0.360000 0.987760
0.871000 0.360000 0.987760
1.000000 0.360000 0.987760
0.000000 0.500000 0.987760
0.073000 0.500000 0.987760
0.206000 0.500000 0.987760
0.339000 0.500000 0.987760
0.472000 0.500000 0.987760
0.605000 0.500000 0.987760
0.738000 0.500000 0.987760
0.871000 0.500000 0.987760
1.000000 0.500000 0.987760
0.000000 0.640000 0.987760
0.073000 0.640000 0.987760
0.206000 0.640000 0.987760
0.339000 0.640000 0.987760
0.472000 0.640000 0.987760
0.605000 0.640000 0.987760
0.738000 0.640000 0.987760
0.871000 0.640000 0.987760
1.000000 0.640000 0.987760
0.000000 0.780000 0.987760
0.073000 0.780000 0.987760
0.206000 0.780000 0.987760
0.339000 0.780000 0.987760
0.472000 0.780000 0.987760
0.605000 0.780000 0.987760
0.738000 0.780000 0.987760
0.871000 0.780000 0.987760
1.000000 0.780000 0.987760
0.000000 0.920000 0.987760
0.073000 0.920000 0.987760
0.206000 0.920000 0.987760
0.339000 0.920000 0.987760
0.472000 0.920000 0.987760
0.605000 0.920000 0.987760
0.738000 0.920000 0.987760
0.871000 0.920000 0.987760
1.000000 0.920000 0.987760
0.000000 1.000000 0.987760
0.073000 1.000000 0.987760
0.206000 1.000000 0.987760
0.339000 1.000000 0.987760
0.472000 1.000000 0.987760
0.605000 1.000000 0.987760
0.738000 1.000000 0.987760
0.871000 1.000000 0.987760
1.000000 1.000000 0.987760
0.000000 0.000000 1.000000
0.073000 0.000000 1.000000
0.206000 0.000000 1.000000
0.339000 0.000000 1.000000
0.472000 0.000000 1.000000
0.605000 0.000000 1.000000
0.738000 0.000000 1.000000
0.871000 0.000000 1.000000
1.000000 0.000000 1.000000
0.000000 0.080000 1.000000
0.073000 0.080000 1.000000
0.206000 0.080000 1.000000
0.339000 0.080000 1.000000
0.472000 0.080000 1.000000
0.605000 0.080000 1.000000
0.738000 0.080000 1.000000
0.871000 0.080000 1.000000
1.000000 0.080000 1.000000
0.000000 0.220000 1.000000
0.073000 0.220000 1.000000
0.206000 0.220000 1.000000
0.339000 0.220000 1.000000
0.472000 0.220000 1.000000
0.605000 0.220000 1.000000
0.738000 0.220000 1.000000
0.871000 0.220000 1.000000
1.000000 0.220000 1.000000
0.000000 0.360000 1.000000
0.073000 0.360000 1.000000
0.206000 0.360000 1.000000
0.339000 0.360000 1.000000
0.472000 0.360000 1.000000
0.605000 0.360000 1.000000
0.738000 0.360000 1.000000
0.871000 0.360000 1.000000
1.000000 0.360000 1.000000
0.000000 0.500000 1.000000
0.073000 0.500000 1.000000
0.206000 0.500000 1.000000
0.339000 0.500000 1.000000
0.472000 0.500000 1.000000
0.605000 0.500000 1.000000
0.738000 0.500000 1.000000
0.871000 0.500000 1.000000
1.000000 0.500000 1.000000
0.000000 0.640000 1.000000
0.073000 0.640000 1.000000
0.206000 0.640000 1.000000
0.339000 0.640000 1.000000
0.472000 0.640000 1.000000
0.605000 0.640000 1.000000
0.738000 0.640000 1.000000
0.871000 0.640000 1.000000
1.000000 0.640000 1.000000
0.000000 0.780000 1.000000
0.073000 0.780000 1.000000
0.206000 0.780000 1.000000
0.339000 0.780000 1.000000
0.472000 0.780000 1.000000
0.605000 0.780000 1.000000
0.738000 0.780000 1.000000
0.871000 0.780000 1.000000
1.000000 0.780000 1.000000
0.000000 0.920000 1.000000
0.073000 0.920000 1.000000
0.206000 0.920000 1.000000
0.339000 0.920000 1.000000
0.472000 0.920000 1.000000
0.605000 0.920000 1.000000
0.738000 0.920000 1.000000
0.871000 0.920000 1.000000
1.000000 0.920000 1.000000
0.000000 1.000000 1.000000
0.073000 1.000000 1.000000
0.206000 1.000000 1.000000
0.339000 1.000000 1.000000
0.472000 1.000000 1.000000
0.605000 1.000000 1.000000
0.738000 1.000000 1.000000
0.871000 1.000000 1.000000
1.000000 1.000000 1.000000
