luts/CoolCrisp.cube
TITLE "CoolCrisp"
LUT_3D_SIZE 17
DOMAIN_MIN 0.0 0.0 0.0
DOMAIN_MAX 1.0 1.0 1.0
0.000000 0.000000 0.000000
0.006500 0.000000 0.000000
0.073000 0.000000 0.000000
0.139500 0.000000 0.000000
0.206000 0.000000 0.000000
0.272500 0.000000 0.000000
0.339000 0.000000 0.000000
0.405500 0.000000 0.000000
0.472000 0.000000 0.000000
0.538500 0.000000 0.000000
0.605000 0.000000 0.000000
0.671500 0.000000 0.000000
0.738000 0.000000 0.000000
0.804500 0.000000 0.000000
0.871000 0.000000 0.000000
0.937500 0.000000 0.000000
1.000000 0.000000 0.000000
0.000000 0.010000 0.000000
0.006500 0.010000 0.000000
0.073000 0.010000 0.000000
0.139500 0.010000 0.000000
0.206000 0.010000 0.000000
0.272500 0.010000 0.000000
0.339000 0.010000 0.000000
0.405500 0.010000 0.000000
0.472000 0.010000 0.000000
0.538500 0.010000 0.000000
0.605000 0.010000 0.000000
0.671500 0.010000 0.000000
0.738000 0.010000 0.000000
0.804500 0.010000 0.000000
0.871000 0.010000 0.000000
0.937500 0.010000 0.000000
1.000000 0.010000 0.000000
0.000000 0.080000 0.000000
0.006500 0.080000 0.000000
0.073000 0.080000 0.000000
0.139500 0.080000 0.000000
0.206000 0.080000 0.000000
0.272500 0.080000 0.000000
0.339000 0.080000 0.000000
0.405500 0.080000 0.000000
0.472000 0.080000 0.000000
0.538500 0.080000 0.000000
0.605000 0.080000 0.000000
0.671500 0.080000 0.000000
0.738000 0.080000 0.000000
0.804500 0.080000 0.000000
0.871000 0.080000 0.000000
0.937500 0.080000 0.000000
1.000000 0.080000 0.000000
0.000000 0.150000 0.000000
0.006500 0.150000 0.000000
0.073000 0.150000 0.000000
0.139500 0.150000 0.000000
0.206000 0.150000 0.000000
0.272500 0.150000 0.000000
0.339000 0.150000 0.000000
0.405500 0.150000 0.000000
0.472000 0.150000 0.000000
0.538500 0.150000 0.000000
0.605000 0.150000 0.000000
0.671500 0.150000 0.000000
0.738000 0.150000 0.000000
0.804500 0.150000 0.000000
0.871000 0.150000 0.000000
0.937500 0.150000 0.000000
1.000000 0.150000 0.000000
0.000000 0.220000 0.000000
0.006500 0.220000 0.000000
0.073000 0.220000 0.000000
0.139500 0.220000 0.000000
0.206000 0.220000 0.000000
0.272500 0.220000 0.000000
0.339000 0.220000 0.000000
0.405500 0.220000 0.000000
0.472000 0.220000 0.000000
0.538500 0.220000 0.000000
0.605000 0.220000 0.000000
0.671500 0.220000 0.000000
0.738000 0.220000 0.000000
0.804500 0.220000 0.000000
0.871000 0.220000 0.000000
0.937500 0.220000 0.000000
1.000000 0.220000 0.000000
0.000000 0.290000 0.000000
0.006500 0.290000 0.000000
0.073000 0.290000 0.000000
0.139500 0.290000 0.000000
0.206000 0.290000 0.000000
0.272500 0.290000 0.000000
0.339000 0.290000 0.000000
0.405500 0.290000 0.000000
0.472000 0.290000 0.000000
0.538500 0.290000 0.000000
0.605000 0.290000 0.000000
0.671500 0.290000 0.000000
0.738000 0.290000 0.000000
0.804500 0.290000 0.000000
0.871000 0.290000 0.000000
0.937500 0.290000 0.000000
1.000000 0.290000 0.000000
0.000000 0.360000 0.000000
0.006500 0.360000 0.000000
0.073000 0.360000 0.000000
0.139500 0.360000 0.000000
0.206000 0.360000 0.000000
0.272500 0.360000 0.000000
0.339000 0.360000 0.000000
0.405500 0.360000 0.000000
0.472000 0.360000 0.000000
0.538500 0.360000 0.000000
0.605000 0.360000 0.000000
0.671500 0.360000 0.000000
0.738000 0.360000 0.000000
0.804500 0.360000 0.000000
0.871000 0.360000 0.000000
0.937500 0.360000 0.000000
1.000000 0.360000 0.000000
0.000000 0.430000 0.000000
0.006500 0.430000 0.000000
0.073000 0.430000 0.000000
0.139500 0.430000 0.000000
0.206000 0.430000 0.000000
0.272500 0.430000 0.000000
0.339000 0.430000 0.000000
0.405500 0.430000 0.000000
0.472000 0.430000 0.000000
0.538500 0.430000 0.000000
0.605000 0.430000 0.000000
0.671500 0.430000 0.000000
0.738000 0.430000 0.000000
0.804500 0.430000 0.000000
0.871000 0.430000 0.000000
0.937500 0.430000 0.000000
1.000000 0.430000 0.000000
0.000000 0.500000 0.000000
0.006500 0.500000 0.000000
0.073000 0.500000 0.000000
0.139500 0.500000 0.000000
0.206000 0.500000 0.000000
0.272500 0.500000 0.000000
0.339000 0.500000 0.000000
0.405500 0.500000 0.000000
0.472000 0.500000 0.000000
0.538500 0.500000 0.000000
0.605000 0.500000 0.000000
0.671500 0.500000 0.000000
0.738000 0.500000 0.000000
0.804500 0.500000 0.000000
0.871000 0.500000 0.000000
0.937500 0.500000 0.000000
1.000000 0.500000 0.000000
0.000000 0.570000 0.000000
0.006500 0.570000 0.000000
0.073000 0.570000 0.000000
0.139500 0.570000 0.000000
0.206000 0.570000 0.000000
0.272500 0.570000 0.000000
0.339000 0.570000 0.000000
0.405500 0.570000 0.000000
0.472000 0.570000 0.000000
0.538500 0.570000 0.000000
0.605000 0.570000 0.000000
0.671500 0.570000 0.000000
0.738000 0.570000 0.000000
0.804500 0.570000 0.000000
0.871000 0.570000 0.000000
0.937500 0.570000 0.000000
1.000000 0.570000 0.000000
0.000000 0.640000 0.000000
0.006500 0.640000 0.000000
0.073000 0.640000 0.000000
0.139500 0.640000 0.000000
0.206000 0.640000 0.000000
0.272500 0.640000 0.000000
0.339000 0.640000 0.000000
0.405500 0.640000 0.000000
0.472000 0.640000 0.000000
0.538500 0.640000 0.000000
0.605000 0.640000 0.000000
0.671500 0.640000 0.000000
0.738000 0.640000 0.000000
0.804500 0.640000 0.000000
0.871000 0.640000 0.000000
0.937500 0.640000 0.000000
1.000000 0.640000 0.000000
0.000000 0.710000 0.000000
0.006500 0.710000 0.000000
0.073000 0.710000 0.000000
0.139500 0.710000 0.000000
0.206000 0.710000 0.000000
0.272500 0.710000 0.000000
0.339000 0.710000 0.000000
0.405500 0.710000 0.000000
0.472000 0.710000 0.000000
0.538500 0.710000 0.000000
0.605000 0.710000 0.000000
0.671500 0.710000 0.000000
0.738000 0.710000 0.000000
0.804500 0.710000 0.000000
0.871000 0.710000 0.000000
0.937500 0.710000 0.000000
1.000000 0.710000 0.000000
0.000000 0.780000 0.000000
0.006500 0.780000 0.000000
0.073000 0.780000 0.000000
0.139500 0.780000 0.000000
0.206000 0.780000 0.000000
0.272500 0.780000 0.000000
0.339000 0.780000 0.000000
0.405500 0.780000 0.000000
0.472000 0.780000 0.000000
0.538500 0.780000 0.000000
0.605000 0.780000 0.000000
0.671500 0.780000 0.000000
0.738000 0.780000 0.000000
0.804500 0.780000 0.000000
0.871000 0.780000 0.000000
0.937500 0.780000 0.000000
1.000000 0.780000 0.000000
0.000000 0.850000 0.000000
0.006500 0.850000 0.000000
0.073000 0.850000 0.000000
0.139500 0.850000 0.000000
0.206000 0.850000 0.000000
0.272500 0.850000 0.000000
0.339000 0.850000 0.000000
0.405500 0.850000 0.000000
0.472000 0.850000 0.000000
0.538500 0.850000 0.000000
0.605000 0.850000 0.000000
0.671500 0.850000 0.000000
0.738000 0.850000 0.000000
0.804500 0.850000 0.000000
0.871000 0.850000 0.000000
0.937500 0.850000 0.000000
1.000000 0.850000 0.000000
0.000000 0.920000 0.000000
0.006500 0.920000 0.000000
0.073000 0.920000 0.000000
0.139500 0.920000 0.000000
0.206000 0.920000 0.000000
0.272500 0.920000 0.000000
0.339000 0.920000 0.000000
0.405500 0.920000 0.000000
0.472000 0.920000 0.000000
0.538500 0.920000 0.000000
0.605000 0.920000 0.000000
0.671500 0.920000 0.000000
0.738000 0.920000 0.000000
0.804500 0.920000 0.000000
0.871000 0.920000 0.000000
0.937500 0.920000 0.000000
1.000000 0.920000 0.000000
0.000000 0.990000 0.000000
0.006500 0.990000 0.000000
0.073000 0.990000 0.000000
0.139500 0.990000 0.000000
0.206000 0.990000 0.000000
0.272500 0.990000 0.000000
0.339000 0.990000 0.000000
0.405500 0.990000 0.000000
0.472000 0.990000 0.000000
0.538500 0.990000 0.000000
0.605000 0.990000 0.000000
0.671500 0.990000 0.000000
0.738000 0.990000 0.000000
0.804500 0.990000 0.000000
0.871000 0.990000 0.000000
0.937500 0.990000 0.000000
1.000000 0.990000 0.000000
0.000000 1.000000 0.000000
0.006500 1.000000 0.000000
0.073000 1.000000 0.000000
0.139500 1.000000 0.000000
0.206000 1.000000 0.000000
0.272500 1.000000 0.000000
0.339000 1.000000 0.000000
0.405500 1.000000 0.000000
0.472000 1.000000 0.000000
0.538500 1.000000 0.000000
0.605000 1.000000 0.000000
0.671500 1.000000 0.000000
0.738000 1.000000 0.000000
0.804500 1.000000 0.000000
0.871000 1.000000 0.000000
0.937500 1.000000 0.000000
1.000000 1.000000 0.000000
0.000000 0.000000 0.023160
0.006500 0.000000 0.023160
0.073000 0.000000 0.023160
0.139500 0.000000 0.023160
0.206000 0.000000 0.023160
0.272500 0.000000 0.023160
0.339000 0.000000 0.023160
0.405500 0.000000 0.023160
0.472000 0.000000 0.023160
0.538500 0.000000 0.023160
0.605000 0.000000 0.023160
0.671500 0.000000 0.023160
0.738000 0.000000 0.023160
0.804500 0.000000 0.023160
0.871000 0.000000 0.023160
0.937500 0.000000 0.023160
1.000000 0.000000 0.023160
0.000000 0.010000 0.023160
0.006500 0.010000 0.023160
0.073000 0.010000 0.023160
0.139500 0.010000 0.023160
0.206000 0.010000 0.023160
0.272500 0.010000 0.023160
0.339000 0.010000 0.023160
0.405500 0.010000 0.023160
0.472000 0.010000 0.023160
0.538500 0.010000 0.023160
0.605000 0.010000 0.023160
0.671500 0.010000 0.023160
0.738000 0.010000 0.023160
0.804500 0.010000 0.023160
0.871000 0.010000 0.023160
0.937500 0.010000 0.023160
1.000000 0.010000 0.023160
0.000000 0.080000 0.023160
0.006500 0.080000 0.023160
0.073000 0.080000 0.023160
0.139500 0.080000 0.023160
0.206000 0.080000 0.023160
0.272500 0.080000 0.023160
0.339000 0.080000 0.023160
0.405500 0.080000 0.023160
0.472000 0.080000 0.023160
0.538500 0.080000 0.023160
0.605000 0.080000 0.023160
0.671500 0.080000 0.023160
0.738000 0.080000 0.023160
0.804500 0.080000 0.023160
0.871000 0.080000 0.023160
0.937500 0.080000 0.023160
1.000000 0.080000 0.023160
0.000000 0.150000 0.023160
0.006500 0.150000 0.023160
0.073000 0.150000 0.023160
0.139500 0.150000 0.023160
0.206000 0.150000 0.023160
0.272500 0.150000 0.023160
0.339000 0.150000 0.023160
0.405500 0.150000 0.023160
0.472000 0.150000 0.023160
0.538500 0.150000 0.023160
0.605000 0.150000 0.023160
0.671500 0.150000 0.023160
0.738000 0.150000 0.023160
0.804500 0.150000 0.023160
0.871000 0.150000 0.023160
0.937500 0.150000 0.023160
1.000000 0.150000 0.023160
0.000000 0.220000 0.023160
0.006500 0.220000 0.023160
0.073000 0.220000 0.023160
0.139500 0.220000 0.023160
0.206000 0.220000 0.023160
0.272500 0.220000 0.023160
0.339000 0.220000 0.023160
0.405500 0.220000 0.023160
0.472000 0.220000 0.023160
0.538500 0.220000 0.023160
0.605000 0.220000 0.023160
0.671500 0.220000 0.023160
0.738000 0.220000 0.023160
0.804500 0.220000 0.023160
0.871000 0.220000 0.023160
0.937500 0.220000 0.023160
1.000000 0.220000 0.023160
0.000000 0.290000 0.023160
0.006500 0.290000 0.023160
0.073000 0.290000 0.023160
0.139500 0.290000 0.023160
0.206000 0.290000 0.023160
0.272500 0.290000 0.023160
0.339000 0.290000 0.023160
0.405500 0.290000 0.023160
0.472000 0.290000 0.023160
0.538500 0.290000 0.023160
0.605000 0.290000 0.023160
0.671500 0.290000 0.023160
0.738000 0.290000 0.023160
0.804500 0.290000 0.023160
0.871000 0.290000 0.023160
0.937500 0.290000 0.023160
1.000000 0.290000 0.023160
0.000000 0.360000 0.023160
0.006500 0.360000 0.023160
0.073000 0.360000 0.023160
0.139500 0.360000 0.023160
0.206000 0.360000 0.023160
0.272500 0.360000 0.023160
0.339000 0.360000 0.023160
0.405500 0.360000 0.023160
0.472000 0.360000 0.023160
0.538500 0.360000 0.023160
0.605000 0.360000 0.023160
0.671500 0.360000 0.023160
0.738000 0.360000 0.023160
0.804500 0.360000 0.023160
0.871000 0.360000 0.023160
0.937500 0.360000 0.023160
1.000000 0.360000 0.023160
0.000000 0.430000 0.023160
0.006500 0.430000 0.023160
0.073000 0.430000 0.023160
0.139500 0.430000 0.023160
0.206000 0.430000 0.023160
0.272500 0.430000 0.023160
0.339000 0.430000 0.023160
0.405500 0.430000 0.023160
0.472000 0.430000 0.023160
0.538500 0.430000 0.023160
0.605000 0.430000 0.023160
0.671500 0.430000 0.023160
0.738000 0.430000 0.023160
0.804500 0.430000 0.023160
0.871000 0.430000 0.023160
0.937500 0.430000 0.023160
1.000000 0.430000 0.023160
0.000000 0.500000 0.023160
0.006500 0.500000 0.023160
0.073000 0.500000 0.023160
0.139500 0.500000 0.023160
0.206000 0.500000 0.023160
0.272500 0.500000 0.023160
0.339000 0.500000 0.023160
0.405500 0.500000 0.023160
0.472000 0.500000 0.023160
0.538500 0.500000 0.023160
0.605000 0.500000 0.023160
0.671500 0.500000 0.023160
0.738000 0.500000 0.023160
0.804500 0.500000 0.023160
0.871000 0.500000 0.023160
0.937500 0.500000 0.023160
1.000000 0.500000 0.023160
0.000000 0.570000 0.023160
0.006500 0.570000 0.023160
0.073000 0.570000 0.023160
0.139500 0.570000 0.023160
0.206000 0.570000 0.023160
0.272500 0.570000 0.023160
0.339000 0.570000 0.023160
0.405500 0.570000 0.023160
0.472000 0.570000 0.023160
0.538500 0.570000 0.023160
0.605000 0.570000 0.023160
0.671500 0.570000 0.023160
0.738000 0.570000 0.023160
0.804500 0.570000 0.023160
0.871000 0.570000 0.023160
0.937500 0.570000 0.023160
1.000000 0.570000 0.023160
0.000000 0.640000 0.023160
0.006500 0.640000 0.023160
0.073000 0.640000 0.023160
0.139500 0.640000 0.023160
0.206000 0.640000 0.023160
0.272500 0.640000 0.023160
0.339000 0.640000 0.023160
0.405500 0.640000 0.023160
0.472000 0.640000 0.023160
0.538500 0.640000 0.023160
0.605000 0.640000 0.023160
0.671500 0.640000 0.023160
0.738000 0.640000 0.023160
0.804500 0.640000 0.023160
0.871000 0.640000 0.023160
0.937500 0.640000 0.023160
1.000000 0.640000 0.023160
0.000000 0.710000 0.023160
0.006500 0.710000 0.023160
0.073000 0.710000 0.023160
0.139500 0.710000 0.023160
0.206000 0.710000 0.023160
0.272500 0.710000 0.023160
0.339000 0.710000 0.023160
0.405500 0.710000 0.023160
0.472000 0.710000 0.023160
0.538500 0.710000 0.023160
0.605000 0.710000 0.023160
0.671500 0.710000 0.023160
0.738000 0.710000 0.023160
0.804500 0.710000 0.023160
0.871000 0.710000 0.023160
0.937500 0.710000 0.023160
1.000000 0.710000 0.023160
0.000000 0.780000 0.023160
0.006500 0.780000 0.023160
0.073000 0.780000 0.023160
0.139500 0.780000 0.023160
0.206000 0.780000 0.023160
0.272500 0.780000 0.023160
0.339000 0.780000 0.023160
0.405500 0.780000 0.023160
0.472000 0.780000 0.023160
0.538500 0.780000 0.023160
0.605000 0.780000 0.023160
0.671500 0.780000 0.023160
0.738000 0.780000 0.023160
0.804500 0.780000 0.023160
0.871000 0.780000 0.023160
0.937500 0.780000 0.023160
1.000000 0.780000 0.023160
0.000000 0.850000 0.023160
0.006500 0.850000 0.023160
0.073000 0.850000 0.023160
0.139500 0.850000 0.023160
0.206000 0.850000 0.023160
0.272500 0.850000 0.023160
0.339000 0.850000 0.023160
0.405500 0.850000 0.023160
0.472000 0.850000 0.023160
0.538500 0.850000 0.023160
0.605000 0.850000 0.023160
0.671500 0.850000 0.023160
0.738000 0.850000 0.023160
0.804500 0.850000 0.023160
0.871000 0.850000 0.023160
0.937500 0.850000 0.023160
1.000000 0.850000 0.023160
0.000000 0.920000 0.023160
0.006500 0.920000 0.023160
0.073000 0.920000 0.023160
0.139500 0.920000 0.023160
0.206000 0.920000 0.023160
0.272500 0.920000 0.023160
0.339000 0.920000 0.023160
0.405500 0.920000 0.023160
0.472000 0.920000 0.023160
0.538500 0.920000 0.023160
0.605000 0.920000 0.023160
0.671500 0.920000 0.023160
0.738000 0.920000 0.023160
0.804500 0.920000 0.023160
0.871000 0.920000 0.023160
0.937500 0.920000 0.023160
1.000000 0.920000 0.023160
0.000000 0.990000 0.023160
0.006500 0.990000 0.023160
0.073000 0.990000 0.023160
0.139500 0.990000 0.023160
0.206000 0.990000 0.023160
0.272500 0.990000 0.023160
0.339000 0.990000 0.023160
0.405500 0.990000 0.023160
0.472000 0.990000 0.023160
0.538500 0.990000 0.023160
0.605000 0.990000 0.023160
0.671500 0.990000 0.023160
0.738000 0.990000 0.023160
0.804500 0.990000 0.023160
0.871000 0.990000 0.023160
0.937500 0.990000 0.023160
1.000000 0.990000 0.023160
0.000000 1.000000 0.023160
0.006500 1.000000 0.023160
0.073000 1.000000 0.023160
0.139500 1.000000 0.023160
0.206000 1.000000 0.023160
0.272500 1.000000 0.023160
0.339000 1.000000 0.023160
0.405500 1.000000 0.023160
0.472000 1.000000 0.023160
0.538500 1.000000 0.023160
0.605000 1.000000 0.023160
0.671500 1.000000 0.023160
0.738000 1.000000 0.023160
0.804500 1.000000 0.023160
0.871000 1.000000 0.023160
0.937500 1.000000 0.023160
1.000000 1.000000 0.023160
0.000000 0.000000 0.097360
0.006500 0.000000 0.097360
0.073000 0.000000 0.097360
0.139500 0.000000 0.097360
0.206000 0.000000 0.097360
0.272500 0.000000 0.097360
0.339000 0.000000 0.097360
0.405500 0.000000 0.097360
0.472000 0.000000 0.097360
0.538500 0.000000 0.097360
0.605000 0.000000 0.097360
0.671500 0.000000 0.097360
0.738000 0.000000 0.097360
0.804500 0.000000 0.097360
0.871000 0.000000 0.097360
0.937500 0.000000 0.097360
1.000000 0.000000 0.097360
0.000000 0.010000 0.097360
0.006500 0.010000 0.097360
0.073000 0.010000 0.097360
0.139500 0.010000 0.097360
0.206000 0.010000 0.097360
0.272500 0.010000 0.097360
0.339000 0.010000 0.097360
0.405500 0.010000 0.097360
0.472000 0.010000 0.097360
0.538500 0.010000 0.097360
0.605000 0.010000 0.097360
0.671500 0.010000 0.097360
0.738000 0.010000 0.097360
0.804500 0.010000 0.097360
0.871000 0.010000 0.097360
0.937500 0.010000 0.097360
1.000000 0.010000 0.097360
0.000000 0.080000 0.097360
0.006500 0.080000 0.097360
0.073000 0.080000 0.097360
0.139500 0.080000 0.097360
0.206000 0.080000 0.097360
0.272500 0.080000 0.097360
0.339000 0.080000 0.097360
0.405500 0.080000 0.097360
0.472000 0.080000 0.097360
0.538500 0.080000 0.097360
0.605000 0.080000 0.097360
0.671500 0.080000 0.097360
0.738000 0.080000 0.097360
0.804500 0.080000 0.097360
0.871000 0.080000 0.097360
0.937500 0.080000 0.097360
1.000000 0.080000 0.097360
0.000000 0.150000 0.097360
0.006500 0.150000 0.097360
0.073000 0.150000 0.097360
0.139500 0.150000 0.097360
0.206000 0.150000 0.097360
0.272500 0.150000 0.097360
0.339000 0.150000 0.097360
0.405500 0.150000 0.097360
0.472000 0.150000 0.097360
0.538500 0.150000 0.097360
0.605000 0.150000 0.097360
0.671500 0.150000 0.097360
0.738000 0.150000 0.097360
0.804500 0.150000 0.097360
0.871000 0.150000 0.097360
0.937500 0.150000 0.097360
1.000000 0.150000 0.097360
0.000000 0.220000 0.097360
0.006500 0.220000 0.097360
0.073000 0.220000 0.097360
0.139500 0.220000 0.097360
0.206000 0.220000 0.097360
0.272500 0.220000 0.097360
0.339000 0.220000 0.097360
0.405500 0.220000 0.097360
0.472000 0.220000 0.097360
0.538500 0.220000 0.097360
0.605000 0.220000 0.097360
0.671500 0.220000 0.097360
0.738000 0.220000 0.097360
0.804500 0.220000 0.097360
0.871000 0.220000 0.097360
0.937500 0.220000 0.097360
1.000000 0.220000 0.097360
0.000000 0.290000 0.097360
0.006500 0.290000 0.097360
0.073000 0.290000 0.097360
0.139500 0.290000 0.097360
0.206000 0.290000 0.097360
0.272500 0.290000 0.097360
0.339000 0.290000 0.097360
0.405500 0.290000 0.097360
0.472000 0.290000 0.097360
0.538500 0.290000 0.097360
0.605000 0.290000 0.097360
0.671500 0.290000 0.097360
0.738000 0.290000 0.097360
0.804500 0.290000 0.097360
0.871000 0.290000 0.097360
0.937500 0.290000 0.097360
1.000000 0.290000 0.097360
0.000000 0.360000 0.097360
0.006500 0.360000 0.097360
0.073000 0.360000 0.097360
0.139500 0.360000 0.097360
0.206000 0.360000 0.097360
0.272500 0.360000 0.097360
0.339000 0.360000 0.097360
0.405500 0.360000 0.097360
0.472000 0.360000 0.097360
0.538500 0.360000 0.097360
0.605000 0.360000 0.097360
0.671500 0.360000 0.097360
0.738000 0.360000 0.097360
0.804500 0.360000 0.097360
0.871000 0.360000 0.097360
0.937500 0.360000 0.097360
1.000000 0.360000 0.097360
0.000000 0.430000 0.097360
0.006500 0.430000 0.097360
0.073000 0.430000 0.097360
0.139500 0.430000 0.097360
0.206000 0.430000 0.097360
0.272500 0.430000 0.097360
0.339000 0.430000 0.097360
0.405500 0.430000 0.097360
0.472000 0.430000 0.097360
0.538500 0.430000 0.097360
0.605000 0.430000 0.097360
0.671500 0.430000 0.097360
0.738000 0.430000 0.097360
0.804500 0.430000 0.097360
0.871000 0.430000 0.097360
0.937500 0.430000 0.097360
1.000000 0.430000 0.097360
0.000000 0.500000 0.097360
0.006500 0.500000 0.097360
0.073000 0.500000 0.097360
0.139500 0.500000 0.097360
0.206000 0.500000 0.097360
0.272500 0.500000 0.097360
0.339000 0.500000 0.097360
0.405500 0.500000 0.097360
0.472000 0.500000 0.097360
0.538500 0.500000 0.097360
0.605000 0.500000 0.097360
0.671500 0.500000 0.097360
0.738000 0.500000 0.097360
0.804500 0.500000 0.097360
0.871000 0.500000 0.097360
0.937500 0.500000 0.097360
1.000000 0.500000 0.097360
0.000000 0.570000 0.097360
0.006500 0.570000 0.097360
0.073000 0.570000 0.097360
0.139500 0.570000 0.097360
0.206000 0.570000 0.097360
0.272500 0.570000 0.097360
0.339000 0.570000 0.097360
0.405500 0.570000 0.097360
0.472000 0.570000 0.097360
0.538500 0.570000 0.097360
0.605000 0.570000 0.097360
0.671500 0.570000 0.097360
0.738000 0.570000 0.097360
0.804500 0.570000 0.097360
0.871000 0.570000 0.097360
0.937500 0.570000 0.097360
1.000000 0.570000 0.097360
0.000000 0.640000 0.097360
0.006500 0.640000 0.097360
0.073000 0.640000 0.097360
0.139500 0.640000 0.097360
0.206000 0.640000 0.097360
0.272500 0.640000 0.097360
0.339000 0.640000 0.097360
0.405500 0.640000 0.097360
0.472000 0.640000 0.097360
0.538500 0.640000 0.097360
0.605000 0.640000 0.097360
0.671500 0.640000 0.097360
0.738000 0.640000 0.097360
0.804500 0.640000 0.097360
0.871000 0.640000 0.097360
0.937500 0.640000 0.097360
1.000000 0.640000 0.097360
0.000000 0.710000 0.097360
0.006500 0.710000 0.097360
0.073000 0.710000 0.097360
0.139500 0.710000 0.097360
0.206000 0.710000 0.097360
0.272500 0.710000 0.097360
0.339000 0.710000 0.097360
0.405500 0.710000 0.097360
0.472000 0.710000 0.097360
0.538500 0.710000 0.097360
0.605000 0.710000 0.097360
0.671500 0.710000 0.097360
0.738000 0.710000 0.097360
0.804500 0.710000 0.097360
0.871000 0.710000 0.097360
0.937500 0.710000 0.097360
1.000000 0.710000 0.097360
0.000000 0.780000 0.097360
0.006500 0.780000 0.097360
0.073000 0.780000 0.097360
0.139500 0.780000 0.097360
0.206000 0.780000 0.097360
0.272500 0.780000 0.097360
0.339000 0.780000 0.097360
0.405500 0.780000 0.097360
0.472000 0.780000 0.097360
0.538500 0.780000 0.097360
0.605000 0.780000 0.097360
0.671500 0.780000 0.097360
0.738000 0.780000 0.097360
0.804500 0.780000 0.097360
0.871000 0.780000 0.097360
0.937500 0.780000 0.097360
1.000000 0.780000 0.097360
0.000000 0.850000 0.097360
0.006500 0.850000 0.097360
0.073000 0.850000 0.097360
0.139500 0.850000 0.097360
0.206000 0.850000 0.097360
0.272500 0.850000 0.097360
0.339000 0.850000 0.097360
0.405500 0.850000 0.097360
0.472000 0.850000 0.097360
0.538500 0.850000 0.097360
0.605000 0.850000 0.097360
0.671500 0.850000 0.097360
0.738000 0.850000 0.097360
0.804500 0.850000 0.097360
0.871000 0.850000 0.097360
0.937500 0.850000 0.097360
1.000000 0.850000 0.097360
0.000000 0.920000 0.097360
0.006500 0.920000 0.097360
0.073000 0.920000 0.097360
0.139500 0.920000 0.097360
0.206000 0.920000 0.097360
0.272500 0.920000 0.097360
0.339000 0.920000 0.097360
0.405500 0.920000 0.097360
0.472000 0.920000 0.097360
0.538500 0.920000 0.097360
0.605000 0.920000 0.097360
0.671500 0.920000 0.097360
0.738000 0.920000 0.097360
0.804500 0.920000 0.097360
0.871000 0.920000 0.097360
0.937500 0.920000 0.097360
1.000000 0.920000 0.097360
0.000000 0.990000 0.097360
0.006500 0.990000 0.097360
0.073000 0.990000 0.097360
0.139500 0.990000 0.097360
0.206000 0.990000 0.097360
0.272500 0.990000 0.097360
0.339000 0.990000 0.097360
0.405500 0.990000 0.097360
0.472000 0.990000 0.097360
0.538500 0.990000 0.097360
0.605000 0.990000 0.097360
0.671500 0.990000 0.097360
0.738000 0.990000 0.097360
0.804500 0.990000 0.097360
0.871000 0.990000 0.097360
0.937500 0.990000 0.097360
1.000000 0.990000 0.097360
0.000000 1.000000 0.097360
0.006500 1.000000 0.097360
0.073000 1.000000 0.097360
0.139500 1.000000 0.097360
0.206000 1.000000 0.097360
0.272500 1.000000 0.097360
0.339000 1.000000 0.097360
0.405500 1.000000 0.097360
0.472000 1.000000 0.097360
0.538500 1.000000 0.097360
0.605000 1.000000 0.097360
0.671500 1.000000 0.097360
0.738000 1.000000 0.097360
0.804500 1.000000 0.097360
0.871000 1.000000 0.097360
0.937500 1.000000 0.097360
1.000000 1.000000 0.097360
0.000000 0.000000 0.171560
0.006500 0.000000 0.171560
0.073000 0.000000 0.171560
0.139500 0.000000 0.171560
0.206000 0.000000 0.171560
0.272500 0.000000 0.171560
0.339000 0.000000 0.171560
0.405500 0.000000 0.171560
0.472000 0.000000 0.171560
0.538500 0.000000 0.171560
0.605000 0.000000 0.171560
0.671500 0.000000 0.171560
0.738000 0.000000 0.171560
0.804500 0.000000 0.171560
0.871000 0.000000 0.171560
0.937500 0.000000 0.171560
1.000000 0.000000 0.171560
0.000000 0.010000 0.171560
