luts/Punchy.cube
TITLE "Punchy"
LUT_3D_SIZE 5
DOMAIN_MIN 0.0 0.0 0.0
DOMAIN_MAX 1.0 1.0 1.0
0.000000 0.000000 0.000000
0.250495 0.000000 0.000000
0.590990 0.000000 0.000000
0.931485 0.000000 0.000000
1.000000 0.000000 0.000000
0.000000 0.231804 0.000000
0.212399 0.212399 0.000000
0.552894 0.192994 0.000000
0.893388 0.173588 0.000000
1.000000 0.154183 0.000000
0.000000 0.553607 0.000000
0.174302 0.534202 0.000000
0.514797 0.514797 0.000000
0.855292 0.495392 0.000000
1.000000 0.475987 0.000000
0.000000 0.875411 0.000000
0.136206 0.856006 0.000000
0.476701 0.836601 0.000000
0.817196 0.817196 0.000000
1.000000 0.797791 0.000000
0.000000 1.000000 0.000000
0.098110 1.000000 0.000000
0.438605 1.000000 0.000000
0.779099 1.000000 0.000000
1.000000 1.000000 0.000000
0.000000 0.000000 0.262501
0.243096 0.000000 0.243096
0.583591 0.000000 0.223691
0.924086 0.000000 0.204286
1.000000 0.000000 0.184881
0.000000 0.224405 0.224405
0.205000 0.205000 0.205000
0.545495 0.185595 0.185595
0.885990 0.166190 0.166190
1.000000 0.146785 0.146785
0.000000 0.546209 0.186309
0.166904 0.526804 0.166904
0.507399 0.507399 0.147499
0.847893 0.487993 0.128093
1.000000 0.468588 0.108688
0.000000 0.868012 0.148213
0.128807 0.848607 0.128807
0.469302 0.829202 0.109402
0.809797 0.809797 0.089997
1.000000 0.790392 0.070592
0.000000 1.000000 0.110116
0.090711 1.000000 0.090711
0.431206 1.000000 0.071306
0.771701 1.000000 0.051901
1.000000 1.000000 0.032496
0.000000 0.000000 0.615003
0.235698 0.000000 0.595598
0.576193 0.000000 0.576193
0.916687 0.000000 0.556788
1.000000 0.000000 0.537382
0.000000 0.217007 0.576907
0.197601 0.197601 0.557501
0.538096 0.178196 0.538096
0.878591 0.158791 0.518691
1.000000 0.139386 0.499286
0.000000 0.538810 0.538810
0.159505 0.519405 0.519405
0.500000 0.500000 0.500000
0.840495 0.480595 0.480595
1.000000 0.461190 0.461190
0.000000 0.860614 0.500714
0.121409 0.841209 0.481309
0.461904 0.821804 0.461904
0.802399 0.802399 0.442499
1.000000 0.782993 0.423093
0.000000 1.000000 0.462618
0.083312 1.000000 0.443213
0.423807 1.000000 0.423807
0.764302 1.000000 0.404402
1.000000 1.000000 0.384997
0.000000 0.000000 0.967504
0.228299 0.000000 0.948099
0.568794 0.000000 0.928694
0.909289 0.000000 0.909289
1.000000 0.000000 0.889884
0.000000 0.209608 0.929408
0.190203 0.190203 0.910003
0.530698 0.170798 0.890598
0.871193 0.151393 0.871193
1.000000 0.131988 0.851788
0.000000 0.531412 0.891312
0.152106 0.512006 0.871907
0.492601 0.492601 0.852501
0.833096 0.473196 0.833096
1.000000 0.453791 0.813691
0.000000 0.853215 0.853215
0.114010 0.833810 0.833810
0.454505 0.814405 0.814405
0.795000 0.795000 0.795000
1.000000 0.775595 0.775595
0.000000 1.000000 0.815119
0.075914 1.000000 0.795714
0.416409 1.000000 0.776309
0.756904 1.000000 0.756904
1.000000 1.000000 0.737499
0.000000 0.000000 1.000000
0.220901 0.000000 1.000000
0.561395 0.000000 1.000000
0.901890 0.000000 1.000000
1.000000 0.000000 1.000000
0.000000 0.202209 1.000000
0.182804 0.182804 1.000000
0.523299 0.163399 1.000000
0.863794 0.143994 1.000000
1.000000 0.124589 1.000000
0.000000 0.524013 1.000000
0.144708 0.504608 1.000000
0.485203 0.485203 1.000000
0.825698 0.465798 1.000000
1.000000 0.446393 1.000000
0.000000 0.845817 1.000000
0.106612 0.826412 1.000000
0.447106 0.807006 1.000000
0.787601 0.787601 1.000000
1.000000 0.768196 1.000000
0.000000 1.000000 1.000000
0.068515 1.000000 1.000000
0.409010 1.000000 1.000000
0.749505 1.000000 1.000000
1.000000 1.000000 1.000000
