luts/Punchy.cube
TITLE "Punchy"
LUT_3D_SIZE 17
DOMAIN_MIN 0.0 0.0 0.0
DOMAIN_MAX 1.0 1.0 1.0
0.000000 0.000000 0.000000
0.000000 0.000000 0.000000
0.080247 0.000000 0.000000
0.165371 0.000000 0.000000
0.250495 0.000000 0.000000
0.335619 0.000000 0.000000
0.420742 0.000000 0.000000
0.505866 0.000000 0.000000
0.590990 0.000000 0.000000
0.676113 0.000000 0.000000
0.761237 0.000000 0.000000
0.846361 0.000000 0.000000
0.931485 0.000000 0.000000
1.000000 0.000000 0.000000
1.000000 0.000000 0.000000
1.000000 0.000000 0.000000
1.000000 0.000000 0.000000
0.000000 0.000000 0.000000
0.000000 0.000000 0.000000
0.070723 0.000000 0.000000
0.155847 0.000000 0.000000
0.240971 0.000000 0.000000
0.326095 0.000000 0.000000
0.411218 0.000000 0.000000
0.496342 0.000000 0.000000
0.581466 0.000000 0.000000
0.666589 0.000000 0.000000
0.751713 0.000000 0.000000
0.836837 0.000000 0.000000
0.921961 0.000000 0.000000
1.000000 0.000000 0.000000
1.000000 0.000000 0.000000
1.000000 0.000000 0.000000
1.000000 0.000000 0.000000
0.000000 0.070902 0.000000
0.000000 0.066051 0.000000
0.061199 0.061199 0.000000
0.146323 0.056348 0.000000
0.231447 0.051497 0.000000
0.316571 0.046645 0.000000
0.401694 0.041794 0.000000
0.486818 0.036943 0.000000
0.571942 0.032092 0.000000
0.657065 0.027240 0.000000
0.742189 0.022389 0.000000
0.827313 0.017538 0.000000
0.912437 0.012687 0.000000
0.997560 0.007835 0.000000
1.000000 0.002984 0.000000
1.000000 0.000000 0.000000
1.000000 0.000000 0.000000
0.000000 0.151353 0.000000
0.000000 0.146502 0.000000
0.051675 0.141650 0.000000
0.136799 0.136799 0.000000
0.221923 0.131948 0.000000
0.307046 0.127096 0.000000
0.392170 0.122245 0.000000
0.477294 0.117394 0.000000
0.562418 0.112543 0.000000
0.647541 0.107691 0.000000
0.732665 0.102840 0.000000
0.817789 0.097989 0.000000
0.902912 0.093138 0.000000
0.988036 0.088286 0.000000
1.000000 0.083435 0.000000
1.000000 0.078584 0.000000
1.000000 0.073732 0.000000
0.000000 0.231804 0.000000
0.000000 0.226952 0.000000
0.042151 0.222101 0.000000
0.127275 0.217250 0.000000
0.212399 0.212399 0.000000
0.297522 0.207547 0.000000
0.382646 0.202696 0.000000
0.467770 0.197845 0.000000
0.552894 0.192994 0.000000
0.638017 0.188142 0.000000
0.723141 0.183291 0.000000
0.808265 0.178440 0.000000
0.893388 0.173588 0.000000
0.978512 0.168737 0.000000
1.000000 0.163886 0.000000
1.000000 0.159035 0.000000
1.000000 0.154183 0.000000
0.000000 0.312255 0.000000
0.000000 0.307403 0.000000
0.032627 0.302552 0.000000
0.117751 0.297701 0.000000
0.202875 0.292850 0.000000
0.287998 0.287998 0.000000
0.373122 0.283147 0.000000
0.458246 0.278296 0.000000
0.543369 0.273444 0.000000
0.628493 0.268593 0.000000
0.713617 0.263742 0.000000
0.798741 0.258891 0.000000
0.883864 0.254039 0.000000
0.968988 0.249188 0.000000
1.000000 0.244337 0.000000
1.000000 0.239486 0.000000
1.000000 0.234634 0.000000
0.000000 0.392706 0.000000
0.000000 0.387854 0.000000
0.023103 0.383003 0.000000
0.108227 0.378152 0.000000
0.193350 0.373300 0.000000
0.278474 0.368449 0.000000
0.363598 0.363598 0.000000
0.448722 0.358747 0.000000
0.533845 0.353895 0.000000
0.618969 0.349044 0.000000
0.704093 0.344193 0.000000
0.789217 0.339342 0.000000
0.874340 0.334490 0.000000
0.959464 0.329639 0.000000
1.000000 0.324788 0.000000
1.000000 0.319936 0.000000
1.000000 0.315085 0.000000
0.000000 0.473156 0.000000
0.000000 0.468305 0.000000
0.013579 0.463454 0.000000
0.098703 0.458603 0.000000
0.183826 0.453751 0.000000
0.268950 0.448900 0.000000
0.354074 0.444049 0.000000
0.439198 0.439198 0.000000
0.524321 0.434346 0.000000
0.609445 0.429495 0.000000
0.694569 0.424644 0.000000
0.779692 0.419792 0.000000
0.864816 0.414941 0.000000
0.949940 0.410090 0.000000
1.000000 0.405239 0.000000
1.000000 0.400387 0.000000
1.000000 0.395536 0.000000
0.000000 0.553607 0.000000
0.000000 0.548756 0.000000
0.004055 0.543905 0.000000
0.089179 0.539054 0.000000
0.174302 0.534202 0.000000
0.259426 0.529351 0.000000
0.344550 0.524500 0.000000
0.429673 0.519648 0.000000
0.514797 0.514797 0.000000
0.599921 0.509946 0.000000
0.685045 0.505095 0.000000
0.770168 0.500243 0.000000
0.855292 0.495392 0.000000
0.940416 0.490541 0.000000
1.000000 0.485690 0.000000
1.000000 0.480838 0.000000
1.000000 0.475987 0.000000
0.000000 0.634058 0.000000
0.000000 0.629207 0.000000
0.000000 0.624356 0.000000
0.079655 0.619505 0.000000
0.164778 0.614653 0.000000
0.249902 0.609802 0.000000
0.335026 0.604951 0.000000
0.420149 0.600099 0.000000
0.505273 0.595248 0.000000
0.590397 0.590397 0.000000
0.675521 0.585546 0.000000
0.760644 0.580694 0.000000
0.845768 0.575843 0.000000
0.930892 0.570992 0.000000
1.000000 0.566140 0.000000
1.000000 0.561289 0.000000
1.000000 0.556438 0.000000
0.000000 0.714509 0.000000
0.000000 0.709658 0.000000
0.000000 0.704807 0.000000
0.070130 0.699955 0.000000
0.155254 0.695104 0.000000
0.240378 0.690253 0.000000
0.325502 0.685402 0.000000
0.410625 0.680550 0.000000
0.495749 0.675699 0.000000
0.580873 0.670848 0.000000
0.665996 0.665996 0.000000
0.751120 0.661145 0.000000
0.836244 0.656294 0.000000
0.921368 0.651443 0.000000
1.000000 0.646591 0.000000
1.000000 0.641740 0.000000
1.000000 0.636889 0.000000
0.000000 0.794960 0.000000
0.000000 0.790109 0.000000
0.000000 0.785258 0.000000
0.060606 0.780406 0.000000
0.145730 0.775555 0.000000
0.230854 0.770704 0.000000
0.315978 0.765853 0.000000
0.401101 0.761001 0.000000
0.486225 0.756150 0.000000
0.571349 0.751299 0.000000
0.656472 0.746447 0.000000
0.741596 0.741596 0.000000
0.826720 0.736745 0.000000
0.911844 0.731894 0.000000
0.996967 0.727042 0.000000
1.000000 0.722191 0.000000
1.000000 0.717340 0.000000
0.000000 0.875411 0.000000
0.000000 0.870560 0.000000
0.000000 0.865709 0.000000
0.051082 0.860857 0.000000
0.136206 0.856006 0.000000
0.221330 0.851155 0.000000
0.306453 0.846303 0.000000
0.391577 0.841452 0.000000
0.476701 0.836601 0.000000
0.561825 0.831750 0.000000
0.646948 0.826898 0.000000
0.732072 0.822047 0.000000
0.817196 0.817196 0.000000
0.902320 0.812344 0.000000
0.987443 0.807493 0.000000
1.000000 0.802642 0.000000
1.000000 0.797791 0.000000
0.000000 0.955862 0.000000
0.000000 0.951011 0.000000
0.000000 0.946159 0.000000
0.041558 0.941308 0.000000
0.126682 0.936457 0.000000
0.211806 0.931606 0.000000
0.296929 0.926754 0.000000
0.382053 0.921903 0.000000
0.467177 0.917052 0.000000
0.552301 0.912201 0.000000
0.637424 0.907349 0.000000
0.722548 0.902498 0.000000
0.807672 0.897647 0.000000
0.892795 0.892795 0.000000
0.977919 0.887944 0.000000
1.000000 0.883093 0.000000
1.000000 0.878242 0.000000
0.000000 1.000000 0.000000
0.000000 1.000000 0.000000
0.000000 1.000000 0.000000
0.032034 1.000000 0.000000
0.117158 1.000000 0.000000
0.202282 1.000000 0.000000
0.287405 1.000000 0.000000
0.372529 1.000000 0.000000
0.457653 0.997503 0.000000
0.542776 0.992651 0.000000
0.627900 0.987800 0.000000
0.713024 0.982949 0.000000
0.798148 0.978098 0.000000
0.883271 0.973246 0.000000
0.968395 0.968395 0.000000
1.000000 0.963544 0.000000
1.000000 0.958692 0.000000
0.000000 1.000000 0.000000
0.000000 1.000000 0.000000
0.000000 1.000000 0.000000
0.022510 1.000000 0.000000
0.107634 1.000000 0.000000
0.192757 1.000000 0.000000
0.277881 1.000000 0.000000
0.363005 1.000000 0.000000
0.448129 1.000000 0.000000
0.533252 1.000000 0.000000
0.618376 1.000000 0.000000
0.703500 1.000000 0.000000
0.788624 1.000000 0.000000
0.873747 1.000000 0.000000
0.958871 1.000000 0.000000
1.000000 1.000000 0.000000
1.000000 1.000000 0.000000
0.000000 1.000000 0.000000
0.000000 1.000000 0.000000
0.000000 1.000000 0.000000
0.012986 1.000000 0.000000
0.098110 1.000000 0.000000
0.183233 1.000000 0.000000
0.268357 1.000000 0.000000
0.353481 1.000000 0.000000
0.438605 1.000000 0.000000
0.523728 1.000000 0.000000
0.608852 1.000000 0.000000
0.693976 1.000000 0.000000
0.779099 1.000000 0.000000
0.864223 1.000000 0.000000
0.949347 1.000000 0.000000
1.000000 1.000000 0.000000
1.000000 1.000000 0.000000
0.000000 0.000000 0.000000
0.000000 0.000000 0.000000
0.078398 0.000000 0.000000
0.163522 0.000000 0.000000
0.248645 0.000000 0.000000
0.333769 0.000000 0.000000
0.418893 0.000000 0.000000
0.504016 0.000000 0.000000
0.589140 0.000000 0.000000
0.674264 0.000000 0.000000
0.759388 0.000000 0.000000
0.844511 0.000000 0.000000
0.929635 0.000000 0.000000
1.000000 0.000000 0.000000
1.000000 0.000000 0.000000
1.000000 0.000000 0.000000
1.000000 0.000000 0.000000
0.000000 0.000000 0.000000
0.000000 0.000000 0.000000
0.068874 0.000000 0.000000
0.153997 0.000000 0.000000
0.239121 0.000000 0.000000
0.324245 0.000000 0.000000
0.409369 0.000000 0.000000
0.494492 0.000000 0.000000
0.579616 0.000000 0.000000
0.664740 0.000000 0.000000
0.749864 0.000000 0.000000
0.834987 0.000000 0.000000
0.920111 0.000000 0.000000
1.000000 0.000000 0.000000
1.000000 0.000000 0.000000
1.000000 0.000000 0.000000
1.000000 0.000000 0.000000
0.000000 0.069052 0.000000
0.000000 0.064201 0.000000
0.059350 0.059350 0.000000
0.144473 0.054498 0.000000
0.229597 0.049647 0.000000
0.314721 0.044796 0.000000
0.399845 0.039945 0.000000
0.484968 0.035093 0.000000
0.570092 0.030242 0.000000
0.655216 0.025391 0.000000
0.740340 0.020539 0.000000
0.825463 0.015688 0.000000
0.910587 0.010837 0.000000
0.995711 0.005986 0.000000
1.000000 0.001134 0.000000
1.000000 0.000000 0.000000
1.000000 0.000000 0.000000
0.000000 0.149503 0.000000
0.000000 0.144652 0.000000
0.049826 0.139801 0.000000
0.134949 0.134949 0.000000
0.220073 0.130098 0.000000
0.305197 0.125247 0.000000
0.390320 0.120395 0.000000
0.475444 0.115544 0.000000
0.560568 0.110693 0.000000
0.645692 0.105842 0.000000
0.730815 0.100990 0.000000
0.815939 0.096139 0.000000
0.901063 0.091288 0.000000
0.986187 0.086437 0.000000
1.000000 0.081585 0.000000
1.000000 0.076734 0.000000
1.000000 0.071883 0.000000
0.000000 0.229954 0.000000
0.000000 0.225103 0.000000
0.040302 0.220252 0.000000
0.125425 0.215400 0.000000
0.210549 0.210549 0.000000
0.295673 0.205698 0.000000
0.380796 0.200846 0.000000
0.465920 0.195995 0.000000
0.551044 0.191144 0.000000
0.636168 0.186293 0.000000
0.721291 0.181441 0.000000
0.806415 0.176590 0.000000
0.891539 0.171739 0.000000
0.976663 0.166887 0.000000
1.000000 0.162036 0.000000
1.000000 0.157185 0.000000
1.000000 0.152334 0.000000
0.000000 0.310405 0.000000
0.000000 0.305554 0.000000
0.030777 0.300702 0.000000
0.115901 0.295851 0.000000
0.201025 0.291000 0.000000
0.286149 0.286149 0.000000
0.371272 0.281297 0.000000
0.456396 0.276446 0.000000
0.541520 0.271595 0.000000
0.626644 0.266744 0.000000
0.711767 0.261892 0.000000
0.796891 0.257041 0.000000
0.882015 0.252190 0.000000
0.967138 0.247338 0.000000
1.000000 0.242487 0.000000
1.000000 0.237636 0.000000
1.000000 0.232785 0.000000
0.000000 0.390856 0.000000
0.000000 0.386005 0.000000
0.021253 0.381153 0.000000
0.106377 0.376302 0.000000
0.191501 0.371451 0.000000
0.276625 0.366600 0.000000
0.361748 0.361748 0.000000
0.446872 0.356897 0.000000
0.531996 0.352046 0.000000
0.617119 0.347194 0.000000
0.702243 0.342343 0.000000
0.787367 0.337492 0.000000
0.872491 0.332641 0.000000
0.957614 0.327789 0.000000
1.000000 0.322938 0.000000
1.000000 0.318087 0.000000
1.000000 0.313235 0.000000
0.000000 0.471307 0.000000
0.000000 0.466456 0.000000
0.011729 0.461604 0.000000
0.096853 0.456753 0.000000
0.181977 0.451902 0.000000
0.267100 0.447050 0.000000
0.352224 0.442199 0.000000
0.437348 0.437348 0.000000
0.522472 0.432497 0.000000
0.607595 0.427645 0.000000
0.692719 0.422794 0.000000
0.777843 0.417943 0.000000
0.862967 0.413092 0.000000
0.948090 0.408240 0.000000
1.000000 0.403389 0.000000
1.000000 0.398538 0.000000
1.000000 0.393686 0.000000
0.000000 0.551758 0.000000
0.000000 0.546907 0.000000
0.002205 0.542055 0.000000
0.087329 0.537204 0.000000
0.172453 0.532353 0.000000
0.257576 0.527501 0.000000
0.342700 0.522650 0.000000
0.427824 0.517799 0.000000
0.512948 0.512948 0.000000
0.598071 0.508096 0.000000
0.683195 0.503245 0.000000
0.768319 0.498394 0.000000
0.853442 0.493542 0.000000
0.938566 0.488691 0.000000
1.000000 0.483840 0.000000
1.000000 0.478989 0.000000
1.000000 0.474137 0.000000
0.000000 0.632209 0.000000
0.000000 0.627357 0.000000
0.000000 0.622506 0.000000
0.077805 0.617655 0.000000
0.162929 0.612804 0.000000
0.248052 0.607952 0.000000
0.333176 0.603101 0.000000
0.418300 0.598250 0.000000
0.503423 0.593399 0.000000
0.588547 0.588547 0.000000
0.673671 0.583696 0.000000
0.758795 0.578845 0.000000
0.843918 0.573993 0.000000
0.929042 0.569142 0.000000
1.000000 0.564291 0.000000
1.000000 0.559440 0.000000
1.000000 0.554588 0.000000
0.000000 0.712660 0.000000
0.000000 0.707808 0.000000
0.000000 0.702957 0.000000
0.068281 0.698106 0.000000
0.153405 0.693255 0.000000
0.238528 0.688403 0.000000
0.323652 0.683552 0.000000
0.408776 0.678701 0.000000
0.493899 0.673849 0.000000
0.579023 0.668998 0.000000
0.664147 0.664147 0.000000
0.749271 0.659296 0.000000
0.834394 0.654444 0.000000
0.919518 0.649593 0.000000
1.000000 0.644742 0.000000
1.000000 0.639890 0.000000
1.000000 0.635039 0.000000
0.000000 0.793111 0.000000
0.000000 0.788259 0.000000
0.000000 0.783408 0.000000
0.058757 0.778557 0.000000
0.143880 0.773705 0.000000
0.229004 0.768854 0.000000
0.314128 0.764003 0.000000
0.399252 0.759152 0.000000
0.484375 0.754300 0.000000
0.569499 0.749449 0.000000
0.654623 0.744598 0.000000
0.739747 0.739747 0.000000
0.824870 0.734895 0.000000
0.909994 0.730044 0.000000
0.995118 0.725193 0.000000
1.000000 0.720341 0.000000
1.000000 0.715490 0.000000
0.000000 0.873561 0.000000
0.000000 0.868710 0.000000
0.000000 0.863859 0.000000
0.049233 0.859008 0.000000
0.134356 0.854156 0.000000
0.219480 0.849305 0.000000
0.304604 0.844454 0.000000
0.389728 0.839603 0.000000
0.474851 0.834751 0.000000
0.559975 0.829900 0.000000
0.645099 0.825049 0.000000
0.730222 0.820197 0.000000
0.815346 0.815346 0.000000
0.900470 0.810495 0.000000
0.985594 0.805644 0.000000
1.000000 0.800792 0.000000
1.000000 0.795941 0.000000
0.000000 0.954012 0.000000
0.000000 0.949161 0.000000
0.000000 0.944310 0.000000
0.039709 0.939459 0.000000
0.124832 0.934607 0.000000
0.209956 0.929756 0.000000
0.295080 0.924905 0.000000
0.380203 0.920053 0.000000
0.465327 0.915202 0.000000
0.550451 0.910351 0.000000
0.635575 0.905500 0.000000
0.720698 0.900648 0.000000
0.805822 0.895797 0.000000
0.890946 0.890946 0.000000
0.976070 0.886095 0.000000
1.000000 0.881243 0.000000
1.000000 0.876392 0.000000
0.000000 1.000000 0.000000
0.000000 1.000000 0.000000
0.000000 1.000000 0.000000
0.030184 1.000000 0.000000
0.115308 1.000000 0.000000
0.200432 1.000000 0.000000
0.285556 1.000000 0.000000
0.370679 1.000000 0.000000
0.455803 0.995653 0.000000
0.540927 0.990802 0.000000
0.626051 0.985951 0.000000
0.711174 0.981099 0.000000
0.796298 0.976248 0.000000
0.881422 0.971397 0.000000
0.966545 0.966545 0.000000
1.000000 0.961694 0.000000
1.000000 0.956843 0.000000
0.000000 1.000000 0.000000
0.000000 1.000000 0.000000
0.000000 1.000000 0.000000
0.020660 1.000000 0.000000
0.105784 1.000000 0.000000
0.190908 1.000000 0.000000
0.276032 1.000000 0.000000
0.361155 1.000000 0.000000
0.446279 1.000000 0.000000
0.531403 1.000000 0.000000
0.616526 1.000000 0.000000
0.701650 1.000000 0.000000
0.786774 1.000000 0.000000
0.871898 1.000000 0.000000
0.957021 1.000000 0.000000
1.000000 1.000000 0.000000
1.000000 1.000000 0.000000
0.000000 1.000000 0.000000
0.000000 1.000000 0.000000
0.000000 1.000000 0.000000
0.011136 1.000000 0.000000
0.096260 1.000000 0.000000
0.181384 1.000000 0.000000
0.266507 1.000000 0.000000
0.351631 1.000000 0.000000
0.436755 1.000000 0.000000
0.521879 1.000000 0.000000
0.607002 1.000000 0.000000
0.692126 1.000000 0.000000
0.777250 1.000000 0.000000
0.862374 1.000000 0.000000
0.947497 1.000000 0.000000
1.000000 1.000000 0.000000
1.000000 1.000000 0.000000
0.000000 0.000000 0.086251
0.000000 0.000000 0.081399
0.076548 0.000000 0.076548
0.161672 0.000000 0.071697
0.246796 0.000000 0.066846
0.331919 0.000000 0.061994
0.417043 0.000000 0.057143
0.502167 0.000000 0.052292
0.587290 0.000000 0.047440
0.672414 0.000000 0.042589
0.757538 0.000000 0.037738
0.842662 0.000000 0.032887
0.927785 0.000000 0.028035
1.000000 0.000000 0.023184
1.000000 0.000000 0.018333
1.000000 0.000000 0.013482
1.000000 0.000000 0.008630
0.000000 0.000000 0.076727
0.000000 0.000000 0.071875
0.067024 0.000000 0.067024
0.152148 0.000000 0.062173
0.237272 0.000000 0.057322
0.322395 0.000000 0.052470
0.407519 0.000000 0.047619
0.492643 0.000000 0.042768
0.577766 0.000000 0.037916
0.662890 0.000000 0.033065
0.748014 0.000000 0.028214
0.833138 0.000000 0.023363
0.918261 0.000000 0.018511
1.000000 0.000000 0.013660
1.000000 0.000000 0.008809
1.000000 0.000000 0.003958
1.000000 0.000000 0.000000
0.000000 0.067203 0.067203
0.000000 0.062351 0.062351
0.057500 0.057500 0.057500
0.142624 0.052649 0.052649
0.227747 0.047797 0.047797
0.312871 0.042946 0.042946
0.397995 0.038095 0.038095
0.483119 0.033244 0.033244
0.568242 0.028392 0.028392
0.653366 0.023541 0.023541
0.738490 0.018690 0.018690
0.823613 0.013839 0.013839
0.908737 0.008987 0.008987
0.993861 0.004136 0.004136
1.000000 0.000000 0.000000
1.000000 0.000000 0.000000
1.000000 0.000000 0.000000
0.000000 0.147653 0.057678
0.000000 0.142802 0.052827
0.047976 0.137951 0.047976
0.133100 0.133100 0.043125
0.218223 0.128248 0.038273
0.303347 0.123397 0.033422
0.388471 0.118546 0.028571
0.473595 0.113695 0.023720
0.558718 0.108843 0.018868
0.643842 0.103992 0.014017
0.728966 0.099141 0.009166
0.814089 0.094289 0.004314
0.899213 0.089438 0.000000
0.984337 0.084587 0.000000
1.000000 0.079736 0.000000
1.000000 0.074884 0.000000
1.000000 0.070033 0.000000
0.000000 0.228104 0.048154
0.000000 0.223253 0.043303
0.038452 0.218402 0.038452
0.123576 0.213551 0.033601
0.208699 0.208699 0.028749
0.293823 0.203848 0.023898
0.378947 0.198997 0.019047
0.464070 0.194145 0.014195
0.549194 0.189294 0.009344
0.634318 0.184443 0.004493
0.719442 0.179592 0.000000
0.804565 0.174740 0.000000
0.889689 0.169889 0.000000
0.974813 0.165038 0.000000
1.000000 0.160187 0.000000
1.000000 0.155335 0.000000
1.000000 0.150484 0.000000
0.000000 0.308555 0.038630
0.000000 0.303704 0.033779
0.028928 0.298853 0.028928
0.114052 0.294002 0.024076
0.199175 0.289150 0.019225
0.284299 0.284299 0.014374
0.369423 0.279448 0.009523
0.454546 0.274596 0.004671
0.539670 0.269745 0.000000
0.624794 0.264894 0.000000
0.709918 0.260043 0.000000
0.795041 0.255191 0.000000
0.880165 0.250340 0.000000
0.965289 0.245489 0.000000
1.000000 0.240637 0.000000
1.000000 0.235786 0.000000
1.000000 0.230935 0.000000
0.000000 0.389006 0.029106
0.000000 0.384155 0.024255
0.019404 0.379304 0.019404
0.104527 0.374452 0.014552
0.189651 0.369601 0.009701
0.274775 0.364750 0.004850
0.359899 0.359899 0.000000
0.445022 0.355047 0.000000
0.530146 0.350196 0.000000
0.615270 0.345345 0.000000
0.700393 0.340494 0.000000
0.785517 0.335642 0.000000
0.870641 0.330791 0.000000
0.955765 0.325940 0.000000
1.000000 0.321088 0.000000
1.000000 0.316237 0.000000
1.000000 0.311386 0.000000
0.000000 0.469457 0.019582
0.000000 0.464606 0.014731
0.009880 0.459755 0.009880
0.095003 0.454903 0.005028
0.180127 0.450052 0.000177
0.265251 0.445201 0.000000
0.350375 0.440350 0.000000
0.435498 0.435498 0.000000
0.520622 0.430647 0.000000
0.605746 0.425796 0.000000
0.690869 0.420944 0.000000
0.775993 0.416093 0.000000
0.861117 0.411242 0.000000
0.946241 0.406391 0.000000
1.000000 0.401539 0.000000
1.000000 0.396688 0.000000
1.000000 0.391837 0.000000
0.000000 0.549908 0.010058
0.000000 0.545057 0.005207
0.000356 0.540206 0.000356
0.085479 0.535354 0.000000
0.170603 0.530503 0.000000
0.255727 0.525652 0.000000
0.340850 0.520800 0.000000
0.425974 0.515949 0.000000
0.511098 0.511098 0.000000
0.596222 0.506247 0.000000
0.681345 0.501395 0.000000
0.766469 0.496544 0.000000
0.851593 0.491693 0.000000
0.936717 0.486842 0.000000
1.000000 0.481990 0.000000
1.000000 0.477139 0.000000
1.000000 0.472288 0.000000
0.000000 0.630359 0.000534
0.000000 0.625508 0.000000
0.000000 0.620656 0.000000
0.075955 0.615805 0.000000
0.161079 0.610954 0.000000
0.246203 0.606103 0.000000
0.331326 0.601251 0.000000
0.416450 0.596400 0.000000
0.501574 0.591549 0.000000
0.586698 0.586698 0.000000
0.671821 0.581846 0.000000
0.756945 0.576995 0.000000
0.842069 0.572144 0.000000
0.927192 0.567292 0.000000
1.000000 0.562441 0.000000
1.000000 0.557590 0.000000
1.000000 0.552739 0.000000
0.000000 0.710810 0.000000
0.000000 0.705959 0.000000
0.000000 0.701107 0.000000
0.066431 0.696256 0.000000
0.151555 0.691405 0.000000
0.236679 0.686554 0.000000
0.321802 0.681702 0.000000
0.406926 0.676851 0.000000
0.492050 0.672000 0.000000
0.577173 0.667148 0.000000
0.662297 0.662297 0.000000
0.747421 0.657446 0.000000
0.832545 0.652595 0.000000
0.917668 0.647743 0.000000
1.000000 0.642892 0.000000
1.000000 0.638041 0.000000
1.000000 0.633190 0.000000
0.000000 0.791261 0.000000
0.000000 0.786410 0.000000
0.000000 0.781558 0.000000
0.056907 0.776707 0.000000
0.142031 0.771856 0.000000
0.227154 0.767004 0.000000
0.312278 0.762153 0.000000
0.397402 0.757302 0.000000
0.482526 0.752451 0.000000
0.567649 0.747599 0.000000
0.652773 0.742748 0.000000
0.737897 0.737897 0.000000
0.823021 0.733046 0.000000
0.908144 0.728194 0.000000
0.993268 0.723343 0.000000
1.000000 0.718492 0.000000
1.000000 0.713640 0.000000
0.000000 0.871712 0.000000
0.000000 0.866861 0.000000
0.000000 0.862009 0.000000
0.047383 0.857158 0.000000
0.132507 0.852307 0.000000
0.217630 0.847455 0.000000
0.302754 0.842604 0.000000
0.387878 0.837753 0.000000
0.473002 0.832902 0.000000
0.558125 0.828050 0.000000
0.643249 0.823199 0.000000
0.728373 0.818348 0.000000
0.813496 0.813496 0.000000
0.898620 0.808645 0.000000
0.983744 0.803794 0.000000
1.000000 0.798943 0.000000
1.000000 0.794091 0.000000
0.000000 0.952163 0.000000
0.000000 0.947311 0.000000
0.000000 0.942460 0.000000
0.037859 0.937609 0.000000
0.122983 0.932758 0.000000
0.208106 0.927906 0.000000
0.293230 0.923055 0.000000
0.378354 0.918204 0.000000
0.463478 0.913352 0.000000
0.548601 0.908501 0.000000
0.633725 0.903650 0.000000
0.718849 0.898799 0.000000
0.803972 0.893947 0.000000
0.889096 0.889096 0.000000
0.974220 0.884245 0.000000
1.000000 0.879394 0.000000
1.000000 0.874542 0.000000
0.000000 1.000000 0.000000
0.000000 1.000000 0.000000
0.000000 1.000000 0.000000
0.028335 1.000000 0.000000
0.113459 1.000000 0.000000
0.198582 1.000000 0.000000
0.283706 1.000000 0.000000
0.368830 0.998655 0.000000
0.453953 0.993804 0.000000
0.539077 0.988952 0.000000
0.624201 0.984101 0.000000
0.709325 0.979250 0.000000
0.794448 0.974398 0.000000
0.879572 0.969547 0.000000
0.964696 0.964696 0.000000
1.000000 0.959844 0.000000
1.000000 0.954993 0.000000
0.000000 1.000000 0.000000
0.000000 1.000000 0.000000
0.000000 1.000000 0.000000
0.018811 1.000000 0.000000
0.103934 1.000000 0.000000
0.189058 1.000000 0.000000
0.274182 1.000000 0.000000
0.359306 1.000000 0.000000
0.444429 1.000000 0.000000
0.529553 1.000000 0.000000
0.614677 1.000000 0.000000
0.699801 1.000000 0.000000
0.784924 1.000000 0.000000
0.870048 1.000000 0.000000
0.955172 1.000000 0.000000
1.000000 1.000000 0.000000
1.000000 1.000000 0.000000
0.000000 1.000000 0.000000
0.000000 1.000000 0.000000
0.000000 1.000000 0.000000
0.009287 1.000000 0.000000
0.094410 1.000000 0.000000
0.179534 1.000000 0.000000
0.264658 1.000000 0.000000
0.349782 1.000000 0.000000
0.434905 1.000000 0.000000
0.520029 1.000000 0.000000
0.605153 1.000000 0.000000
0.690276 1.000000 0.000000
0.775400 1.000000 0.000000
0.860524 1.000000 0.000000
0.945648 1.000000 0.000000
1.000000 1.000000 0.000000
1.000000 1.000000 0.000000
0.000000 0.000000 0.174376
0.000000 0.000000 0.169525
0.074699 0.000000 0.164674
0.159822 0.000000 0.159822
0.244946 0.000000 0.154971
0.330070 0.000000 0.150120
0.415193 0.000000 0.145268
0.500317 0.000000 0.140417
0.585441 0.000000 0.135566
0.670565 0.000000 0.130715
0.755688 0.000000 0.125863
0.840812 0.000000 0.121012
0.925936 0.000000 0.116161
1.000000 0.000000 0.111309
1.000000 0.000000 0.106458
1.000000 0.000000 0.101607
1.000000 0.000000 0.096756
0.000000 0.000000 0.164852
0.000000 0.000000 0.160001
