luts/Punchy.cube
TITLE "Punchy"
LUT_3D_SIZE 9
DOMAIN_MIN 0.0 0.0 0.0
DOMAIN_MAX 1.0 1.0 1.0
0.000000 0.000000 0.000000
0.080247 0.000000 0.000000
0.250495 0.000000 0.000000
0.420742 0.000000 0.000000
0.590990 0.000000 0.000000
0.761237 0.000000 0.000000
0.931485 0.000000 0.000000
1.000000 0.000000 0.000000
1.000000 0.000000 0.000000
0.000000 0.070902 0.000000
0.061199 0.061199 0.000000
0.231447 0.051497 0.000000
0.401694 0.041794 0.000000
0.571942 0.032092 0.000000
0.742189 0.022389 0.000000
0.912437 0.012687 0.000000
1.000000 0.002984 0.000000
1.000000 0.000000 0.000000
0.000000 0.231804 0.000000
0.042151 0.222101 0.000000
0.212399 0.212399 0.000000
0.382646 0.202696 0.000000
0.552894 0.192994 0.000000
0.723141 0.183291 0.000000
0.893388 0.173588 0.000000
1.000000 0.163886 0.000000
1.000000 0.154183 0.000000
0.000000 0.392706 0.000000
0.023103 0.383003 0.000000
0.193350 0.373300 0.000000
0.363598 0.363598 0.000000
0.533845 0.353895 0.000000
0.704093 0.344193 0.000000
0.874340 0.334490 0.000000
1.000000 0.324788 0.000000
1.000000 0.315085 0.000000
0.000000 0.553607 0.000000
0.004055 0.543905 0.000000
0.174302 0.534202 0.000000
0.344550 0.524500 0.000000
0.514797 0.514797 0.000000
0.685045 0.505095 0.000000
0.855292 0.495392 0.000000
1.000000 0.485690 0.000000
1.000000 0.475987 0.000000
0.000000 0.714509 0.000000
0.000000 0.704807 0.000000
0.155254 0.695104 0.000000
0.325502 0.685402 0.000000
0.495749 0.675699 0.000000
0.665996 0.665996 0.000000
0.836244 0.656294 0.000000
1.000000 0.646591 0.000000
1.000000 0.636889 0.000000
0.000000 0.875411 0.000000
0.000000 0.865709 0.000000
0.136206 0.856006 0.000000
0.306453 0.846303 0.000000
0.476701 0.836601 0.000000
0.646948 0.826898 0.000000
0.817196 0.817196 0.000000
0.987443 0.807493 0.000000
1.000000 0.797791 0.000000
0.000000 1.000000 0.000000
0.000000 1.000000 0.000000
0.117158 1.000000 0.000000
0.287405 1.000000 0.000000
0.457653 0.997503 0.000000
0.627900 0.987800 0.000000
0.798148 0.978098 0.000000
0.968395 0.968395 0.000000
1.000000 0.958692 0.000000
0.000000 1.000000 0.000000
0.000000 1.000000 0.000000
0.098110 1.000000 0.000000
0.268357 1.000000 0.000000
0.438605 1.000000 0.000000
0.608852 1.000000 0.000000
0.779099 1.000000 0.000000
0.949347 1.000000 0.000000
1.000000 1.000000 0.000000
0.000000 0.000000 0.086251
0.076548 0.000000 0.076548
0.246796 0.000000 0.066846
0.417043 0.000000 0.057143
0.587290 0.000000 0.047440
0.757538 0.000000 0.037738
0.927785 0.000000 0.028035
1.000000 0.000000 0.018333
1.000000 0.000000 0.008630
0.000000 0.067203 0.067203
0.057500 0.057500 0.057500
0.227747 0.047797 0.047797
0.397995 0.038095 0.038095
0.568242 0.028392 0.028392
0.738490 0.018690 0.018690
0.908737 0.008987 0.008987
1.000000 0.000000 0.000000
1.000000 0.000000 0.000000
0.000000 0.228104 0.048154
0.038452 0.218402 0.038452
0.208699 0.208699 0.028749
0.378947 0.198997 0.019047
0.549194 0.189294 0.009344
0.719442 0.179592 0.000000
0.889689 0.169889 0.000000
1.000000 0.160187 0.000000
1.000000 0.150484 0.000000
0.000000 0.389006 0.029106
0.019404 0.379304 0.019404
0.189651 0.369601 0.009701
0.359899 0.359899 0.000000
0.530146 0.350196 0.000000
0.700393 0.340494 0.000000
0.870641 0.330791 0.000000
1.000000 0.321088 0.000000
1.000000 0.311386 0.000000
0.000000 0.549908 0.010058
0.000356 0.540206 0.000356
0.170603 0.530503 0.000000
0.340850 0.520800 0.000000
0.511098 0.511098 0.000000
0.681345 0.501395 0.000000
0.851593 0.491693 0.000000
1.000000 0.481990 0.000000
1.000000 0.472288 0.000000
0.000000 0.710810 0.000000
0.000000 0.701107 0.000000
0.151555 0.691405 0.000000
0.321802 0.681702 0.000000
0.492050 0.672000 0.000000
0.662297 0.662297 0.000000
0.832545 0.652595 0.000000
1.000000 0.642892 0.000000
1.000000 0.633190 0.000000
0.000000 0.871712 0.000000
0.000000 0.862009 0.000000
0.132507 0.852307 0.000000
0.302754 0.842604 0.000000
0.473002 0.832902 0.000000
0.643249 0.823199 0.000000
0.813496 0.813496 0.000000
0.983744 0.803794 0.000000
1.000000 0.794091 0.000000
0.000000 1.000000 0.000000
0.000000 1.000000 0.000000
0.113459 1.000000 0.000000
0.283706 1.000000 0.000000
0.453953 0.993804 0.000000
0.624201 0.984101 0.000000
0.794448 0.974398 0.000000
0.964696 0.964696 0.000000
1.000000 0.954993 0.000000
0.000000 1.000000 0.000000
0.000000 1.000000 0.000000
0.094410 1.000000 0.000000
0.264658 1.000000 0.000000
0.434905 1.000000 0.000000
0.605153 1.000000 0.000000
0.775400 1.000000 0.000000
0.945648 1.000000 0.000000
1.000000 1.000000 0.000000
0.000000 0.000000 0.262501
0.072849 0.000000 0.252799
0.243096 0.000000 0.243096
0.413344 0.000000 0.233394
0.583591 0.000000 0.223691
0.753839 0.000000 0.213989
0.924086 0.000000 0.204286
1.000000 0.000000 0.194584
1.000000 0.000000 0.184881
0.000000 0.063503 0.243453
0.053801 0.053801 0.233751
0.224048 0.044098 0.224048
0.394296 0.034396 0.214346
0.564543 0.024693 0.204643
0.734790 0.014991 0.194941
0.905038 0.005288 0.185238
1.000000 0.000000 0.175535
1.000000 0.000000 0.165833
0.000000 0.224405 0.224405
0.034753 0.214703 0.214703
0.205000 0.205000 0.205000
0.375247 0.195297 0.195297
0.545495 0.185595 0.185595
0.715742 0.175892 0.175892
0.885990 0.166190 0.166190
1.000000 0.156487 0.156487
1.000000 0.146785 0.146785
0.000000 0.385307 0.205357
0.015704 0.375604 0.195654
0.185952 0.365902 0.185952
0.356199 0.356199 0.176249
0.526447 0.346497 0.166547
0.696694 0.336794 0.156844
0.866942 0.327092 0.147142
1.000000 0.317389 0.137439
1.000000 0.307687 0.127737
0.000000 0.546209 0.186309
0.000000 0.536506 0.176606
0.166904 0.526804 0.166904
0.337151 0.517101 0.157201
0.507399 0.507399 0.147499
0.677646 0.497696 0.137796
0.847893 0.487993 0.128093
1.000000 0.478291 0.118391
1.000000 0.468588 0.108688
0.000000 0.707111 0.167261
0.000000 0.697408 0.157558
0.147856 0.687706 0.147856
0.318103 0.678003 0.138153
0.488350 0.668300 0.128450
0.658598 0.658598 0.118748
0.828845 0.648895 0.109045
0.999093 0.639193 0.099343
1.000000 0.629490 0.089640
0.000000 0.868012 0.148213
0.000000 0.858310 0.138510
0.128807 0.848607 0.128807
0.299055 0.838905 0.119105
0.469302 0.829202 0.109402
0.639550 0.819500 0.099700
0.809797 0.809797 0.089997
0.980045 0.800095 0.080295
1.000000 0.790392 0.070592
0.000000 1.000000 0.129164
0.000000 1.000000 0.119462
0.109759 1.000000 0.109759
0.280007 0.999807 0.100057
0.450254 0.990104 0.090354
0.620502 0.980402 0.080652
0.790749 0.970699 0.070949
0.960997 0.960997 0.061246
1.000000 0.951294 0.051544
0.000000 1.000000 0.110116
0.000000 1.000000 0.100414
0.090711 1.000000 0.090711
0.260959 1.000000 0.081009
0.431206 1.000000 0.071306
0.601453 1.000000 0.061603
0.771701 1.000000 0.051901
0.941948 1.000000 0.042198
1.000000 1.000000 0.032496
0.000000 0.000000 0.438752
0.069150 0.000000 0.429050
0.239397 0.000000 0.419347
0.409644 0.000000 0.409644
0.579892 0.000000 0.399942
0.750139 0.000000 0.390239
0.920387 0.000000 0.380537
1.000000 0.000000 0.370834
1.000000 0.000000 0.361132
0.000000 0.059804 0.419704
0.050101 0.050101 0.410001
0.220349 0.040399 0.400299
0.390596 0.030696 0.390596
0.560844 0.020994 0.380894
0.731091 0.011291 0.371191
0.901339 0.001589 0.361489
1.000000 0.000000 0.351786
1.000000 0.000000 0.342084
0.000000 0.220706 0.400656
0.031053 0.211003 0.390953
0.201301 0.201301 0.381251
0.371548 0.191598 0.371548
0.541796 0.181896 0.361846
0.712043 0.172193 0.352143
0.882290 0.162491 0.342440
1.000000 0.152788 0.332738
1.000000 0.143085 0.323035
0.000000 0.381608 0.381608
0.012005 0.371905 0.371905
0.182253 0.362203 0.362203
0.352500 0.352500 0.352500
0.522747 0.342797 0.342797
0.692995 0.333095 0.333095
0.863242 0.323392 0.323392
1.000000 0.313690 0.313690
1.000000 0.303987 0.303987
0.000000 0.542509 0.362560
0.000000 0.532807 0.352857
0.163204 0.523104 0.343154
0.333452 0.513402 0.333452
0.503699 0.503699 0.323749
0.673947 0.493997 0.314047
0.844194 0.484294 0.304344
1.000000 0.474592 0.294642
1.000000 0.464889 0.284939
0.000000 0.703411 0.343511
0.000000 0.693709 0.333809
0.144156 0.684006 0.324106
0.314404 0.674304 0.314404
0.484651 0.664601 0.304701
0.654899 0.654899 0.294999
0.825146 0.645196 0.285296
0.995394 0.635494 0.275594
1.000000 0.625791 0.265891
0.000000 0.864313 0.324463
0.000000 0.854611 0.314761
0.125108 0.844908 0.305058
0.295356 0.835206 0.295356
0.465603 0.825503 0.285653
0.635850 0.815800 0.275950
0.806098 0.806098 0.266248
0.976345 0.796395 0.256545
1.000000 0.786693 0.246843
0.000000 1.000000 0.305415
0.000000 1.000000 0.295713
0.106060 1.000000 0.286010
0.276307 0.996107 0.276307
0.446555 0.986405 0.266605
0.616802 0.976702 0.256902
0.787050 0.967000 0.247200
0.957297 0.957297 0.237497
1.000000 0.947595 0.227795
0.000000 1.000000 0.286367
0.000000 1.000000 0.276664
0.087012 1.000000 0.266962
0.257259 1.000000 0.257259
0.427507 1.000000 0.247557
0.597754 1.000000 0.237854
0.768002 1.000000 0.228152
0.938249 1.000000 0.218449
1.000000 1.000000 0.208746
0.000000 0.000000 0.615003
0.065450 0.000000 0.605300
0.235698 0.000000 0.595598
0.405945 0.000000 0.585895
0.576193 0.000000 0.576193
0.746440 0.000000 0.566490
0.916687 0.000000 0.556788
1.000000 0.000000 0.547085
1.000000 0.000000 0.537382
0.000000 0.056105 0.595955
0.046402 0.046402 0.586252
0.216650 0.036700 0.576550
0.386897 0.026997 0.566847
0.557144 0.017294 0.557144
0.727392 0.007592 0.547442
0.897639 0.000000 0.537739
1.000000 0.000000 0.528037
1.000000 0.000000 0.518334
0.000000 0.217007 0.576907
0.027354 0.207304 0.567204
0.197601 0.197601 0.557501
0.367849 0.187899 0.547799
0.538096 0.178196 0.538096
0.708344 0.168494 0.528394
0.878591 0.158791 0.518691
1.000000 0.149089 0.508989
1.000000 0.139386 0.499286
0.000000 0.377908 0.557858
0.008306 0.368206 0.548156
0.178553 0.358503 0.538453
0.348801 0.348801 0.528751
0.519048 0.339098 0.519048
0.689296 0.329396 0.509346
0.859543 0.319693 0.499643
1.000000 0.309991 0.489940
1.000000 0.300288 0.480238
0.000000 0.538810 0.538810
0.000000 0.529108 0.529108
0.159505 0.519405 0.519405
0.329753 0.509703 0.509703
0.500000 0.500000 0.500000
0.670247 0.490297 0.490297
0.840495 0.480595 0.480595
1.000000 0.470892 0.470892
1.000000 0.461190 0.461190
0.000000 0.699712 0.519762
0.000000 0.690009 0.510060
0.140457 0.680307 0.500357
0.310704 0.670604 0.490654
0.480952 0.660902 0.480952
0.651199 0.651199 0.471249
0.821447 0.641497 0.461547
0.991694 0.631794 0.451844
1.000000 0.622092 0.442142
0.000000 0.860614 0.500714
0.000000 0.850911 0.491011
0.121409 0.841209 0.481309
0.291656 0.831506 0.471606
0.461904 0.821804 0.461904
0.632151 0.812101 0.452201
0.802399 0.802399 0.442499
0.972646 0.792696 0.432796
1.000000 0.782993 0.423093
0.000000 1.000000 0.481666
0.000000 1.000000 0.471963
0.102361 1.000000 0.462261
0.272608 0.992408 0.452558
0.442856 0.982706 0.442856
0.613103 0.973003 0.433153
0.783350 0.963300 0.423450
0.953598 0.953598 0.413748
1.000000 0.943895 0.404045
0.000000 1.000000 0.462618
0.000000 1.000000 0.452915
0.083312 1.000000 0.443213
0.253560 1.000000 0.433510
0.423807 1.000000 0.423807
0.594055 1.000000 0.414105
0.764302 1.000000 0.404402
0.934550 1.000000 0.394700
1.000000 1.000000 0.384997
0.000000 0.000000 0.791254
0.061751 0.000000 0.781551
0.231998 0.000000 0.771848
0.402246 0.000000 0.762146
0.572493 0.000000 0.752443
0.742741 0.000000 0.742741
0.912988 0.000000 0.733038
1.000000 0.000000 0.723336
1.000000 0.000000 0.713633
0.000000 0.052405 0.772205
0.042703 0.042703 0.762503
0.212950 0.033000 0.752800
0.383198 0.023298 0.743098
0.553445 0.013595 0.733395
0.723693 0.003893 0.723693
0.893940 0.000000 0.713990
1.000000 0.000000 0.704288
1.000000 0.000000 0.694585
0.000000 0.213307 0.753157
0.023655 0.203605 0.743455
0.193902 0.193902 0.733752
0.364150 0.184200 0.724050
0.534397 0.174497 0.714347
0.704644 0.164794 0.704644
0.874892 0.155092 0.694942
1.000000 0.145389 0.685239
1.000000 0.135687 0.675537
0.000000 0.374209 0.734109
0.004607 0.364506 0.724407
0.174854 0.354804 0.714704
0.345101 0.345101 0.705001
0.515349 0.335399 0.695299
0.685596 0.325696 0.685596
0.855844 0.315994 0.675894
1.000000 0.306291 0.666191
1.000000 0.296589 0.656489
0.000000 0.535111 0.715061
0.000000 0.525408 0.705358
0.155806 0.515706 0.695656
0.326053 0.506003 0.685953
0.496301 0.496301 0.676251
0.666548 0.486598 0.666548
0.836796 0.476896 0.656846
1.000000 0.467193 0.647143
1.000000 0.457491 0.637440
0.000000 0.696013 0.696013
0.000000 0.686310 0.686310
0.136758 0.676608 0.676608
0.307005 0.666905 0.666905
0.477253 0.657203 0.657203
0.647500 0.647500 0.647500
0.817747 0.637797 0.637797
0.987995 0.628095 0.628095
1.000000 0.618392 0.618392
0.000000 0.856915 0.676965
0.000000 0.847212 0.667262
0.117710 0.837510 0.657560
0.287957 0.827807 0.647857
0.458204 0.818104 0.638154
0.628452 0.808402 0.628452
0.798699 0.798699 0.618749
0.968947 0.788997 0.609047
1.000000 0.779294 0.599344
0.000000 1.000000 0.657916
0.000000 1.000000 0.648214
0.098661 0.998411 0.638511
0.268909 0.988709 0.628809
0.439156 0.979006 0.619106
0.609404 0.969304 0.609404
0.779651 0.959601 0.599701
0.949899 0.949899 0.589999
1.000000 0.940196 0.580296
0.000000 1.000000 0.638868
0.000000 1.000000 0.629166
0.079613 1.000000 0.619463
0.249861 1.000000 0.609761
0.420108 1.000000 0.600058
0.590356 1.000000 0.590356
0.760603 1.000000 0.580653
0.930850 1.000000 0.570950
1.000000 1.000000 0.561248
0.000000 0.000000 0.967504
0.058052 0.000000 0.957802
0.228299 0.000000 0.948099
0.398547 0.000000 0.938397
0.568794 0.000000 0.928694
0.739041 0.000000 0.918991
0.909289 0.000000 0.909289
1.000000 0.000000 0.899586
1.000000 0.000000 0.889884
0.000000 0.048706 0.948456
0.039004 0.039004 0.938753
0.209251 0.029301 0.929051
0.379498 0.019598 0.919348
0.549746 0.009896 0.909646
0.719993 0.000193 0.899943
0.890241 0.000000 0.890241
1.000000 0.000000 0.880538
1.000000 0.000000 0.870836
0.000000 0.209608 0.929408
0.019955 0.199905 0.919705
0.190203 0.190203 0.910003
0.360450 0.180500 0.900300
0.530698 0.170798 0.890598
0.700945 0.161095 0.880895
0.871193 0.151393 0.871193
1.000000 0.141690 0.861490
1.000000 0.131988 0.851788
0.000000 0.370510 0.910360
0.000907 0.360807 0.900657
0.171155 0.351105 0.890955
0.341402 0.341402 0.881252
0.511650 0.331700 0.871550
0.681897 0.321997 0.861847
0.852144 0.312294 0.852144
1.000000 0.302592 0.842442
1.000000 0.292889 0.832739
0.000000 0.531412 0.891312
0.000000 0.521709 0.881609
0.152106 0.512006 0.871907
0.322354 0.502304 0.862204
0.492601 0.492601 0.852501
0.662849 0.482899 0.842799
0.833096 0.473196 0.833096
1.000000 0.463494 0.823394
1.000000 0.453791 0.813691
0.000000 0.692313 0.872263
0.000000 0.682611 0.862561
0.133058 0.672908 0.852858
0.303306 0.663206 0.843156
0.473553 0.653503 0.833453
0.643801 0.643801 0.823751
0.814048 0.634098 0.814048
0.984296 0.624396 0.804346
1.000000 0.614693 0.794643
0.000000 0.853215 0.853215
0.000000 0.843513 0.843513
0.114010 0.833810 0.833810
0.284258 0.824108 0.824108
0.454505 0.814405 0.814405
0.624753 0.804703 0.804703
0.795000 0.795000 0.795000
0.965247 0.785297 0.785297
1.000000 0.775595 0.775595
0.000000 1.000000 0.834167
0.000000 1.000000 0.824465
0.094962 0.994712 0.814762
0.265209 0.985009 0.805059
0.435457 0.975307 0.795357
0.605704 0.965604 0.785654
0.775952 0.955902 0.775952
0.946199 0.946199 0.766249
1.000000 0.936497 0.756547
0.000000 1.000000 0.815119
0.000000 1.000000 0.805416
0.075914 1.000000 0.795714
0.246161 1.000000 0.786011
0.416409 1.000000 0.776309
0.586656 1.000000 0.766606
0.756904 1.000000 0.756904
0.927151 1.000000 0.747201
1.000000 1.000000 0.737499
0.000000 0.000000 1.000000
0.054352 0.000000 1.000000
0.224600 0.000000 1.000000
0.394847 0.000000 1.000000
0.565095 0.000000 1.000000
0.735342 0.000000 1.000000
0.905590 0.000000 1.000000
1.000000 0.000000 1.000000
1.000000 0.000000 1.000000
0.000000 0.045007 1.000000
0.035304 0.035304 1.000000
0.205552 0.025602 1.000000
0.375799 0.015899 1.000000
0.546047 0.006197 1.000000
0.716294 0.000000 1.000000
0.886541 0.000000 1.000000
1.000000 0.000000 1.000000
1.000000 0.000000 1.000000
0.000000 0.205909 1.000000
0.016256 0.196206 1.000000
0.186503 0.186503 1.000000
0.356751 0.176801 1.000000
0.526998 0.167098 1.000000
0.697246 0.157396 1.000000
0.867493 0.147693 1.000000
1.000000 0.137991 1.000000
1.000000 0.128288 1.000000
0.000000 0.366810 1.000000
0.000000 0.357108 1.000000
0.167455 0.347405 1.000000
0.337703 0.337703 1.000000
0.507950 0.328000 1.000000
0.678198 0.318298 1.000000
0.848445 0.308595 1.000000
1.000000 0.298893 1.000000
1.000000 0.289190 1.000000
0.000000 0.527712 1.000000
0.000000 0.518010 1.000000
0.148407 0.508307 1.000000
0.318655 0.498605 1.000000
0.488902 0.488902 1.000000
0.659150 0.479200 1.000000
0.829397 0.469497 1.000000
0.999644 0.459794 0.999644
1.000000 0.450092 0.989942
0.000000 0.688614 1.000000
0.000000 0.678912 1.000000
0.129359 0.669209 1.000000
0.299607 0.659506 1.000000
0.469854 0.649804 1.000000
0.640101 0.640101 1.000000
0.810349 0.630399 0.990299
0.980596 0.620696 0.980596
1.000000 0.610994 0.970894
0.000000 0.849516 1.000000
0.000000 0.839813 1.000000
0.110311 0.830111 1.000000
0.280558 0.820408 1.000000
0.450806 0.810706 0.990656
0.621053 0.801003 0.980953
0.791301 0.791301 0.971251
0.961548 0.781598 0.961548
1.000000 0.771896 0.951846
0.000000 1.000000 1.000000
0.000000 1.000000 1.000000
0.091263 0.991013 0.991013
0.261510 0.981310 0.981310
0.431758 0.971608 0.971608
0.602005 0.961905 0.961905
0.772253 0.952203 0.952203
0.942500 0.942500 0.942500
1.000000 0.932797 0.932797
0.000000 1.000000 0.991370
0.000000 1.000000 0.981667
0.072215 1.000000 0.971965
0.242462 1.000000 0.962262
0.412710 1.000000 0.952559
0.582957 1.000000 0.942857
0.753204 1.000000 0.933154
0.923452 1.000000 0.923452
1.000000 1.000000 0.913749
0.000000 0.000000 1.000000
0.050653 0.000000 1.000000
0.220901 0.000000 1.000000
0.391148 0.000000 1.000000
0.561395 0.000000 1.000000
0.731643 0.000000 1.000000
0.901890 0.000000 1.000000
1.000000 0.000000 1.000000
1.000000 0.000000 1.000000
0.000000 0.041307 1.000000
0.031605 0.031605 1.000000
0.201852 0.021902 1.000000
0.372100 0.012200 1.000000
0.542347 0.002497 1.000000
0.712595 0.000000 1.000000
0.882842 0.000000 1.000000
1.000000 0.000000 1.000000
1.000000 0.000000 1.000000
0.000000 0.202209 1.000000
0.012557 0.192507 1.000000
0.182804 0.182804 1.000000
0.353052 0.173102 1.000000
0.523299 0.163399 1.000000
0.693547 0.153697 1.000000
0.863794 0.143994 1.000000
1.000000 0.134291 1.000000
1.000000 0.124589 1.000000
0.000000 0.363111 1.000000
0.000000 0.353409 1.000000
0.163756 0.343706 1.000000
0.334004 0.334004 1.000000
0.504251 0.324301 1.000000
0.674498 0.314598 1.000000
0.844746 0.304896 1.000000
1.000000 0.295193 1.000000
1.000000 0.285491 1.000000
0.000000 0.524013 1.000000
0.000000 0.514310 1.000000
0.144708 0.504608 1.000000
0.314955 0.494905 1.000000
0.485203 0.485203 1.000000
0.655450 0.475500 1.000000
0.825698 0.465798 1.000000
0.995945 0.456095 1.000000
1.000000 0.446393 1.000000
0.000000 0.684915 1.000000
0.000000 0.675212 1.000000
0.125660 0.665510 1.000000
0.295907 0.655807 1.000000
0.466155 0.646105 1.000000
0.636402 0.636402 1.000000
0.806650 0.626700 1.000000
0.976897 0.616997 1.000000
1.000000 0.607294 1.000000
0.000000 0.845817 1.000000
0.000000 0.836114 1.000000
0.106612 0.826412 1.000000
0.276859 0.816709 1.000000
0.447106 0.807006 1.000000
0.617354 0.797304 1.000000
0.787601 0.787601 1.000000
0.957849 0.777899 1.000000
1.000000 0.768196 1.000000
0.000000 1.000000 1.000000
0.000000 0.997016 1.000000
0.087563 0.987313 1.000000
0.257811 0.977611 1.000000
0.428058 0.967908 1.000000
0.598306 0.958206 1.000000
0.768553 0.948503 1.000000
0.938801 0.938801 1.000000
1.000000 0.929098 1.000000
0.000000 1.000000 1.000000
0.000000 1.000000 1.000000
0.068515 1.000000 1.000000
0.238763 1.000000 1.000000
0.409010 1.000000 1.000000
0.579258 1.000000 1.000000
0.749505 1.000000 1.000000
0.919752 1.000000 1.000000
1.000000 1.000000 1.000000
