luts/SG1.cube
TITLE "sample2"
LUT_3D_SIZE 33
DOMAIN_MIN 0.0 0.0 0.0
DOMAIN_MAX 1.0 1.0 1.0
0.015686 0.015686 0.015686
0.054167 0.019485 0.019485
0.089216 0.019363 0.019363
0.120098 0.016054 0.016054
0.150490 0.015686 0.015686
0.185172 0.015686 0.015686
0.220588 0.015686 0.015686
0.258456 0.019608 0.019608
0.290196 0.015686 0.015686
0.327819 0.018505 0.018505
0.359804 0.015686 0.015686
0.397181 0.018260 0.018260
0.429412 0.019608 0.019608
0.468873 0.019608 0.019608
0.516912 0.019608 0.019608
0.559436 0.023529 0.023529
0.600000 0.023529 0.023529
0.644485 0.025368 0.025368
0.681373 0.027451 0.027451
0.717770 0.027451 0.029044
0.752451 0.032843 0.032843
0.781863 0.031373 0.031373
0.811520 0.035294 0.036520
0.838603 0.038113 0.039216
0.861765 0.036275 0.039216
0.888848 0.040074 0.040074
0.915931 0.043873 0.043873
0.939093 0.047059 0.047672
0.961765 0.047549 0.050980
0.981495 0.051348 0.054902
1.000000 0.055147 0.055147
1.000000 0.055147 0.058946
1.000000 0.058824 0.058824
0.000368 0.050245 0.015686
0.038484 0.054167 0.015686
0.085057 0.050483 0.015686
0.116544 0.038971 0.015686
0.147059 0.027558 0.015686
0.181269 0.016402 0.015809
0.216690 0.015709 0.015709
0.251444 0.019485 0.019485
0.285294 0.015778 0.015778
0.323897 0.018539 0.018539
0.355967 0.015771 0.015771
0.390767 0.018302 0.018302
0.425490 0.019608 0.019608
0.468873 0.019608 0.019608
0.515127 0.019608 0.019608
0.555572 0.023529 0.023529
0.599939 0.023529 0.023529
0.642467 0.025433 0.025433
0.679236 0.027451 0.027451
0.713921 0.027524 0.027574
0.748606 0.032797 0.032797
0.780637 0.031453 0.031453
0.811435 0.035210 0.036520
0.835750 0.038025 0.039093
0.861795 0.036275 0.039216
0.888848 0.040142 0.040169
0.915931 0.043949 0.043972
0.939216 0.047078 0.047672
0.961780 0.047656 0.050980
0.981484 0.051459 0.054902
1.000000 0.055147 0.055147
1.000000 0.055262 0.058942
1.000000 0.058824 0.058946
0.000000 0.081618 0.012010
0.041927 0.084942 0.015334
0.081127 0.081602 0.015441
0.112477 0.077597 0.015686
0.146814 0.069853 0.012010
0.181288 0.061680 0.015150
0.220389 0.039951 0.015732
0.255147 0.024648 0.019363
0.286397 0.015870 0.015870
0.323897 0.018574 0.018574
0.356051 0.015855 0.015855
0.393099 0.018344 0.018344
0.430239 0.019608 0.019608
0.474142 0.019608 0.019608
0.516667 0.019608 0.019608
0.559436 0.023529 0.023529
0.599877 0.023529 0.023529
0.640679 0.025498 0.025498
0.679167 0.027451 0.027451
0.713994 0.027597 0.027696
0.748438 0.031373 0.032751
0.778102 0.031533 0.031533
0.811351 0.035126 0.036520
0.838358 0.037937 0.038971
0.861826 0.036275 0.039216
0.889652 0.040211 0.043137
0.915931 0.044026 0.044072
0.939338 0.047097 0.047672
0.961795 0.047763 0.050980
0.981472 0.051570 0.054902
1.000000 0.055147 0.055147
1.000000 0.055377 0.058938
1.000000 0.058824 0.059069
0.000000 0.108333 0.011765
0.038480 0.112144 0.011765
0.073652 0.112033 0.011543
0.108333 0.108701 0.011765
0.139905 0.104534 0.011320
0.180752 0.097181 0.012132
0.220588 0.085907 0.011834
0.258866 0.080718 0.015606
0.293137 0.072181 0.012408
0.327554 0.060275 0.016054
0.359689 0.040594 0.015939
0.396940 0.025605 0.018386
0.437868 0.019608 0.019608
0.480419 0.019608 0.019608
0.520466 0.019608 0.019608
0.559436 0.023529 0.023529
0.600000 0.023529 0.023529
0.642597 0.025563 0.025563
0.679167 0.027451 0.027451
0.714066 0.027669 0.027819
0.748392 0.031373 0.032705
0.778182 0.031614 0.031614
0.811267 0.035041 0.036520
0.838339 0.037849 0.038848
0.862745 0.036275 0.039216
0.889913 0.040280 0.043137
0.915931 0.044102 0.044171
0.942459 0.047116 0.047672
0.961811 0.047871 0.050980
0.981461 0.051681 0.054902
1.000000 0.055147 0.055147
1.000000 0.058935 0.058935
1.000000 0.087255 0.059191
0.000000 0.156373 0.007843
0.027727 0.156373 0.007751
0.066176 0.153156 0.004626
0.107200 0.152941 0.004458
0.146078 0.149939 0.007904
0.184191 0.148606 0.007797
0.233027 0.140380 0.007935
0.272181 0.136275 0.011014
0.310662 0.129289 0.011275
0.342999 0.121691 0.012255
0.379657 0.115839 0.012255
0.421691 0.108869 0.012255
0.462439 0.100735 0.014706
0.500781 0.091222 0.016176
0.539491 0.084375 0.017678
0.576823 0.078431 0.020098
0.613726 0.066422 0.021814
0.654504 0.043428 0.025843
0.688756 0.028952 0.028952
0.723453 0.028845 0.029136
0.756373 0.031189 0.031373
0.785325 0.032874 0.032874
0.813143 0.034957 0.034957
0.840074 0.038725 0.038725
0.863358 0.038848 0.038848
0.890319 0.039966 0.042647
0.917310 0.043137 0.046569
0.943459 0.050077 0.050490
0.960233 0.050980 0.050980
0.982430 0.051302 0.054412
0.997641 0.063695 0.054902
1.000000 0.120833 0.054902
1.000000 0.169608 0.054902
0.000000 0.189706 0.000613
0.000000 0.192930 0.003818
0.028600 0.189951 0.000613
0.081928 0.189706 0.000613
0.128110 0.186275 0.001026
0.173407 0.185267 0.003405
0.215931 0.178064 0.003922
0.255626 0.173407 0.004400
0.302788 0.169179 0.007016
0.343505 0.165564 0.004975
0.387691 0.162255 0.007843
0.427941 0.158456 0.008054
0.468995 0.153186 0.010907
0.507104 0.146324 0.012377
0.545810 0.138948 0.014170
0.582353 0.134804 0.016012
0.619608 0.127390 0.018260
0.658333 0.122672 0.020221
0.694240 0.115786 0.021668
0.727328 0.108203 0.025486
0.760892 0.101379 0.027681
0.789495 0.094853 0.029814
0.815441 0.089476 0.034260
0.842525 0.081300 0.035907
0.869148 0.071630 0.039369
0.893493 0.069129 0.040074
0.919853 0.070228 0.043137
0.949115 0.087799 0.047155
0.965763 0.104749 0.047748
0.985417 0.121553 0.051593
1.000000 0.144684 0.051019
1.000000 0.166092 0.054799
1.000000 0.202083 0.051593
0.000000 0.224510 0.000000
0.000000 0.228332 0.000000
0.002068 0.228431 0.000000
0.062010 0.228431 0.000000
0.109467 0.224908 0.000000
0.158081 0.223889 0.000000
0.211275 0.223039 0.000000
0.253799 0.222465 0.000000
0.299203 0.216176 0.000184
0.347059 0.212217 0.000735
0.395833 0.211504 0.000000
0.439101 0.208701 0.000735
0.480178 0.203431 0.003186
0.518084 0.197618 0.004657
0.556786 0.193796 0.008257
0.590074 0.189239 0.010271
0.627451 0.183824 0.010539
0.665786 0.178408 0.014193
0.701639 0.175659 0.017402
0.731863 0.171760 0.017716
0.764737 0.169853 0.022335
0.793375 0.167885 0.024265
0.822549 0.166176 0.027451
0.849632 0.163480 0.031373
0.872978 0.162132 0.031556
0.899877 0.162745 0.032966
0.923775 0.163480 0.039216
0.952811 0.170703 0.043137
0.969608 0.176471 0.043873
0.989269 0.184559 0.044240
1.000000 0.195879 0.047105
1.000000 0.209214 0.050904
1.000000 0.237010 0.047794
0.000000 0.258456 0.000000
0.000000 0.262282 0.000000
0.000000 0.262377 0.000000
0.036481 0.265154 0.000000
0.096814 0.265441 0.000000
0.149510 0.266299 0.000000
0.204289 0.262952 0.000000
0.253676 0.261707 0.000000
0.299357 0.261091 0.000000
0.339955 0.252332 0.000000
0.391690 0.250613 0.000000
0.439265 0.250050 0.000000
0.485294 0.248606 0.000000
0.526612 0.243505 0.000000
0.564453 0.240188 0.000858
0.597794 0.234069 0.002485
0.635294 0.228615 0.005208
0.673162 0.224387 0.008701
0.705760 0.218382 0.010041
0.737029 0.214970 0.012623
0.769730 0.213312 0.015686
0.798602 0.212450 0.018160
0.826348 0.213235 0.020466
0.853431 0.211156 0.024387
0.880086 0.209773 0.025368
0.903864 0.210539 0.028979
0.930185 0.210539 0.032805
0.953922 0.214595 0.038492
0.973529 0.219347 0.040074
0.989338 0.223529 0.040441
1.000000 0.231250 0.043191
1.000000 0.243899 0.046990
1.000000 0.264093 0.044853
0.000000 0.323529 0.000000
0.000000 0.324418 0.000000
0.000000 0.321814 0.000000
0.032874 0.325214 0.000000
0.099387 0.325490 0.000000
0.150245 0.322549 0.000000
0.207598 0.321569 0.000000
0.258364 0.315564 0.000000
0.307843 0.314951 0.000000
0.351348 0.309773 0.000000
0.390625 0.304167 0.000000
0.438572 0.297059 0.000000
0.489706 0.298162 0.000000
0.534773 0.296477 0.000000
0.575429 0.292157 0.000000
0.610876 0.289093 0.000000
0.649510 0.284314 0.000490
0.685784 0.279933 0.000980
0.719608 0.277145 0.000980
0.749295 0.272151 0.003156
0.778064 0.268627 0.005270
0.806955 0.264675 0.009804
0.831127 0.262745 0.012745
0.858211 0.265564 0.016667
0.881618 0.262990 0.017647
0.907475 0.263603 0.021232
0.930453 0.264277 0.024510
0.956281 0.270741 0.030086
0.976471 0.275490 0.032353
0.991728 0.279779 0.032629
0.998162 0.284559 0.035294
1.000000 0.294332 0.036366
1.000000 0.305882 0.036275
0.000000 0.359191 0.000000
0.000000 0.374632 0.000000
0.000000 0.376157 0.000000
0.000000 0.375980 0.000000
0.021017 0.373912 0.000000
0.107158 0.371128 0.000000
0.175820 0.370427 0.000000
0.228435 0.363971 0.000000
0.285539 0.360172 0.000000
0.333636 0.352451 0.000000
0.381985 0.348185 0.000000
0.421090 0.340208 0.000000
0.466422 0.333900 0.000000
0.518137 0.332843 0.000000
0.566529 0.332843 0.000000
0.610934 0.332257 0.000000
0.654351 0.329228 0.000000
0.693110 0.325980 0.000000
0.727328 0.323415 0.000000
0.758866 0.318382 0.000000
0.788036 0.313894 0.000414
0.814706 0.309681 0.001103
0.839851 0.306985 0.005025
0.865261 0.306315 0.009256
0.892034 0.304289 0.012868
0.916058 0.304906 0.016789
0.939461 0.305392 0.018421
0.964828 0.310761 0.023261
0.983977 0.312270 0.024770
1.000000 0.317421 0.028451
1.000000 0.321078 0.028554
1.000000 0.325333 0.028676
1.000000 0.340686 0.028554
0.000000 0.391176 0.000000
0.000000 0.410417 0.000000
0.000000 0.410953 0.000000
0.000000 0.410784 0.000000
0.000000 0.410049 0.000000
0.082981 0.406863 0.000000
0.160769 0.405132 0.000000
0.212132 0.399609 0.000000
0.266483 0.394853 0.000000
0.320979 0.391054 0.000000
0.371186 0.386029 0.000000
0.415862 0.381304 0.000000
0.457169 0.374510 0.000000
0.498277 0.367517 0.000000
0.551762 0.366468 0.000000
0.603186 0.369079 0.000000
0.651593 0.368995 0.000000
0.695542 0.369769 0.000000
0.732996 0.365885 0.000000
0.762737 0.360907 0.000000
0.792892 0.356342 0.000000
0.820695 0.352505 0.000000
0.846431 0.350352 0.000000
0.872672 0.348752 0.000345
0.897059 0.346507 0.009191
0.922917 0.346546 0.021032
0.943382 0.346814 0.033088
0.968627 0.349089 0.048775
0.984222 0.350888 0.048438
1.000000 0.352214 0.037247
1.000000 0.355882 0.020833
1.000000 0.358824 0.020956
1.000000 0.371569 0.020833
0.000000 0.424632 0.000000
0.000000 0.441422 0.000000
0.000000 0.445749 0.000000
0.000000 0.445588 0.000000
0.000000 0.444730 0.000000
0.052853 0.442069 0.000000
0.144616 0.440319 0.000000
0.197254 0.436397 0.000000
0.251379 0.433456 0.000000
0.305503 0.429657 0.000000
0.358402 0.424632 0.000000
0.408061 0.419826 0.000000
0.453922 0.416789 0.000000
0.493995 0.409191 0.000000
0.535784 0.401693 0.000000
0.585172 0.401245 0.000000
0.638664 0.405699 0.000000
0.690893 0.405741 0.000000
0.730905 0.406909 0.000000
0.767157 0.403431 0.000000
0.798039 0.398790 0.000000
0.825341 0.394949 0.000000
0.851540 0.392839 0.000000
0.878699 0.391188 0.011654
0.903554 0.389338 0.030300
0.927769 0.389043 0.048652
0.950490 0.385417 0.060784
0.972024 0.387588 0.072024
0.988036 0.385585 0.071492
1.000000 0.387006 0.063109
1.000000 0.390602 0.039951
1.000000 0.393424 0.024835
1.000000 0.402451 0.027328
0.000000 0.478922 0.000000
0.000000 0.488634 0.000000
0.000000 0.487898 0.000000
0.000000 0.487745 0.000000
0.000000 0.486765 0.000000
0.059666 0.486275 0.000000
0.145006 0.484007 0.000000
0.197963 0.479289 0.000000
0.250000 0.479412 0.000000
0.300613 0.475613 0.000000
0.350061 0.471354 0.000000
0.400260 0.464093 0.000000
0.446998 0.458824 0.000000
0.490074 0.453447 0.000000
0.530392 0.447947 0.000000
0.567448 0.441054 0.000000
0.618137 0.438725 0.000000
0.670803 0.443306 0.000000
0.718474 0.445680 0.000000
0.758854 0.447059 0.000000
0.793566 0.446140 0.000000
0.824632 0.441789 0.010723
0.851256 0.441912 0.029259
0.877742 0.439216 0.041284
0.901593 0.437868 0.052083
0.923652 0.436765 0.060386
0.949265 0.437224 0.071998
0.969746 0.436765 0.077834
0.985294 0.435478 0.079718
0.998667 0.438235 0.078431
1.000000 0.439798 0.079810
1.000000 0.445144 0.076670
1.000000 0.449020 0.063725
0.000000 0.511275 0.000000
0.000000 0.534509 0.000000
0.000000 0.540809 0.000000
0.000000 0.538726 0.000000
0.000000 0.537132 0.000000
0.000000 0.531246 0.000000
0.065617 0.527696 0.000000
0.153573 0.523897 0.000000
0.214338 0.521446 0.000000
0.268382 0.517525 0.000000
0.321691 0.512002 0.000000
0.374690 0.506307 0.000000
0.426317 0.498514 0.000000
0.475980 0.493260 0.000000
0.518505 0.489461 0.000000
0.561029 0.485306 0.000000
0.599632 0.476348 0.000000
0.646335 0.473150 0.000000
0.696814 0.479289 0.000000
0.743103 0.480848 0.000000
0.786412 0.479902 0.000000
0.820343 0.481430 0.000000
0.852328 0.481503 0.013603
0.880067 0.480109 0.046366
0.904902 0.478309 0.070221
0.928573 0.478309 0.085313
0.953554 0.478309 0.097917
0.976352 0.478309 0.108824
0.994531 0.475980 0.113725
1.000000 0.478458 0.117647
1.000000 0.476126 0.116054
1.000000 0.478359 0.114511
1.000000 0.483824 0.112132
0.000000 0.542157 0.000000
0.000000 0.565388 0.000000
0.000000 0.571216 0.000000
0.000000 0.571324 0.000000
0.000000 0.566176 0.000000
0.000000 0.561765 0.000000
0.028876 0.559972 0.000000
0.130760 0.556120 0.000000
0.201716 0.552757 0.000000
0.255507 0.549387 0.000000
0.307062 0.546768 0.000000
0.358701 0.541789 0.000000
0.411673 0.536520 0.000000
0.463565 0.531985 0.000000
0.510784 0.526471 0.000000
0.554220 0.523583 0.000000
0.596078 0.519976 0.000000
0.632721 0.509436 0.000000
0.674265 0.504657 0.000000
0.720588 0.505553 0.000000
0.765441 0.510784 0.000000
0.805492 0.510784 0.000000
0.843627 0.514706 0.001072
0.874648 0.515326 0.024763
0.901409 0.514706 0.057353
0.928064 0.515188 0.077941
0.953431 0.516912 0.095267
0.978041 0.516912 0.106495
0.994638 0.514491 0.111795
1.000000 0.514706 0.119570
1.000000 0.513128 0.124020
1.000000 0.519102 0.129902
1.000000 0.518627 0.125980
0.000000 0.573039 0.000000
0.000000 0.592402 0.000000
0.000000 0.600375 0.000000
0.000000 0.598407 0.000000
0.000000 0.596569 0.000000
0.000000 0.592647 0.000000
0.001494 0.592647 0.000000
0.108544 0.588726 0.000000
0.185631 0.586887 0.000000
0.245098 0.584069 0.000000
0.296446 0.581533 0.000000
0.345975 0.579676 0.000000
0.397304 0.575123 0.000000
0.450111 0.569964 0.000000
0.499265 0.563902 0.000000
0.543750 0.558330 0.000000
0.588113 0.554473 0.000000
0.625854 0.548648 0.000000
0.661397 0.542034 0.000000
0.697917 0.533824 0.000000
0.742279 0.534513 0.000000
0.784804 0.539583 0.000000
0.827328 0.544156 0.000000
0.863576 0.546691 0.002068
0.895956 0.549510 0.027237
0.924353 0.549510 0.058877
0.951225 0.551593 0.081886
0.974387 0.551593 0.100490
0.992923 0.549280 0.105898
1.000000 0.549877 0.118382
1.000000 0.551708 0.131985
1.000000 0.555572 0.143260
1.000000 0.557353 0.139338
0.000000 0.609804 0.000000
0.000000 0.617586 0.000000
0.000000 0.621569 0.000000
0.000000 0.623713 0.000000
0.000000 0.621814 0.000000
0.000000 0.621569 0.000000
0.025858 0.621569 0.000000
0.115625 0.620037 0.000000
0.181863 0.617647 0.000000
0.237929 0.617647 0.000000
0.288113 0.617647 0.000000
0.333762 0.612439 0.000000
0.381373 0.610539 0.000000
0.431985 0.606679 0.000000
0.479902 0.600858 0.000000
0.527145 0.597917 0.000000
0.573529 0.592157 0.000000
0.615074 0.588358 0.000000
0.653676 0.585417 0.000000
0.685968 0.578002 0.000000
0.719853 0.571814 0.000000
0.757721 0.569301 0.000000
0.798897 0.573775 0.000000
0.838848 0.578983 0.000000
0.873039 0.582843 0.000000
0.906495 0.586275 0.007169
0.933946 0.588603 0.032353
0.960662 0.590502 0.066544
0.983578 0.594118 0.087500
1.000000 0.598223 0.104841
1.000000 0.601961 0.122059
1.000000 0.603983 0.135355
1.000000 0.605882 0.139216
0.000000 0.638726 0.000000
0.000000 0.654527 0.000000
0.000000 0.660286 0.000000
0.000000 0.660589 0.000000
0.000000 0.656725 0.000000
0.000000 0.656495 0.000000
0.000000 0.652574 0.000000
0.003255 0.652976 0.000000
0.116973 0.650551 0.000000
0.194240 0.648652 0.000000
0.255025 0.648001 0.000000
0.305882 0.644730 0.000000
0.354825 0.643428 0.000000
0.405626 0.639572 0.000000
0.455813 0.639637 0.000000
0.504048 0.633827 0.000000
0.553186 0.628002 0.000000
0.601593 0.626961 0.000000
0.642142 0.622235 0.000000
0.677953 0.620355 0.000000
0.713067 0.614936 0.000000
0.744730 0.606637 0.000000
0.778922 0.603431 0.000000
0.820125 0.606618 0.000000
0.858211 0.612500 0.000000
0.894328 0.617735 0.000000
0.928286 0.621201 0.006120
0.958333 0.625123 0.046818
0.980025 0.627221 0.076471
0.996668 0.629216 0.099414
1.000000 0.633081 0.122304
1.000000 0.634861 0.135539
1.000000 0.638726 0.141422
0.000000 0.665686 0.000000
0.000000 0.679465 0.000000
0.000000 0.683441 0.000000
0.000000 0.683739 0.000000
0.000000 0.679657 0.000000
0.000000 0.679389 0.000000
0.000000 0.675735 0.000000
0.000000 0.676111 0.000000
0.096140 0.674081 0.000000
0.178179 0.673529 0.000000
0.242203 0.673529 0.000000
0.295489 0.671814 0.000000
0.342402 0.670435 0.000000
0.388925 0.668911 0.000000
0.439461 0.666651 0.000000
0.486589 0.664775 0.000000
0.534926 0.657843 0.000000
0.585241 0.655093 0.000000
0.626685 0.651930 0.000000
0.666383 0.648407 0.000000
0.702206 0.645251 0.000000
0.735884 0.641399 0.000000
0.767892 0.633624 0.000000
0.803316 0.631013 0.000000
0.840686 0.635784 0.000000
0.876708 0.640924 0.000000
0.913235 0.644776 0.000000
0.947082 0.648284 0.001723
0.968382 0.652420 0.028799
0.989622 0.656288 0.071645
1.000000 0.660294 0.105392
1.000000 0.664024 0.122181
1.000000 0.667892 0.129902
0.000000 0.691054 0.000000
0.000000 0.702696 0.000000
0.000000 0.706495 0.000000
0.000000 0.706740 0.000000
0.000000 0.702819 0.000000
0.000000 0.702570 0.000000
0.000000 0.698897 0.000000
0.000000 0.699246 0.000000
0.083885 0.698897 0.000000
0.164951 0.699835 0.000000
0.231013 0.699763 0.000000
0.283889 0.698897 0.000000
0.332230 0.697442 0.000000
0.378029 0.696867 0.000000
0.425038 0.694976 0.000000
0.471212 0.691801 0.000000
0.518382 0.685968 0.000000
0.565943 0.683712 0.000000
0.610332 0.680185 0.000000
0.650892 0.678343 0.000000
0.689568 0.674495 0.000000
0.725670 0.670646 0.000000
0.760669 0.666062 0.000000
0.793302 0.662420 0.000000
0.826440 0.661458 0.000000
0.861171 0.661784 0.000000
0.897794 0.667525 0.000000
0.932234 0.671446 0.000000
0.960662 0.677252 0.000291
0.982012 0.681767 0.026007
1.000000 0.687132 0.076203
1.000000 0.691054 0.099755
1.000000 0.693382 0.109681
0.000000 0.714216 0.000000
0.000000 0.723866 0.000000
0.000000 0.724020 0.000000
0.000000 0.725490 0.000000
0.000000 0.724510 0.000000
0.000000 0.725751 0.000000
0.000000 0.724510 0.000000
0.022289 0.725980 0.000000
0.095343 0.727083 0.000000
0.170527 0.725291 0.000000
0.229044 0.726685 0.000000
0.279657 0.725000 0.000000
0.325980 0.725551 0.000000
0.370956 0.723545 0.000000
0.412653 0.724265 0.000000
0.456618 0.722549 0.000000
0.502451 0.717647 0.000000
0.548805 0.715717 0.000000
0.593137 0.713726 0.000000
0.635417 0.710677 0.000000
0.674020 0.708333 0.000000
0.712745 0.705882 0.000000
0.745864 0.701961 0.000000
0.780591 0.698729 0.000000
0.814338 0.697304 0.000000
0.843796 0.692862 0.000000
0.873805 0.694363 0.000000
0.911642 0.700000 0.000000
0.938725 0.704228 0.000000
0.964108 0.708961 0.000000
0.984804 0.712745 0.000000
1.000000 0.716667 0.000000
1.000000 0.720588 0.000000
0.000000 0.746569 0.000000
0.000000 0.753064 0.000000
0.000000 0.756824 0.000000
0.000000 0.756985 0.000000
0.000000 0.755806 0.000000
0.000000 0.754201 0.000000
0.000000 0.753064 0.000000
0.000000 0.753627 0.000000
0.005790 0.755637 0.000000
0.117402 0.753064 0.000000
0.192348 0.753064 0.000000
0.250613 0.753064 0.000000
0.305162 0.753569 0.000000
0.352999 0.753064 0.000000
0.397917 0.753654 0.000000
0.439970 0.753064 0.000000
0.489461 0.753064 0.000000
0.533824 0.749774 0.000000
0.578431 0.750590 0.000000
0.620956 0.746569 0.000000
0.663480 0.743750 0.000000
0.702968 0.741299 0.000000
0.740686 0.740074 0.000000
0.775368 0.736654 0.000000
0.808793 0.731189 0.000000
0.841299 0.726666 0.000000
0.871699 0.725130 0.000000
0.902853 0.723231 0.000000
0.929534 0.725613 0.000000
0.954044 0.729534 0.000000
0.977122 0.731043 0.000000
0.997388 0.737377 0.000000
1.000000 0.738726 0.000000
0.000000 0.773529 0.000000
0.000000 0.776226 0.000000
0.000000 0.778922 0.000000
0.000000 0.779036 0.000000
0.000000 0.779075 0.000000
0.000000 0.776226 0.000000
0.000000 0.773039 0.000000
0.000000 0.775268 0.000000
0.000000 0.775919 0.000000
0.104779 0.775000 0.000000
0.180285 0.776226 0.000000
0.240740 0.776226 0.000000
0.294822 0.776685 0.000000
0.342655 0.776226 0.000000
0.386811 0.776762 0.000000
0.430231 0.776226 0.000000
0.474632 0.776226 0.000000
0.519608 0.774793 0.000000
0.562990 0.774510 0.000000
0.602819 0.771209 0.000000
0.645129 0.768137 0.000000
0.687063 0.765265 0.000000
0.727941 0.764461 0.000000
0.763848 0.763703 0.000000
0.799449 0.759436 0.000000
0.833578 0.756985 0.000000
0.865181 0.753416 0.000000
0.896377 0.750421 0.000000
0.923039 0.750000 0.000000
0.946201 0.752696 0.000000
0.969286 0.754013 0.000000
0.991092 0.756618 0.000000
1.000000 0.760539 0.000000
0.000000 0.800490 0.000000
0.000000 0.799422 0.000000
0.000000 0.799387 0.000000
0.000000 0.799652 0.000000
0.000000 0.799525 0.000000
0.000000 0.797499 0.000000
0.000000 0.796569 0.000000
0.000000 0.797185 0.000000
0.000000 0.799387 0.000000
0.096389 0.799387 0.000000
0.173629 0.799732 0.000000
0.231629 0.799387 0.000000
0.287056 0.799801 0.000000
0.334884 0.799387 0.000000
0.378554 0.799870 0.000000
0.419757 0.799387 0.000000
0.461642 0.799387 0.000000
0.505542 0.797890 0.000000
0.548652 0.798154 0.000000
0.589503 0.796569 0.000000
0.630469 0.795098 0.000000
0.673652 0.795221 0.000000
0.717647 0.792647 0.000000
0.756250 0.792647 0.000000
0.791759 0.789430 0.000000
0.826099 0.787868 0.000000
0.860869 0.784275 0.000000
0.896396 0.780710 0.000000
0.918765 0.776608 0.000000
0.942176 0.776857 0.000000
0.961451 0.776892 0.000000
0.983456 0.779779 0.000000
1.000000 0.779779 0.000000
0.000000 0.825490 0.000000
0.000000 0.825490 0.000000
0.000000 0.825551 0.000000
0.000000 0.825490 0.000000
0.000000 0.826348 0.000000
0.000000 0.822549 0.000000
0.000000 0.823897 0.000000
0.005362 0.826471 0.000000
0.026225 0.826471 0.000000
0.114767 0.827175 0.000000
0.182966 0.824510 0.000000
0.238940 0.827420 0.000000
0.287132 0.827328 0.000000
0.333578 0.826072 0.000000
0.376716 0.827328 0.000000
0.416422 0.827574 0.000000
0.458824 0.829412 0.000000
0.496844 0.827849 0.000000
0.540380 0.828125 0.000000
0.579534 0.827237 0.000000
0.621078 0.828309 0.000000
0.659681 0.826134 0.000000
0.701226 0.825184 0.000000
0.740104 0.824510 0.000000
0.776226 0.821324 0.000000
0.813235 0.820374 0.000000
0.846691 0.819056 0.000000
0.882843 0.815533 0.000000
0.909926 0.808211 0.000000
0.930515 0.806863 0.000000
0.949694 0.802941 0.000000
0.968873 0.805760 0.000000
0.985294 0.802941 0.000000
0.000000 0.853554 0.000000
0.000000 0.854385 0.000000
0.000000 0.856671 0.000000
0.000000 0.853554 0.000000
0.000000 0.854305 0.000000
0.000000 0.853075 0.000000
0.000000 0.853554 0.000000
0.000000 0.853554 0.000000
0.000000 0.851256 0.000000
0.056989 0.853554 0.000000
0.154825 0.853554 0.000000
0.216962 0.854117 0.000000
0.271737 0.857154 0.000000
0.321324 0.855882 0.000000
0.369240 0.857100 0.000000
0.410784 0.858701 0.000000
0.450980 0.857475 0.000000
0.490686 0.858912 0.000000
0.528431 0.858816 0.000000
0.568853 0.858946 0.000000
0.607644 0.857475 0.000000
0.645098 0.857475 0.000000
0.682843 0.853554 0.000000
0.723889 0.852692 0.000000
0.763205 0.852574 0.000000
0.798652 0.850303 0.000000
0.834030 0.847143 0.000000
0.869118 0.843371 0.000000
0.899893 0.838235 0.000000
0.929450 0.833659 0.000000
0.949510 0.829779 0.000000
0.965047 0.823108 0.000000
0.984314 0.822181 0.000000
0.000000 0.880637 0.000000
0.000000 0.880538 0.000000
0.000000 0.879948 0.000000
0.000000 0.877451 0.000000
0.000000 0.877849 0.000000
0.000000 0.876831 0.000000
0.000000 0.879902 0.000000
0.000000 0.879940 0.000000
0.000000 0.877696 0.000000
0.063641 0.880430 0.000000
0.157828 0.879136 0.000000
0.217655 0.879542 0.000000
0.269608 0.880637 0.000000
0.316368 0.877152 0.000000
0.362255 0.877451 0.000000
0.404266 0.878799 0.000000
0.443505 0.877451 0.000000
0.483701 0.878945 0.000000
0.518061 0.878845 0.000000
0.556250 0.880637 0.000000
0.595588 0.878646 0.000000
0.634191 0.880637 0.000000
0.672059 0.879642 0.000000
0.710662 0.879213 0.000000
0.751654 0.879657 0.000000
0.787707 0.873369 0.000000
0.825735 0.874127 0.000000
0.864461 0.873032 0.000000
