luts/SG1.cube
TITLE "sample2"
LUT_3D_SIZE 5
DOMAIN_MIN 0.0 0.0 0.0
DOMAIN_MAX 1.0 1.0 1.0
0.015686 0.015686 0.015686
0.290196 0.015686 0.015686
0.600000 0.023529 0.023529
0.861765 0.036275 0.039216
1.000000 0.058824 0.058824
0.000000 0.323529 0.000000
0.307843 0.314951 0.000000
0.649510 0.284314 0.000490
0.881618 0.262990 0.017647
1.000000 0.305882 0.036275
0.000000 0.609804 0.000000
0.181863 0.617647 0.000000
0.573529 0.592157 0.000000
0.873039 0.582843 0.000000
1.000000 0.605882 0.139216
0.000000 0.825490 0.000000
0.026225 0.826471 0.000000
0.458824 0.829412 0.000000
0.776226 0.821324 0.000000
0.985294 0.802941 0.000000
0.000000 0.980392 0.000000
0.110784 0.983333 0.000000
0.445098 0.986275 0.000000
0.698039 0.988235 0.078431
0.964706 0.992157 0.070588
0.038235 0.016667 0.249020
0.262990 0.019608 0.263726
0.562255 0.025490 0.265196
0.839216 0.035539 0.251226
1.000000 0.058824 0.254902
0.025000 0.299755 0.292157
0.298468 0.292953 0.293689
0.592034 0.279657 0.280637
0.854902 0.270037 0.278676
1.000000 0.287255 0.271569
0.000000 0.594118 0.293137
0.225368 0.600858 0.242647
0.580147 0.573775 0.256618
0.878799 0.581250 0.296078
1.000000 0.600980 0.335294
0.000000 0.821324 0.263726
0.153922 0.823775 0.231924
0.477328 0.825368 0.187745
0.790502 0.814951 0.261765
0.993873 0.801961 0.274510
0.000000 0.977451 0.266667
0.157843 0.980637 0.258088
0.446569 0.985784 0.236765
0.699020 0.988235 0.308088
0.964706 0.992157 0.353922
0.082353 0.021569 0.474510
0.273039 0.027451 0.497059
0.509804 0.040196 0.532353
0.760294 0.071569 0.523529
1.000000 0.062745 0.460784
0.010294 0.278922 0.513235
0.268873 0.282966 0.523652
0.519118 0.274020 0.538971
0.778922 0.268382 0.531985
1.000000 0.194608 0.469118
0.058824 0.571569 0.549020
0.297794 0.572549 0.555637
0.557353 0.560784 0.554902
0.832353 0.567647 0.556863
1.000000 0.575490 0.552941
0.059804 0.818137 0.549020
0.303554 0.817647 0.551226
0.508824 0.821569 0.494608
0.792892 0.813480 0.548039
1.000000 0.823529 0.562745
0.005882 0.976471 0.523529
0.267157 0.976961 0.525980
0.479412 0.980392 0.505882
0.705882 0.986275 0.523529
0.976471 0.984314 0.574510
0.137255 0.034314 0.676471
0.274510 0.039216 0.688235
0.478922 0.060784 0.734804
0.745098 0.087255 0.780392
0.952941 0.113725 0.721569
0.112255 0.272794 0.696324
0.271630 0.276164 0.707843
0.485172 0.279657 0.746078
0.749816 0.272365 0.787316
0.953922 0.246324 0.732598
0.079902 0.552451 0.746569
0.289706 0.555147 0.754902
0.519363 0.561029 0.775490
0.775123 0.558946 0.800000
0.974510 0.542157 0.764706
0.139461 0.813726 0.788235
0.349510 0.811765 0.789216
0.572917 0.808946 0.797059
0.794792 0.809559 0.803922
0.995343 0.827451 0.818873
0.161765 0.976471 0.752941
0.363480 0.977941 0.758333
0.581373 0.976961 0.770588
0.773529 0.986029 0.778186
0.988235 0.984314 0.831373
0.192157 0.054902 0.850980
0.292157 0.062745 0.858824
0.474510 0.082353 0.888235
0.678431 0.114706 0.970588
0.960784 0.133333 0.968627
0.175490 0.277451 0.868627
0.286520 0.281373 0.877451
0.468627 0.289706 0.906863
0.675490 0.273775 0.975735
0.955882 0.155882 0.972549
0.196078 0.541176 0.919608
0.336275 0.554412 0.927451
0.486275 0.554902 0.950980
0.704902 0.552451 0.986765
0.962745 0.531373 0.974510
0.255882 0.783333 0.964706
0.375980 0.784314 0.964951
0.566176 0.791667 0.972549
0.772304 0.803676 0.985784
0.983333 0.801961 0.988235
0.470588 0.992157 0.964706
0.559804 0.996078 0.972549
0.701961 0.992157 0.976471
0.894118 0.997059 0.989216
1.000000 1.000000 1.000000
