luts/SG1.cube
TITLE "sample2"
LUT_3D_SIZE 9
DOMAIN_MIN 0.0 0.0 0.0
DOMAIN_MAX 1.0 1.0 1.0
0.015686 0.015686 0.015686
0.150490 0.015686 0.015686
0.290196 0.015686 0.015686
0.429412 0.019608 0.019608
0.600000 0.023529 0.023529
0.752451 0.032843 0.032843
0.861765 0.036275 0.039216
0.961765 0.047549 0.050980
1.000000 0.058824 0.058824
0.000000 0.156373 0.007843
0.146078 0.149939 0.007904
0.310662 0.129289 0.011275
0.462439 0.100735 0.014706
0.613726 0.066422 0.021814
0.756373 0.031189 0.031373
0.863358 0.038848 0.038848
0.960233 0.050980 0.050980
1.000000 0.169608 0.054902
0.000000 0.323529 0.000000
0.099387 0.325490 0.000000
0.307843 0.314951 0.000000
0.489706 0.298162 0.000000
0.649510 0.284314 0.000490
0.778064 0.268627 0.005270
0.881618 0.262990 0.017647
0.976471 0.275490 0.032353
1.000000 0.305882 0.036275
0.000000 0.478922 0.000000
0.000000 0.486765 0.000000
0.250000 0.479412 0.000000
0.446998 0.458824 0.000000
0.618137 0.438725 0.000000
0.793566 0.446140 0.000000
0.901593 0.437868 0.052083
0.985294 0.435478 0.079718
1.000000 0.449020 0.063725
0.000000 0.609804 0.000000
0.000000 0.621814 0.000000
0.181863 0.617647 0.000000
0.381373 0.610539 0.000000
0.573529 0.592157 0.000000
0.719853 0.571814 0.000000
0.873039 0.582843 0.000000
0.983578 0.594118 0.087500
1.000000 0.605882 0.139216
0.000000 0.714216 0.000000
0.000000 0.724510 0.000000
0.095343 0.727083 0.000000
0.325980 0.725551 0.000000
0.502451 0.717647 0.000000
0.674020 0.708333 0.000000
0.814338 0.697304 0.000000
0.938725 0.704228 0.000000
1.000000 0.720588 0.000000
0.000000 0.825490 0.000000
0.000000 0.826348 0.000000
0.026225 0.826471 0.000000
0.287132 0.827328 0.000000
0.458824 0.829412 0.000000
0.621078 0.828309 0.000000
0.776226 0.821324 0.000000
0.909926 0.808211 0.000000
0.985294 0.802941 0.000000
0.000000 0.929902 0.000000
0.000000 0.926961 0.000000
0.016912 0.927328 0.000000
0.274387 0.930392 0.000000
0.439461 0.927206 0.000000
0.580699 0.931373 0.000000
0.734804 0.930882 0.062255
0.877941 0.927390 0.000000
0.975980 0.892157 0.000000
0.000000 0.980392 0.000000
0.000000 0.980392 0.000000
0.110784 0.983333 0.000000
0.306373 0.984314 0.000000
0.445098 0.986275 0.000000
0.570588 0.988235 0.000000
0.698039 0.988235 0.078431
0.833333 0.992157 0.168627
0.964706 0.992157 0.070588
0.019608 0.019118 0.139216
0.147488 0.015686 0.143137
0.274142 0.019240 0.136275
0.426287 0.019424 0.131189
0.584804 0.023284 0.139461
0.732843 0.031066 0.143137
0.847549 0.036275 0.139216
0.955331 0.047978 0.139154
1.000000 0.058824 0.129412
0.003431 0.144118 0.141176
0.147518 0.143428 0.143911
0.288603 0.139767 0.140748
0.449020 0.135723 0.146975
0.598039 0.107169 0.147273
0.737416 0.036244 0.145259
0.853462 0.038741 0.146278
0.958831 0.050444 0.147610
1.000000 0.126900 0.139338
0.000000 0.310784 0.158088
0.125368 0.310616 0.139476
0.312255 0.299387 0.139583
0.481327 0.291529 0.151700
0.631189 0.279228 0.157414
0.762209 0.260601 0.157184
0.872089 0.251011 0.159865
0.971078 0.258946 0.163741
1.000000 0.286397 0.157230
0.000000 0.467279 0.148346
0.054887 0.473261 0.128998
0.261397 0.462255 0.112852
0.454726 0.443137 0.129174
0.624510 0.429565 0.128983
0.787883 0.431013 0.162255
0.895588 0.425184 0.180699
0.987094 0.424533 0.189216
1.000000 0.436581 0.187071
0.000000 0.605637 0.128676
0.000000 0.617433 0.115012
0.212500 0.613051 0.072672
0.399173 0.600735 0.096661
0.583456 0.581373 0.111152
0.730882 0.559712 0.097641
0.882659 0.575674 0.151777
0.985754 0.588450 0.197243
1.000000 0.598039 0.224020
0.000000 0.714706 0.120588
0.000000 0.725980 0.115012
0.162194 0.724678 0.064200
0.348169 0.721209 0.029726
0.518873 0.712500 0.095282
0.687255 0.699326 0.102635
0.823009 0.685784 0.040702
0.949165 0.702022 0.116199
1.000000 0.716483 0.188235
0.000000 0.824020 0.113113
0.000000 0.824832 0.101578
0.109436 0.824602 0.056495
0.310800 0.825015 0.008701
0.471569 0.823652 0.005576
0.633303 0.822503 0.092862
0.789522 0.817310 0.106832
0.916176 0.803048 0.043061
0.990196 0.800613 0.097917
0.000000 0.923958 0.150061
0.008938 0.926585 0.128110
0.082629 0.927282 0.073483
0.294118 0.927451 0.009046
0.451716 0.927880 0.008609
0.591238 0.928761 0.010846
0.743796 0.927282 0.188649
0.883931 0.926585 0.227451
0.976471 0.886336 0.171569
0.000000 0.980392 0.044608
0.000000 0.980392 0.009865
0.148529 0.982966 0.016299
0.315380 0.984007 0.006863
0.449020 0.984559 0.042892
0.572181 0.985907 0.127267
0.699387 0.988235 0.205392
0.836765 0.992096 0.257353
0.964706 0.992157 0.241667
0.038235 0.016667 0.249020
0.151103 0.016667 0.252819
0.262990 0.019608 0.263726
0.391789 0.024142 0.271201
0.562255 0.025490 0.265196
0.717770 0.028922 0.254902
0.839216 0.035539 0.251226
0.947549 0.047549 0.259804
1.000000 0.058824 0.254902
0.011642 0.136397 0.255515
0.142325 0.136382 0.260401
0.271599 0.137623 0.277757
0.406970 0.133640 0.278876
0.576532 0.101593 0.264951
0.718245 0.062669 0.256909
0.840931 0.111642 0.265564
0.951149 0.102068 0.264813
1.000000 0.150858 0.258701
0.025000 0.299755 0.292157
0.158180 0.299020 0.294485
0.298468 0.292953 0.293689
0.449357 0.287224 0.287960
0.592034 0.279657 0.280637
0.731893 0.273009 0.278156
0.854902 0.270037 0.278676
0.963848 0.274939 0.278646
1.000000 0.287255 0.271569
0.013480 0.450368 0.298039
0.144378 0.454779 0.302420
0.272917 0.451961 0.272794
0.447610 0.434436 0.272166
0.619363 0.435478 0.285723
0.766927 0.433824 0.299770
0.881005 0.431005 0.303799
0.976838 0.431618 0.302635
1.000000 0.435417 0.294240
0.000000 0.594118 0.293137
0.074694 0.604412 0.292708
0.225368 0.600858 0.242647
0.392402 0.593076 0.241667
0.580147 0.573775 0.256618
0.733578 0.559559 0.244669
0.878799 0.581250 0.296078
0.983762 0.599510 0.329228
1.000000 0.600980 0.335294
0.000000 0.709804 0.277941
0.023162 0.720144 0.277129
0.196599 0.718627 0.239430
0.349678 0.716958 0.203431
0.518873 0.706985 0.247120
0.687255 0.695037 0.255270
0.826930 0.686979 0.212163
0.953248 0.708150 0.273269
1.000000 0.724142 0.323162
0.000000 0.821324 0.263726
0.003860 0.824173 0.259314
0.153922 0.823775 0.231924
0.317310 0.824663 0.190012
0.477328 0.825368 0.187745
0.637286 0.822181 0.248928
0.790502 0.814951 0.261765
0.919638 0.803799 0.233058
0.993873 0.801961 0.274510
0.012868 0.924020 0.292157
0.017923 0.923208 0.280070
0.154565 0.923805 0.251777
0.305270 0.927374 0.195588
0.452451 0.927696 0.170527
0.591896 0.929105 0.182966
0.747181 0.927053 0.314216
0.887638 0.926700 0.347335
0.979534 0.885907 0.303922
0.000000 0.977451 0.266667
0.000000 0.977819 0.262745
0.157843 0.980637 0.258088
0.318627 0.983701 0.247549
0.446569 0.985784 0.236765
0.574510 0.988235 0.264216
0.699020 0.988235 0.308088
0.836275 0.991176 0.353064
0.964706 0.992157 0.353922
0.057353 0.019608 0.354902
0.155208 0.019608 0.356373
0.261642 0.021814 0.383211
0.392647 0.026900 0.402328
0.512500 0.033333 0.398775
0.662745 0.045588 0.395098
0.828064 0.039216 0.376348
0.946569 0.048836 0.358640
1.000000 0.058824 0.334314
0.045772 0.128431 0.363235
0.150222 0.132430 0.376877
0.268321 0.133027 0.400996
0.397059 0.127022 0.407001
0.517555 0.112500 0.402359
0.662737 0.042149 0.390188
0.829335 0.041222 0.376287
0.947572 0.049226 0.359949
1.000000 0.077696 0.353922
0.018750 0.290196 0.402451
0.145573 0.289890 0.406556
0.276532 0.287776 0.413480
0.408946 0.282184 0.418689
0.536397 0.274755 0.414400
0.705699 0.255392 0.392877
0.839277 0.245864 0.381924
0.949326 0.273422 0.387132
1.000000 0.294608 0.381495
0.037377 0.435723 0.420037
0.157108 0.439331 0.427451
0.293796 0.433364 0.426348
0.430392 0.427168 0.425061
0.582751 0.421354 0.416667
0.720527 0.419953 0.414154
0.851409 0.426900 0.418444
0.961098 0.430453 0.415571
1.000000 0.430331 0.403860
0.043627 0.581127 0.426716
0.147243 0.590931 0.436366
0.290380 0.585417 0.430086
0.404688 0.582629 0.399571
0.573284 0.567647 0.402819
0.730116 0.567678 0.414461
0.866176 0.590870 0.442892
0.968382 0.604994 0.462745
1.000000 0.602696 0.456127
0.052390 0.704412 0.421998
0.146875 0.711650 0.430767
0.271446 0.709023 0.417004
0.371653 0.709191 0.364645
0.519332 0.702206 0.376716
0.686703 0.691460 0.389706
0.829565 0.686719 0.353906
0.954910 0.720887 0.438044
1.000000 0.735723 0.462255
0.031127 0.817279 0.411275
0.043382 0.820588 0.410309
0.225000 0.819730 0.393627
0.342525 0.824081 0.343076
0.480944 0.823407 0.312010
0.638159 0.819730 0.379151
0.792892 0.814767 0.403370
0.923483 0.807307 0.371400
0.998897 0.808701 0.408333
0.023346 0.920711 0.427451
0.044072 0.922442 0.422135
0.238281 0.921431 0.411198
0.347059 0.926271 0.368873
0.456434 0.929320 0.300643
0.595895 0.928738 0.306419
0.751348 0.926961 0.434865
0.891399 0.926693 0.459842
0.979105 0.889216 0.419301
0.000000 0.977941 0.394118
0.000000 0.977941 0.391667
0.183824 0.979412 0.389216
0.330453 0.980392 0.381434
0.448284 0.984314 0.360784
0.572426 0.985233 0.372059
0.697181 0.986397 0.406373
0.837255 0.991973 0.449020
0.968627 0.992157 0.454412
0.082353 0.021569 0.474510
0.164951 0.023284 0.484069
0.273039 0.027451 0.497059
0.377206 0.032598 0.535784
0.509804 0.040196 0.532353
0.632108 0.054412 0.521078
0.760294 0.071569 0.523529
0.912010 0.072549 0.497794
1.000000 0.062745 0.460784
0.078431 0.123775 0.491422
0.162745 0.122059 0.496599
0.273407 0.119792 0.504779
0.379259 0.114798 0.540135
0.511029 0.103431 0.531740
0.633088 0.055239 0.520435
0.760233 0.070588 0.524387
0.911029 0.072733 0.499265
1.000000 0.064706 0.464951
0.010294 0.278922 0.513235
0.148897 0.283885 0.516789
0.268873 0.282966 0.523652
0.383211 0.278922 0.546875
0.519118 0.274020 0.538971
0.641176 0.271569 0.533824
0.778922 0.268382 0.531985
0.930637 0.242279 0.507476
1.000000 0.194608 0.469118
0.031863 0.426225 0.531863
0.145159 0.430576 0.537929
0.277941 0.426654 0.536458
0.401195 0.422580 0.546048
0.535294 0.416667 0.550490
0.663511 0.416176 0.551256
0.825858 0.404289 0.535478
0.952635 0.385478 0.514400
1.000000 0.379167 0.490441
0.058824 0.571569 0.549020
0.166544 0.577574 0.557843
0.297794 0.572549 0.555637
0.426471 0.567402 0.556863
0.557353 0.560784 0.554902
0.704044 0.561765 0.554902
0.832353 0.567647 0.556863
0.946201 0.581250 0.565441
1.000000 0.575490 0.552941
0.071324 0.698284 0.546324
0.183793 0.704473 0.556771
0.306863 0.699632 0.554412
0.423131 0.696599 0.551195
0.530882 0.695588 0.523407
0.683854 0.688726 0.533609
0.827941 0.699510 0.547365
0.949510 0.739614 0.604412
1.000000 0.744118 0.604902
0.059804 0.818137 0.549020
0.163113 0.817218 0.548713
0.303554 0.817647 0.551226
0.414154 0.817402 0.544179
0.508824 0.821569 0.494608
0.643382 0.817647 0.512990
0.792892 0.813480 0.548039
0.924020 0.813419 0.532414
1.000000 0.823529 0.562745
0.090196 0.922549 0.560294
0.211734 0.919363 0.560325
0.316483 0.919730 0.560294
0.422733 0.922641 0.553431
0.503186 0.925490 0.498407
0.617065 0.928738 0.472947
0.758824 0.928615 0.559988
0.895588 0.926961 0.582843
0.980882 0.894853 0.546324
0.005882 0.976471 0.523529
0.135049 0.976471 0.523529
0.267157 0.976961 0.525980
0.379167 0.979167 0.520343
0.479412 0.980392 0.505882
0.588235 0.984314 0.498775
0.705882 0.986275 0.523529
0.843137 0.990196 0.564951
0.976471 0.984314 0.574510
0.111275 0.027451 0.586275
0.175184 0.027451 0.588726
0.271569 0.031373 0.596569
0.375980 0.038297 0.610784
0.477696 0.047794 0.655392
0.626409 0.061213 0.656863
0.747917 0.079412 0.639706
0.866850 0.094792 0.635478
0.965686 0.100980 0.603431
0.110110 0.116176 0.591360
0.175414 0.118061 0.595427
0.271523 0.117080 0.601961
0.377275 0.111160 0.613542
0.480239 0.089491 0.656863
0.625735 0.060110 0.652765
0.748897 0.079243 0.639828
0.866644 0.095604 0.636987
0.966850 0.103431 0.608640
0.077941 0.275490 0.606863
0.165211 0.276471 0.610846
0.266667 0.276195 0.617004
0.377742 0.276471 0.627313
0.485846 0.274877 0.667157
0.634007 0.273422 0.663787
0.756893 0.275490 0.654105
0.872426 0.265901 0.647901
0.973407 0.230515 0.611765
0.053922 0.414277 0.624571
0.149770 0.416552 0.630898
0.272319 0.414966 0.632491
0.385723 0.418482 0.645933
0.504167 0.418137 0.677482
0.647917 0.419631 0.673552
0.771569 0.421829 0.673177
0.891659 0.414997 0.664400
0.995037 0.378002 0.614767
0.075980 0.560784 0.651471
0.177451 0.564859 0.657445
0.298591 0.561091 0.657904
0.416146 0.560018 0.660049
0.536152 0.559804 0.674387
0.665472 0.558824 0.680576
0.787745 0.556863 0.684314
0.930637 0.547151 0.667402
1.000000 0.520343 0.629412
0.078493 0.694118 0.667586
0.196998 0.694049 0.668068
0.314874 0.691115 0.669761
0.432330 0.689277 0.672120
0.552757 0.688726 0.676685
0.677941 0.686849 0.679963
0.812209 0.697917 0.690074
0.932904 0.707843 0.697549
1.000000 0.707904 0.690686
0.070588 0.816667 0.677451
0.219485 0.814828 0.677405
0.338021 0.814185 0.680300
0.449295 0.811091 0.680699
0.560049 0.810723 0.681127
0.664476 0.814645 0.665089
0.792433 0.812500 0.683364
0.927880 0.825797 0.692938
1.000000 0.846569 0.723162
0.175980 0.922733 0.680086
0.259582 0.920244 0.681212
0.361903 0.921415 0.683839
0.464897 0.921699 0.685800
0.564461 0.923131 0.683241
0.649020 0.928140 0.648476
0.766299 0.928416 0.668964
0.900023 0.926984 0.700329
0.982169 0.906556 0.682659
0.107843 0.976471 0.635784
0.226164 0.976471 0.641851
0.351471 0.976471 0.652574
0.460600 0.977941 0.660172
0.538235 0.979167 0.651716
0.622120 0.980944 0.636336
0.730515 0.984926 0.646078
0.853922 0.988419 0.684804
0.984314 0.976471 0.703922
0.137255 0.034314 0.676471
0.189828 0.035294 0.680392
0.274510 0.039216 0.688235
0.373897 0.048897 0.698897
0.478922 0.060784 0.734804
0.594608 0.073039 0.784191
0.745098 0.087255 0.780392
0.863725 0.106373 0.748039
0.952941 0.113725 0.721569
0.135784 0.113725 0.679779
0.189200 0.115074 0.684436
0.274142 0.115441 0.692034
0.375184 0.112331 0.703079
0.480147 0.088174 0.734988
0.596814 0.073790 0.783012
0.746201 0.086765 0.779289
0.862791 0.106434 0.748698
0.951348 0.117279 0.726103
0.112255 0.272794 0.696324
0.178983 0.274510 0.700000
0.271630 0.276164 0.707843
0.371569 0.278339 0.721324
0.485172 0.279657 0.746078
0.599694 0.278064 0.792371
0.749816 0.272365 0.787316
0.866207 0.271936 0.759743
0.953922 0.246324 0.732598
0.053922 0.402819 0.716912
0.168137 0.411075 0.725169
0.279933 0.415227 0.728676
0.381985 0.420297 0.742509
0.499449 0.423100 0.762745
0.614047 0.421752 0.801164
0.762132 0.420925 0.798101
0.877083 0.422365 0.775536
0.962132 0.403799 0.747426
0.079902 0.552451 0.746569
0.178431 0.556373 0.753248
0.289706 0.555147 0.754902
0.403860 0.555453 0.760110
0.519363 0.561029 0.775490
0.638235 0.561826 0.803860
0.775123 0.558946 0.800000
0.893811 0.561703 0.795466
0.974510 0.542157 0.764706
0.077941 0.690196 0.772059
0.193980 0.687485 0.771921
0.309314 0.687255 0.772580
0.427819 0.688128 0.776363
0.544608 0.687255 0.781801
0.665809 0.690349 0.794179
0.787163 0.692249 0.800184
0.905469 0.692249 0.804887
0.994118 0.673162 0.771691
0.139461 0.813726 0.788235
0.240564 0.812040 0.789216
0.349510 0.811765 0.789216
0.459896 0.809804 0.792770
0.572917 0.808946 0.797059
0.682843 0.809528 0.800980
0.794792 0.809559 0.803922
0.922120 0.823529 0.816330
0.995343 0.827451 0.818873
0.225858 0.926348 0.796446
0.295604 0.922932 0.796461
0.389001 0.922181 0.798591
0.487331 0.923039 0.801746
0.586765 0.923468 0.803002
0.687868 0.927083 0.803922
0.784099 0.928370 0.792892
0.904841 0.927068 0.810570
0.985662 0.923529 0.817157
0.161765 0.976471 0.752941
0.252451 0.976838 0.752941
0.363480 0.977941 0.758333
0.471691 0.977451 0.762868
0.581373 0.976961 0.770588
0.698407 0.984314 0.788235
0.773529 0.986029 0.778186
0.873162 0.989216 0.804044
0.988235 0.984314 0.831373
0.169118 0.043627 0.774020
0.210417 0.046630 0.774020
0.284681 0.051348 0.782721
0.375000 0.061458 0.796078
0.480392 0.072549 0.812990
0.582659 0.088235 0.860600
0.707230 0.102941 0.904412
0.872120 0.118137 0.906924
0.949020 0.125980 0.832843
0.163664 0.132598 0.776900
0.205645 0.131020 0.778745
0.284743 0.134191 0.787975
0.375345 0.135501 0.799671
0.482629 0.124479 0.814982
0.582767 0.087891 0.860869
0.708808 0.103370 0.906771
0.869164 0.115066 0.905009
0.951532 0.126409 0.836336
0.143995 0.279779 0.791667
0.198330 0.280760 0.797319
0.280025 0.283701 0.803585
0.372197 0.289354 0.817417
0.482537 0.292279 0.832843
0.588771 0.293260 0.873529
0.711244 0.284651 0.913327
0.869271 0.260738 0.908824
0.953554 0.245343 0.845221
0.127145 0.411949 0.814216
0.200084 0.415242 0.819853
0.291422 0.418290 0.826302
0.385225 0.423951 0.840196
0.490686 0.430729 0.856464
0.609184 0.433762 0.883464
0.724678 0.430530 0.919118
0.874893 0.419991 0.909475
0.955453 0.407047 0.854779
0.080637 0.546814 0.844853
0.182843 0.549020 0.846998
0.285478 0.547181 0.850613
0.413480 0.560784 0.858977
0.512868 0.564951 0.876103
0.632996 0.568873 0.892892
0.748836 0.568566 0.916912
0.887286 0.562469 0.911029
0.966422 0.550490 0.868137
0.150613 0.685601 0.873346
0.225651 0.685332 0.871362
0.324265 0.685738 0.873759
0.428240 0.686703 0.879710
0.536765 0.689614 0.885355
0.647296 0.696262 0.902627
0.773836 0.697089 0.915196
0.896262 0.692586 0.914070
0.975490 0.682843 0.880882
0.177206 0.807843 0.892647
0.257629 0.807843 0.892325
0.360478 0.808487 0.893934
0.463925 0.806173 0.893321
0.572426 0.807966 0.898100
0.679596 0.812163 0.904335
0.789308 0.811949 0.911458
0.906265 0.814890 0.918811
0.978799 0.808211 0.895956
0.246201 0.926471 0.904412
0.316192 0.923415 0.904350
0.406066 0.925444 0.907506
0.501088 0.924923 0.909237
0.601287 0.925490 0.913021
0.699655 0.927451 0.915196
0.800797 0.927436 0.916115
0.911772 0.926585 0.919125
0.992647 0.935233 0.931311
0.300000 0.984314 0.875980
0.356924 0.984314 0.879902
0.440686 0.984314 0.883333
0.531679 0.984314 0.888235
0.628431 0.984314 0.893873
0.726654 0.984498 0.899694
0.834436 0.991789 0.916176
0.938787 0.996569 0.939277
1.000000 1.000000 0.970098
0.192157 0.054902 0.850980
0.226471 0.058824 0.850980
0.292157 0.062745 0.858824
0.375980 0.073039 0.873039
0.474510 0.082353 0.888235
0.582353 0.098039 0.915196
0.678431 0.114706 0.970588
0.819118 0.129902 1.000000
0.960784 0.133333 0.968627
0.189216 0.138235 0.850980
0.222549 0.136765 0.854902
0.289216 0.138235 0.862255
0.373039 0.135968 0.874510
0.475000 0.123775 0.889951
0.585784 0.099020 0.916176
0.679044 0.117279 0.969975
0.818934 0.129779 0.999510
0.959804 0.137255 0.974510
0.175490 0.277451 0.868627
0.213113 0.278431 0.870588
0.286520 0.281373 0.877451
0.368137 0.287132 0.891667
0.468627 0.289706 0.906863
0.584191 0.288235 0.928799
0.675490 0.273775 0.975735
0.815441 0.224877 0.997059
0.955882 0.155882 0.972549
0.187745 0.409804 0.892647
0.227267 0.412255 0.895098
0.298529 0.414093 0.902328
0.379902 0.420098 0.916176
0.469853 0.422059 0.931127
0.586275 0.420650 0.946569
0.680147 0.416912 0.985539
0.825980 0.401164 0.996078
0.956863 0.376471 0.974510
0.196078 0.541176 0.919608
0.269363 0.552451 0.925245
0.336275 0.554412 0.927451
0.410049 0.553676 0.935294
0.486275 0.554902 0.950980
0.590196 0.556863 0.965441
0.704902 0.552451 0.986765
0.843382 0.546569 0.997794
0.962745 0.531373 0.974510
0.202941 0.662255 0.942647
0.252941 0.662377 0.942953
0.332353 0.665809 0.946569
0.425980 0.672549 0.954412
0.534314 0.688235 0.962745
0.608824 0.685784 0.977941
0.742034 0.682230 0.984681
0.863235 0.677451 0.996078
0.973529 0.673039 0.982353
0.255882 0.783333 0.964706
0.302083 0.784314 0.964706
0.375980 0.784314 0.964951
0.465196 0.787255 0.968627
0.566176 0.791667 0.972549
0.673652 0.797181 0.976471
0.772304 0.803676 0.985784
0.884926 0.799877 0.996936
0.983333 0.801961 0.988235
0.306863 0.911765 0.980882
0.359375 0.911765 0.980882
0.434559 0.910784 0.980882
0.518321 0.911765 0.984314
0.612255 0.912255 0.984804
0.710784 0.913542 0.988235
0.813603 0.917034 0.988603
0.920588 0.930453 0.992218
0.993137 0.934804 0.995098
0.470588 0.992157 0.964706
0.505392 0.992647 0.968627
0.559804 0.996078 0.972549
0.624510 0.993627 0.974020
0.701961 0.992157 0.976471
0.792647 0.996078 0.980392
0.894118 0.997059 0.989216
0.981373 1.000000 0.996078
1.000000 1.000000 1.000000
