luts/SG10.cube
TITLE "sample15"
LUT_3D_SIZE 5
DOMAIN_MIN 0.0 0.0 0.0
DOMAIN_MAX 1.0 1.0 1.0
0.015686 0.015686 0.015686
0.203922 0.015686 0.015686
0.531373 0.021569 0.021569
0.844118 0.036275 0.036275
1.000000 0.176471 0.054902
0.000000 0.307843 0.000000
0.307108 0.301226 0.000000
0.634804 0.267647 0.000980
0.890441 0.258088 0.019853
1.000000 0.351961 0.070588
0.000000 0.621569 0.000000
0.250000 0.649020 0.000000
0.630392 0.626471 0.000000
0.925000 0.622549 0.000000
1.000000 0.637255 0.156863
0.009804 0.853922 0.000000
0.194118 0.859804 0.000000
0.527451 0.866176 0.000000
0.833088 0.856373 0.033333
1.000000 0.820588 0.000000
0.000000 0.984314 0.141176
0.258824 0.987255 0.118627
0.500000 0.990196 0.127451
0.756863 0.992157 0.248039
0.992157 0.933333 0.286275
0.027451 0.016667 0.138235
0.197059 0.016667 0.180637
0.497549 0.022059 0.208333
0.810784 0.033333 0.223775
1.000000 0.115686 0.259804
0.055882 0.279902 0.259069
0.290257 0.271262 0.254351
0.572304 0.264216 0.245956
0.861458 0.264154 0.254105
1.000000 0.327206 0.282108
0.050490 0.614216 0.273529
0.274632 0.634314 0.219975
0.635049 0.602696 0.242647
0.928922 0.625980 0.306863
1.000000 0.627451 0.346078
0.049510 0.855637 0.264461
0.276348 0.865686 0.236029
0.550123 0.863971 0.218137
0.846569 0.850919 0.298529
1.000000 0.820588 0.285294
0.128431 0.981373 0.330392
0.309069 0.984314 0.326471
0.509314 0.988235 0.302941
0.763971 0.992157 0.374755
0.988235 0.933333 0.394118
0.080392 0.017647 0.358824
0.230392 0.021569 0.392647
0.448039 0.031373 0.430392
0.763726 0.065196 0.478922
1.000000 0.062745 0.456863
0.052451 0.251961 0.444608
0.258824 0.259436 0.463358
0.496814 0.257843 0.478922
0.814706 0.264216 0.501103
1.000000 0.260294 0.474020
0.120588 0.589216 0.541176
0.347794 0.600000 0.559559
0.614706 0.591176 0.554412
0.885539 0.625980 0.592402
1.000000 0.609804 0.568627
0.276471 0.850000 0.576471
0.420466 0.853309 0.584926
0.581127 0.858578 0.514706
0.847917 0.848162 0.578922
1.000000 0.836765 0.564216
0.307843 0.978431 0.560784
0.401961 0.980392 0.561275
0.541176 0.983333 0.532353
0.794608 0.988725 0.581863
0.988235 0.933333 0.601961
0.105882 0.027451 0.587255
0.247059 0.031373 0.602941
0.459314 0.053431 0.686765
0.765686 0.091176 0.741912
0.972549 0.117647 0.708824
0.092402 0.245588 0.638971
0.259314 0.250000 0.657353
0.484314 0.268627 0.726103
0.787500 0.289032 0.766667
0.972794 0.313971 0.722549
0.145588 0.573039 0.746569
0.347549 0.583824 0.761397
0.579902 0.600490 0.795098
0.828064 0.598039 0.806127
0.993137 0.579412 0.755392
0.311275 0.848775 0.802941
0.455147 0.849020 0.809988
0.645221 0.849142 0.816912
0.842892 0.843321 0.815686
0.999020 0.863971 0.841422
0.409804 0.979412 0.763726
0.526226 0.980392 0.780147
0.700980 0.980882 0.816176
0.840196 0.989706 0.820588
0.988235 0.965686 0.879412
0.188235 0.054902 0.843137
0.299020 0.062745 0.854902
0.496078 0.086275 0.892157
0.711765 0.122549 0.985294
0.984314 0.137255 0.933333
0.180392 0.284314 0.866667
0.300245 0.293137 0.878676
0.495588 0.309804 0.913725
0.706618 0.294118 0.991176
0.979412 0.227451 0.942157
0.223529 0.562745 0.925490
0.375980 0.585784 0.936765
0.514706 0.588235 0.960784
0.748529 0.579902 0.992157
0.986275 0.564706 0.952941
0.317647 0.809804 0.969608
0.431618 0.810049 0.969853
0.616667 0.817647 0.975490
0.814216 0.834069 0.988971
0.992157 0.837255 0.972549
0.588235 0.988235 0.960784
0.657843 0.992157 0.969608
0.782353 0.992157 0.976471
0.944118 0.997059 0.993137
1.000000 1.000000 1.000000
