luts/SG10.cube
TITLE "sample15"
LUT_3D_SIZE 33
DOMAIN_MIN 0.0 0.0 0.0
DOMAIN_MAX 1.0 1.0 1.0
0.015686 0.015686 0.015686
0.019485 0.019485 0.019485
0.026961 0.019363 0.019363
0.064461 0.016054 0.016054
0.092647 0.015686 0.015686
0.115809 0.015686 0.015686
0.142892 0.015686 0.015686
0.173897 0.019608 0.019608
0.203922 0.015686 0.015686
0.237623 0.018505 0.018505
0.272304 0.015686 0.015686
0.310907 0.018260 0.018260
0.347059 0.017157 0.017157
0.394363 0.019608 0.019608
0.440686 0.019608 0.019608
0.484926 0.019608 0.019608
0.531373 0.021569 0.021569
0.579657 0.023529 0.023529
0.620343 0.023529 0.023529
0.662868 0.025123 0.025123
0.702941 0.028922 0.028922
0.740074 0.028799 0.031373
0.781373 0.035294 0.035294
0.815074 0.035294 0.035294
0.844118 0.036275 0.036275
0.881863 0.040074 0.040074
0.913480 0.043873 0.043873
0.947549 0.047672 0.047672
0.974020 0.050980 0.051471
0.996446 0.055270 0.055270
1.000000 0.058824 0.059069
1.000000 0.061029 0.058946
1.000000 0.176471 0.054902
0.015686 0.019485 0.015686
0.015686 0.027087 0.019370
0.037760 0.027206 0.019248
0.076815 0.027095 0.016042
0.096569 0.019975 0.015686
0.119730 0.019608 0.015809
0.146714 0.015709 0.015709
0.173775 0.019485 0.019485
0.200000 0.015778 0.015778
0.233735 0.018539 0.018539
0.265771 0.015771 0.015771
0.303106 0.018302 0.018302
0.341667 0.017111 0.017111
0.386642 0.019608 0.019608
0.432897 0.019539 0.019608
0.477206 0.019665 0.019665
0.523591 0.021507 0.021507
0.571936 0.023529 0.023587
0.614285 0.023529 0.023529
0.655147 0.025195 0.025195
0.699050 0.028876 0.028876
0.736232 0.028879 0.028879
0.774793 0.035210 0.035210
0.812167 0.035206 0.035294
0.844118 0.035325 0.036275
0.878895 0.040047 0.040142
0.912868 0.043949 0.043972
0.947549 0.047672 0.047672
0.970695 0.051103 0.051103
0.996446 0.055258 0.055258
1.000000 0.058824 0.058831
1.000000 0.061271 0.059061
1.000000 0.184314 0.055025
0.004412 0.042157 0.015686
0.015449 0.053447 0.015686
0.045129 0.053676 0.015686
0.077305 0.050712 0.015686
0.100490 0.042862 0.015686
0.123652 0.034804 0.015931
0.146860 0.027497 0.015732
0.173652 0.023843 0.019363
0.200919 0.016789 0.015870
0.233770 0.018574 0.018574
0.265855 0.015855 0.015855
0.303064 0.018344 0.018344
0.345496 0.017065 0.017065
0.390296 0.019608 0.019608
0.436627 0.019470 0.019608
0.481005 0.019723 0.019723
0.525368 0.021446 0.021446
0.571814 0.021576 0.023529
0.612500 0.023529 0.023529
0.652842 0.025268 0.025268
0.695006 0.028830 0.028830
0.732391 0.027696 0.028960
0.774586 0.035126 0.035126
0.812079 0.035118 0.035294
0.844118 0.036275 0.036275
0.881809 0.040020 0.040211
0.912944 0.044026 0.044072
0.946975 0.047672 0.047672
0.970343 0.051011 0.051225
0.993114 0.055247 0.055247
1.000000 0.058824 0.058824
1.000000 0.065188 0.059061
1.000000 0.188235 0.055147
0.000000 0.069853 0.012132
0.014974 0.077217 0.015219
0.045810 0.077106 0.015441
0.076961 0.077363 0.015353
0.100046 0.073575 0.012132
0.123709 0.069175 0.015131
0.150735 0.061343 0.012799
0.180515 0.057475 0.015686
0.207751 0.050031 0.015962
0.241280 0.046324 0.016054
0.273162 0.034934 0.015939
0.312871 0.024383 0.016054
0.355285 0.017019 0.017019
0.398066 0.019608 0.019608
0.442034 0.019401 0.019608
0.481005 0.019608 0.019780
0.525306 0.021385 0.021385
0.571814 0.023529 0.023529
0.612500 0.023529 0.023529
0.651471 0.025341 0.025341
0.694960 0.028784 0.028784
0.736152 0.027819 0.029040
0.778424 0.035041 0.035041
0.813254 0.035030 0.035294
0.847151 0.036275 0.036275
0.881863 0.039993 0.040280
0.913710 0.044102 0.044171
0.946936 0.047672 0.047672
0.970420 0.051026 0.051348
0.992892 0.055235 0.055235
1.000000 0.058824 0.058824
1.000000 0.105427 0.058824
1.000000 0.195711 0.055270
0.000000 0.116667 0.011765
0.031893 0.120481 0.011673
0.056556 0.117157 0.008548
0.086811 0.117203 0.008333
0.120650 0.121078 0.011765
0.150444 0.116743 0.011719
0.187684 0.112439 0.011857
0.222059 0.108441 0.011765
0.252941 0.105270 0.012132
0.284314 0.099004 0.012255
0.327114 0.097059 0.014614
0.366789 0.090931 0.013434
0.407537 0.083211 0.014400
0.445879 0.074066 0.016176
0.484589 0.061857 0.017678
0.522181 0.040211 0.021661
0.561029 0.024755 0.021324
0.603799 0.023529 0.023529
0.643903 0.025031 0.025031
0.681005 0.025414 0.027451
0.719608 0.029596 0.030882
0.755101 0.031204 0.032384
0.791238 0.034620 0.034957
0.823667 0.034942 0.038373
0.854902 0.038848 0.038848
0.886167 0.039966 0.039966
0.920098 0.043781 0.046569
0.954289 0.050077 0.050490
0.974020 0.050980 0.051409
0.996170 0.094730 0.054412
0.999081 0.138542 0.054718
1.000000 0.185968 0.054902
1.000000 0.227451 0.051471
0.000000 0.142647 0.008456
0.011991 0.154186 0.007759
0.042563 0.154412 0.004741
0.077206 0.154967 0.004534
0.112301 0.151517 0.007843
0.146052 0.151103 0.007422
0.181993 0.146691 0.007843
0.216655 0.143371 0.007843
0.257384 0.142188 0.010478
0.295833 0.138725 0.008456
0.337745 0.137691 0.010731
0.376348 0.133789 0.011765
0.415564 0.129887 0.010907
0.454167 0.123407 0.012377
0.492770 0.113825 0.014170
0.531047 0.107353 0.017770
0.570588 0.099020 0.018260
0.614258 0.090357 0.020221
0.651103 0.080124 0.021936
0.689706 0.067777 0.025486
0.726838 0.046890 0.029519
0.760084 0.032510 0.032912
0.796446 0.035294 0.035294
0.827941 0.038603 0.039043
0.859804 0.038909 0.039369
0.893149 0.040074 0.042659
0.927198 0.046561 0.047059
0.960976 0.093271 0.049946
0.981863 0.127711 0.048208
1.000000 0.158578 0.051038
1.000000 0.186190 0.050980
1.000000 0.222181 0.051593
1.000000 0.257598 0.048284
0.000000 0.177451 0.003922
0.000712 0.188994 0.003822
0.027941 0.189262 0.000735
0.066299 0.189882 0.000735
0.104565 0.189216 0.001134
0.142149 0.188595 0.003424
0.187745 0.188480 0.001333
0.225613 0.191092 0.001432
0.264154 0.184559 0.004105
0.307108 0.182269 0.001471
0.351961 0.183824 0.003922
0.391789 0.180155 0.004174
0.432843 0.176716 0.007108
0.471025 0.173652 0.008578
0.509727 0.168061 0.009972
0.546201 0.163825 0.010271
0.587132 0.157966 0.012500
0.626226 0.154144 0.016422
0.664139 0.149602 0.017816
0.701049 0.144309 0.019907
0.737745 0.143137 0.023529
0.770941 0.139698 0.025360
0.806357 0.141176 0.028186
0.838764 0.142195 0.031901
0.869485 0.142034 0.032292
0.901432 0.147342 0.036152
0.934804 0.159559 0.039951
0.965188 0.179159 0.043252
0.985784 0.192647 0.043873
1.000000 0.208824 0.047128
1.000000 0.224556 0.047059
1.000000 0.256273 0.047794
1.000000 0.287990 0.044608
0.000000 0.207475 0.000000
0.000000 0.222086 0.000000
0.009819 0.226225 0.000000
0.058046 0.227083 0.000000
0.096829 0.227466 0.000000
0.141077 0.229668 0.000000
0.187048 0.227658 0.000000
0.229477 0.230147 0.000000
0.268107 0.228952 0.000000
0.307970 0.224023 0.000000
0.356495 0.222572 0.000000
0.402256 0.222304 0.000000
0.448284 0.221155 0.000536
0.486539 0.216563 0.000858
0.525237 0.212737 0.002681
0.561642 0.210539 0.006407
0.600674 0.205086 0.006740
0.640931 0.200858 0.008701
0.675728 0.196193 0.013480
0.712132 0.192685 0.013867
0.746814 0.192846 0.016544
0.782058 0.192547 0.018455
0.817915 0.193995 0.023529
0.850371 0.197917 0.027451
0.880852 0.198346 0.027880
0.911707 0.202884 0.031560
0.942525 0.211275 0.035991
0.972193 0.225636 0.039216
0.989706 0.232736 0.040074
1.000000 0.244363 0.040441
1.000000 0.259000 0.043137
1.000000 0.284164 0.043995
1.000000 0.315074 0.040931
0.000000 0.307843 0.000000
0.000000 0.314553 0.000000
0.013787 0.312929 0.000000
0.072825 0.313634 0.000000
0.121691 0.312745 0.000000
0.164124 0.309957 0.000000
0.218199 0.306863 0.000000
0.261734 0.301624 0.000000
0.307108 0.301226 0.000000
0.348254 0.296201 0.000000
0.385784 0.288174 0.000000
0.432077 0.284314 0.000000
0.479412 0.282475 0.000000
0.523407 0.279626 0.000000
0.560723 0.276164 0.000000
0.594608 0.270987 0.000000
0.634804 0.267647 0.000980
0.672059 0.263848 0.001440
0.707598 0.260784 0.003248
0.740686 0.257843 0.005300
0.772549 0.253922 0.008824
0.803401 0.253891 0.011734
0.832353 0.252941 0.012745
0.862408 0.256036 0.016667
0.890441 0.258088 0.019853
0.921078 0.265564 0.024387
0.947304 0.270159 0.025061
0.976409 0.283946 0.030913
0.994363 0.295588 0.032353
0.998223 0.303676 0.032353
1.000000 0.315257 0.032353
1.000000 0.331740 0.033425
1.000000 0.351961 0.070588
0.000000 0.335662 0.000000
0.000000 0.375368 0.000000
0.000000 0.383755 0.000000
0.000000 0.382721 0.000000
0.071109 0.378186 0.000000
0.137550 0.368750 0.000000
0.195956 0.363320 0.000000
0.243876 0.356127 0.000000
0.296477 0.348683 0.000000
0.340686 0.342582 0.000000
0.382866 0.339583 0.000000
0.421814 0.328443 0.000000
0.467479 0.323897 0.000000
0.517034 0.323242 0.000000
0.565426 0.320458 0.000000
0.607993 0.319390 0.000000
0.649326 0.316912 0.000000
0.689924 0.314434 0.000000
0.726226 0.311650 0.000000
0.758211 0.307763 0.000000
0.791268 0.306051 0.001103
0.820477 0.301838 0.002953
0.847350 0.301961 0.006664
0.876233 0.302394 0.011282
0.904779 0.304994 0.014675
0.935421 0.311029 0.017406
0.961887 0.316789 0.018421
0.988530 0.330810 0.023089
1.000000 0.339108 0.023667
1.000000 0.347794 0.024632
1.000000 0.355584 0.024632
1.000000 0.368593 0.025827
1.000000 0.391667 0.102574
0.000000 0.363725 0.000000
0.000000 0.406250 0.000000
0.000000 0.418551 0.000000
0.000000 0.417517 0.000000
0.048131 0.412898 0.000000
0.123039 0.405829 0.000000
0.184314 0.401716 0.000000
0.231740 0.391766 0.000000
0.282537 0.387010 0.000000
0.331863 0.380047 0.000000
0.379657 0.377803 0.000000
0.422480 0.373460 0.000000
0.463787 0.367218 0.000000
0.508816 0.361275 0.000000
0.561075 0.361320 0.000000
0.611849 0.361849 0.000000
0.660907 0.363235 0.000000
0.702941 0.362783 0.000000
0.739614 0.360738 0.000000
0.772549 0.355760 0.000000
0.803431 0.352420 0.000000
0.832039 0.349089 0.000000
0.860049 0.349127 0.000000
0.890173 0.351448 0.001570
0.916422 0.353431 0.005147
0.946178 0.357353 0.009069
0.969608 0.361504 0.010294
0.994623 0.373231 0.012569
1.000000 0.377604 0.013143
1.000000 0.383586 0.014354
1.000000 0.390273 0.017509
1.000000 0.402122 0.056610
1.000000 0.422549 0.116422
0.000000 0.397181 0.000000
0.000000 0.440931 0.000000
0.000000 0.453347 0.000000
0.000000 0.453431 0.000000
0.016192 0.447472 0.000000
0.106583 0.443103 0.000000
0.175858 0.440319 0.000000
0.221741 0.433038 0.000000
0.275827 0.432108 0.000000
0.326716 0.425111 0.000000
0.379657 0.422863 0.000000
0.425437 0.418478 0.000000
0.470067 0.416406 0.000000
0.509379 0.408889 0.000000
0.554044 0.401103 0.000000
0.604799 0.403818 0.000000
0.660172 0.406311 0.000000
0.709153 0.408314 0.000000
0.749165 0.407008 0.000000
0.782296 0.402083 0.000000
0.814491 0.399755 0.000000
0.844485 0.397522 0.000000
0.872917 0.399334 0.000000
0.902953 0.399755 0.000000
0.929075 0.403339 0.000000
0.954167 0.404239 0.000000
0.976846 0.407851 0.001348
0.998863 0.415039 0.018417
1.000000 0.416958 0.039629
1.000000 0.420711 0.052083
1.000000 0.424877 0.058004
1.000000 0.434149 0.081863
1.000000 0.453431 0.128064
0.000000 0.485784 0.000000
0.000000 0.503156 0.000000
0.000000 0.509130 0.000000
0.013327 0.506863 0.000000
0.060968 0.504412 0.000000
0.128615 0.500613 0.000000
0.191115 0.498529 0.000000
0.236075 0.492693 0.000000
0.286275 0.491054 0.000000
0.335049 0.485417 0.000000
0.383395 0.478707 0.000000
0.433594 0.473560 0.000000
0.476961 0.468566 0.000000
0.517034 0.463725 0.000000
0.556710 0.457200 0.000000
0.597181 0.449877 0.000000
0.651471 0.450735 0.000000
0.704136 0.456342 0.000000
0.751164 0.456311 0.000000
0.789721 0.456281 0.000000
0.822610 0.455944 0.000000
0.851593 0.453569 0.000000
0.879442 0.454412 0.000000
0.906863 0.453064 0.000000
0.932843 0.457353 0.000613
0.957154 0.457889 0.025812
0.979167 0.463725 0.055300
0.996048 0.468030 0.069776
1.000000 0.470588 0.081495
1.000000 0.475858 0.088465
1.000000 0.480974 0.099602
1.000000 0.486320 0.097411
1.000000 0.490196 0.097059
0.000000 0.505760 0.000000
0.000000 0.563726 0.000000
0.000000 0.581518 0.000000
0.000000 0.578309 0.000000
0.000000 0.569485 0.000000
0.033192 0.561275 0.000000
0.142525 0.555147 0.000000
0.205025 0.547078 0.000000
0.258058 0.539859 0.000000
0.308701 0.534314 0.000000
0.363235 0.527688 0.000000
0.413905 0.519420 0.000000
0.465809 0.513603 0.000000
0.512220 0.508299 0.000000
0.556127 0.503554 0.000000
0.594730 0.499399 0.000000
0.638848 0.493199 0.000000
0.690564 0.492758 0.000000
0.741582 0.497304 0.000000
0.785593 0.499809 0.000000
0.823162 0.499510 0.000000
0.856618 0.501038 0.000000
0.888350 0.501838 0.000000
0.915361 0.502493 0.000000
0.941176 0.502819 0.000000
0.966931 0.506269 0.040790
0.988848 0.510715 0.086887
1.000000 0.516544 0.117892
1.000000 0.521446 0.136642
1.000000 0.525149 0.151497
1.000000 0.521301 0.147426
1.000000 0.523162 0.149854
1.000000 0.530882 0.156863
0.000000 0.540441 0.000000
0.000000 0.592471 0.000000
0.000000 0.610187 0.000000
0.000000 0.610539 0.000000
0.000000 0.601471 0.000000
0.004343 0.593482 0.000000
0.126149 0.586029 0.000000
0.193130 0.580132 0.000000
0.248039 0.574449 0.000000
0.299265 0.570581 0.000000
0.350536 0.566713 0.000000
0.404044 0.561719 0.000000
0.456373 0.555882 0.000000
0.508908 0.552083 0.000000
0.555377 0.548284 0.000000
0.597848 0.545397 0.000000
0.639216 0.539828 0.000000
0.676662 0.529848 0.000000
0.722289 0.528186 0.000000
0.767846 0.531288 0.000000
0.810784 0.534314 0.000000
0.848039 0.535761 0.000000
0.883532 0.538925 0.000000
0.915449 0.542777 0.000000
0.944118 0.545343 0.002941
0.967279 0.548767 0.053929
0.990119 0.554412 0.091100
1.000000 0.558946 0.125613
1.000000 0.561550 0.145588
1.000000 0.557636 0.154496
1.000000 0.553922 0.151471
1.000000 0.556181 0.157407
1.000000 0.559559 0.160784
0.000000 0.573039 0.000000
0.000000 0.623349 0.000000
0.000000 0.637263 0.000000
0.000000 0.637623 0.000000
0.000000 0.630515 0.000000
0.000000 0.624345 0.000000
0.112109 0.620833 0.000000
0.184647 0.616632 0.000000
0.243658 0.612500 0.000000
0.294826 0.611179 0.000000
0.346852 0.610417 0.000000
0.399039 0.605289 0.000000
0.450368 0.600735 0.000000
0.503175 0.596324 0.000000
0.550123 0.592525 0.000000
0.595707 0.586887 0.000000
0.638174 0.582966 0.000000
0.674996 0.574506 0.000000
0.709260 0.566368 0.000000
0.749743 0.562121 0.000000
0.792892 0.565196 0.000000
0.833946 0.569118 0.000000
0.875896 0.574265 0.000000
0.910635 0.581468 0.000000
0.940656 0.583425 0.000460
0.965196 0.587745 0.040862
0.989706 0.591544 0.087523
1.000000 0.598652 0.123369
1.000000 0.593995 0.139369
1.000000 0.588726 0.147304
1.000000 0.586887 0.153186
1.000000 0.588783 0.160907
1.000000 0.592647 0.166544
0.000000 0.621569 0.000000
0.000000 0.644730 0.000000
0.000000 0.652819 0.000000
0.000000 0.656863 0.000000
0.010294 0.654657 0.000000
0.048223 0.654596 0.000000
0.133824 0.653309 0.000000
0.197488 0.650980 0.000000
0.250000 0.649020 0.000000
0.297855 0.650429 0.000000
0.345588 0.650980 0.000000
0.391238 0.645772 0.000000
0.440196 0.641912 0.000000
0.490809 0.640012 0.000000
0.538726 0.636152 0.000000
0.585968 0.630331 0.000000
0.630392 0.626471 0.000000
0.671936 0.622610 0.000000
0.709681 0.618995 0.000000
0.741667 0.610172 0.000000
0.777941 0.606618 0.000000
0.817218 0.608517 0.000000
0.855147 0.614338 0.000000
0.892647 0.620159 0.000000
0.925000 0.622549 0.000000
0.951593 0.627880 0.008211
0.974387 0.631740 0.042034
0.995037 0.633333 0.088419
1.000000 0.636765 0.116912
1.000000 0.635478 0.133885
1.000000 0.633333 0.143382
1.000000 0.633395 0.151103
1.000000 0.637255 0.156863
0.000000 0.652328 0.000000
0.000000 0.685352 0.000000
0.000000 0.697304 0.000000
0.000000 0.699805 0.000000
0.000000 0.693627 0.000000
0.000000 0.691789 0.000000
0.038235 0.687868 0.000000
0.138147 0.684804 0.000000
0.205545 0.683946 0.000000
0.264365 0.681863 0.000000
0.317080 0.680025 0.000000
0.364706 0.680025 0.000000
0.414951 0.677574 0.000000
0.465541 0.674866 0.000000
0.517647 0.674931 0.000000
0.566793 0.672067 0.000000
0.618811 0.668137 0.000000
0.665200 0.666176 0.000000
0.705691 0.664200 0.000000
0.744619 0.661409 0.000000
0.776593 0.654779 0.000000
0.808824 0.650490 0.000000
0.844937 0.650490 0.000000
0.882177 0.654998 0.000000
0.917433 0.660938 0.000000
0.945887 0.663936 0.000000
0.970343 0.666766 0.022250
0.991257 0.669730 0.087910
1.000000 0.668260 0.119608
1.000000 0.666399 0.134536
1.000000 0.668260 0.147672
1.000000 0.668260 0.155392
1.000000 0.672181 0.165196
0.000000 0.685294 0.000000
0.000000 0.714514 0.000000
0.000000 0.722656 0.000000
0.000000 0.725161 0.000000
0.000000 0.718873 0.000000
0.000000 0.714951 0.000000
0.029075 0.711029 0.000000
0.130882 0.711029 0.000000
0.199571 0.708395 0.000000
0.257843 0.708203 0.000000
0.309069 0.708134 0.000000
0.358824 0.708234 0.000000
0.405147 0.707445 0.000000
0.454695 0.706817 0.000000
0.504887 0.706832 0.000000
0.553133 0.704795 0.000000
0.604412 0.699877 0.000000
0.653623 0.698775 0.000000
0.694102 0.695067 0.000000
0.733050 0.692241 0.000000
0.769516 0.689461 0.000000
0.801471 0.684536 0.000000
0.833042 0.679167 0.000000
0.866062 0.680277 0.000000
0.899081 0.681863 0.000000
0.930377 0.683578 0.000000
0.955637 0.687914 0.000000
0.979634 0.689706 0.021477
0.995067 0.689920 0.073438
1.000000 0.689499 0.106043
1.000000 0.691314 0.126716
1.000000 0.689760 0.132108
1.000000 0.695343 0.136520
0.000000 0.712255 0.000000
0.000000 0.740051 0.000000
0.000000 0.748139 0.000000
0.000000 0.748434 0.000000
0.000000 0.742233 0.000000
0.000000 0.739821 0.000000
0.026785 0.736221 0.000000
0.128167 0.736642 0.000000
0.197273 0.736979 0.000000
0.254370 0.737377 0.000000
0.309069 0.738978 0.000000
0.356070 0.739706 0.000000
0.400490 0.739706 0.000000
0.447672 0.739706 0.000000
0.497220 0.739009 0.000000
0.543394 0.735685 0.000000
0.589767 0.731863 0.000000
0.639216 0.727941 0.000000
0.681817 0.725934 0.000000
0.721481 0.724020 0.000000
0.758701 0.721553 0.000000
0.794363 0.717705 0.000000
0.823415 0.709429 0.000000
0.853799 0.705067 0.000000
0.884865 0.703401 0.000000
0.915215 0.704573 0.000000
0.940196 0.707177 0.000000
0.966916 0.709069 0.000000
0.987623 0.710662 0.002619
0.998556 0.709218 0.038875
1.000000 0.710562 0.081104
1.000000 0.710662 0.095466
1.000000 0.714583 0.097794
0.000000 0.743137 0.000000
0.000000 0.758563 0.000000
0.000000 0.762745 0.000000
0.000000 0.766667 0.000000
0.018934 0.764706 0.000000
0.041039 0.767417 0.000000
0.082813 0.765196 0.000000
0.157736 0.766667 0.000000
0.216912 0.767770 0.000000
0.266146 0.768137 0.000000
0.317341 0.772304 0.000000
0.361535 0.771415 0.000000
0.403064 0.771630 0.000000
0.445083 0.772549 0.000000
0.489216 0.771814 0.000000
0.535539 0.770879 0.000000
0.581373 0.769118 0.000000
0.625735 0.765196 0.000000
0.668964 0.762102 0.000000
0.709421 0.760279 0.000000
0.745098 0.755882 0.000000
0.779902 0.750475 0.000000
0.810784 0.745129 0.000000
0.842356 0.740196 0.000000
0.870711 0.736275 0.000000
0.897181 0.731097 0.000000
0.922794 0.732322 0.000000
0.948407 0.734314 0.000000
0.971078 0.734620 0.000000
0.986520 0.736765 0.000000
1.000000 0.736918 0.000000
1.000000 0.739262 0.010524
1.000000 0.743137 0.020588
0.000000 0.781863 0.000000
0.000000 0.793505 0.000000
0.000000 0.799962 0.000000
0.000000 0.800249 0.000000
0.000000 0.800291 0.000000
0.000000 0.797549 0.000000
0.000000 0.796201 0.000000
0.106790 0.796764 0.000000
0.180055 0.799786 0.000000
0.237266 0.798775 0.000000
0.293382 0.800123 0.000000
0.342157 0.801811 0.000000
0.388986 0.803202 0.000000
0.431430 0.804772 0.000000
0.475000 0.805170 0.000000
0.520975 0.805411 0.000000
0.570466 0.805331 0.000000
0.614828 0.803328 0.000000
0.656962 0.800980 0.000000
0.698587 0.797729 0.000000
0.737485 0.793382 0.000000
0.774360 0.790931 0.000000
0.809122 0.786206 0.000000
0.840931 0.780136 0.000000
0.871814 0.773346 0.000000
0.896201 0.767892 0.000000
0.921944 0.764346 0.000000
0.945378 0.763480 0.000000
0.964338 0.760907 0.000000
0.983701 0.760907 0.000000
0.998736 0.760823 0.000000
1.000000 0.763400 0.000000
1.000000 0.764828 0.000000
0.000000 0.808824 0.000000
0.000000 0.821852 0.000000
0.000000 0.824663 0.000000
0.000000 0.824870 0.000000
0.000000 0.822059 0.000000
0.000000 0.819171 0.000000
0.000000 0.817142 0.000000
0.105859 0.818137 0.000000
0.178860 0.818137 0.000000
0.231373 0.818137 0.000000
0.284697 0.819363 0.000000
0.333632 0.820711 0.000000
0.380331 0.821507 0.000000
0.422181 0.822557 0.000000
0.464017 0.822595 0.000000
0.504741 0.824717 0.000000
0.552451 0.822672 0.000000
0.594976 0.820627 0.000000
0.635095 0.820343 0.000000
0.676103 0.815441 0.000000
0.716391 0.812745 0.000000
0.755078 0.810172 0.000000
0.791529 0.807598 0.000000
0.825835 0.803676 0.000000
0.857966 0.797426 0.000000
0.888480 0.792279 0.000000
0.914200 0.787485 0.000000
0.937676 0.785103 0.000000
0.956618 0.783578 0.000000
0.973284 0.780147 0.000000
0.988649 0.777543 0.000000
1.000000 0.778922 0.000000
1.000000 0.780147 0.000000
0.000000 0.831863 0.000000
0.000000 0.837412 0.000000
0.000000 0.840142 0.000000
0.000000 0.840422 0.000000
0.000000 0.837638 0.000000
0.000000 0.834681 0.000000
0.000000 0.831495 0.000000
0.099996 0.834681 0.000000
0.172549 0.834681 0.000000
0.226781 0.834681 0.000000
0.278041 0.837722 0.000000
0.327095 0.837500 0.000000
0.370879 0.840365 0.000000
0.414461 0.840277 0.000000
0.453064 0.841904 0.000000
0.491667 0.841422 0.000000
0.535049 0.840012 0.000000
0.576130 0.838017 0.000000
0.616904 0.836267 0.000000
0.656740 0.834681 0.000000
0.696032 0.833624 0.000000
0.737868 0.831484 0.000000
0.776471 0.830760 0.000000
0.814281 0.830760 0.000000
0.847488 0.825551 0.000000
0.880519 0.819857 0.000000
0.909482 0.815441 0.000000
0.933896 0.808161 0.000000
0.950000 0.802957 0.000000
0.965705 0.799284 0.000000
0.980882 0.795397 0.000000
0.998932 0.794363 0.000000
1.000000 0.795466 0.000000
0.009804 0.853922 0.000000
0.015594 0.857813 0.000000
0.017586 0.856924 0.000000
0.023254 0.860784 0.000000
0.030025 0.858701 0.000000
0.036642 0.854902 0.000000
0.045343 0.856250 0.000000
0.135202 0.859804 0.000000
0.194118 0.859804 0.000000
0.240870 0.860509 0.000000
0.287439 0.861765 0.000000
0.332414 0.864338 0.000000
0.373897 0.864583 0.000000
0.413205 0.863327 0.000000
0.451225 0.865012 0.000000
0.488848 0.865288 0.000000
0.527451 0.866176 0.000000
0.567433 0.864706 0.000000
0.606311 0.864706 0.003248
0.645803 0.862531 0.010018
0.684804 0.863603 0.015931
0.722426 0.860784 0.026838
0.763664 0.859498 0.034252
0.797672 0.858824 0.038664
0.833088 0.856373 0.033333
0.866942 0.854044 0.021599
0.894975 0.848713 0.006863
0.923407 0.838909 0.006097
0.943137 0.830270 0.000000
0.959559 0.825490 0.000000
0.974020 0.821507 0.000000
0.988388 0.823407 0.000000
1.000000 0.820588 0.000000
0.000000 0.887990 0.000858
0.000000 0.891789 0.023924
0.000000 0.891965 0.026034
0.000000 0.889135 0.002168
0.000000 0.889231 0.000000
0.000000 0.887511 0.000000
0.000000 0.887416 0.000000
0.099510 0.888660 0.000000
0.170251 0.888205 0.000000
0.226716 0.890809 0.000000
0.273185 0.890954 0.000000
0.319413 0.891912 0.000000
0.366789 0.895512 0.000000
0.409191 0.894240 0.000000
0.449387 0.895833 0.000000
0.489216 0.897461 0.000000
0.528125 0.899755 0.000000
0.567804 0.901191 0.000000
0.606005 0.901095 0.000000
0.644608 0.901574 0.014319
0.680147 0.899755 0.035754
0.717402 0.898702 0.078971
0.752206 0.894876 0.115686
0.790315 0.894355 0.143252
0.825092 0.891912 0.148866
0.857288 0.888660 0.122132
0.888197 0.884926 0.069355
0.918627 0.874131 0.040686
0.942540 0.865196 0.024893
0.961520 0.856330 0.006219
0.975911 0.849387 0.000000
0.984655 0.844853 0.000000
0.999142 0.844853 0.000000
0.000000 0.907353 0.025735
0.000000 0.908065 0.045075
0.000000 0.907598 0.040977
0.000000 0.907353 0.018329
0.000000 0.907353 0.000582
0.000000 0.903546 0.000000
0.000597 0.906618 0.000000
0.108088 0.906656 0.000000
0.174510 0.904963 0.000000
0.227574 0.907353 0.000000
0.271308 0.910279 0.000000
0.316307 0.910179 0.000000
0.360999 0.911734 0.000000
0.402206 0.911711 0.000000
0.442402 0.912010 0.000000
0.478776 0.913703 0.000000
0.515686 0.912377 0.000000
0.553554 0.915196 0.000000
0.588235 0.915196 0.000000
0.626103 0.915196 0.001294
0.665441 0.915196 0.041483
0.702696 0.914836 0.084926
0.737500 0.912010 0.123759
0.775697 0.911481 0.151716
0.810478 0.911826 0.175184
0.843183 0.909360 0.171324
0.877313 0.908686 0.155285
0.911642 0.903676 0.122197
