luts/SG10.cube
TITLE "sample15"
LUT_3D_SIZE 9
DOMAIN_MIN 0.0 0.0 0.0
DOMAIN_MAX 1.0 1.0 1.0
0.015686 0.015686 0.015686
0.092647 0.015686 0.015686
0.203922 0.015686 0.015686
0.347059 0.017157 0.017157
0.531373 0.021569 0.021569
0.702941 0.028922 0.028922
0.844118 0.036275 0.036275
0.974020 0.050980 0.051471
1.000000 0.176471 0.054902
0.000000 0.116667 0.011765
0.120650 0.121078 0.011765
0.252941 0.105270 0.012132
0.407537 0.083211 0.014400
0.561029 0.024755 0.021324
0.719608 0.029596 0.030882
0.854902 0.038848 0.038848
0.974020 0.050980 0.051409
1.000000 0.227451 0.051471
0.000000 0.307843 0.000000
0.121691 0.312745 0.000000
0.307108 0.301226 0.000000
0.479412 0.282475 0.000000
0.634804 0.267647 0.000980
0.772549 0.253922 0.008824
0.890441 0.258088 0.019853
0.994363 0.295588 0.032353
1.000000 0.351961 0.070588
0.000000 0.485784 0.000000
0.060968 0.504412 0.000000
0.286275 0.491054 0.000000
0.476961 0.468566 0.000000
0.651471 0.450735 0.000000
0.822610 0.455944 0.000000
0.932843 0.457353 0.000613
1.000000 0.470588 0.081495
1.000000 0.490196 0.097059
0.000000 0.621569 0.000000
0.010294 0.654657 0.000000
0.250000 0.649020 0.000000
0.440196 0.641912 0.000000
0.630392 0.626471 0.000000
0.777941 0.606618 0.000000
0.925000 0.622549 0.000000
1.000000 0.636765 0.116912
1.000000 0.637255 0.156863
0.000000 0.743137 0.000000
0.018934 0.764706 0.000000
0.216912 0.767770 0.000000
0.403064 0.771630 0.000000
0.581373 0.769118 0.000000
0.745098 0.755882 0.000000
0.870711 0.736275 0.000000
0.971078 0.734620 0.000000
1.000000 0.743137 0.020588
0.009804 0.853922 0.000000
0.030025 0.858701 0.000000
0.194118 0.859804 0.000000
0.373897 0.864583 0.000000
0.527451 0.866176 0.000000
0.684804 0.863603 0.015931
0.833088 0.856373 0.033333
0.943137 0.830270 0.000000
1.000000 0.820588 0.000000
0.031863 0.947059 0.112255
0.034804 0.944118 0.083578
0.226348 0.944975 0.026348
0.378002 0.951287 0.024020
0.515196 0.951471 0.026961
0.649632 0.953248 0.128615
0.790686 0.954044 0.221569
0.925061 0.950551 0.191238
0.988235 0.892647 0.098039
0.000000 0.984314 0.141176
0.119118 0.984314 0.146078
0.258824 0.987255 0.118627
0.378431 0.988235 0.096569
0.500000 0.990196 0.127451
0.620098 0.992157 0.171569
0.756863 0.992157 0.248039
0.924020 0.996078 0.253922
0.992157 0.933333 0.286275
0.019608 0.019608 0.049510
0.088725 0.015686 0.080882
0.196201 0.015809 0.095343
0.347855 0.018137 0.099510
0.508088 0.019608 0.104412
0.666176 0.027451 0.103922
0.816667 0.032721 0.089583
0.958824 0.048407 0.085355
1.000000 0.062745 0.132843
0.024510 0.108762 0.104412
0.119730 0.112799 0.108127
0.240855 0.116238 0.108778
0.391789 0.112217 0.112806
0.538205 0.076869 0.111734
0.685271 0.027551 0.109229
0.831740 0.035830 0.102849
0.967716 0.050866 0.108724
1.000000 0.192647 0.142463
0.015809 0.295466 0.134926
0.135187 0.298529 0.117433
0.305484 0.282690 0.115472
0.461320 0.272457 0.124372
0.606618 0.257598 0.124081
0.744485 0.242647 0.119975
0.870741 0.241207 0.124540
0.986152 0.273591 0.141437
1.000000 0.327451 0.167892
0.000000 0.475613 0.118750
0.109559 0.490908 0.100934
0.292586 0.471523 0.100613
0.477750 0.448215 0.102336
0.647641 0.434865 0.107169
0.807843 0.436772 0.134743
0.923836 0.439093 0.163143
0.998713 0.456863 0.192302
1.000000 0.474632 0.205025
0.000000 0.627451 0.084314
0.060692 0.656679 0.074786
0.277635 0.646936 0.034865
0.457843 0.632200 0.089369
0.637255 0.612868 0.073407
0.785784 0.594853 0.072580
0.931556 0.616605 0.145895
1.000000 0.629136 0.220098
1.000000 0.627451 0.236029
0.015441 0.751961 0.086152
0.062125 0.776777 0.098407
0.263343 0.773606 0.045328
0.426900 0.771209 0.034559
0.598621 0.762990 0.122181
0.756733 0.746392 0.074479
0.880407 0.727145 0.018137
0.977757 0.733395 0.149426
1.000000 0.736765 0.192341
0.036152 0.858824 0.106127
0.049923 0.867647 0.116192
0.248284 0.865778 0.064951
0.400368 0.866192 0.033946
0.544547 0.865135 0.039032
0.697993 0.858915 0.137960
0.845741 0.853830 0.143903
0.948269 0.825919 0.124449
1.000000 0.816667 0.113480
0.039154 0.945037 0.209375
0.158203 0.948039 0.208019
0.279596 0.948989 0.176134
0.401141 0.951471 0.151264
0.531127 0.951900 0.153493
0.663764 0.951693 0.217502
0.799678 0.953615 0.285187
0.927941 0.946684 0.271745
0.987806 0.890748 0.220221
0.085784 0.984314 0.233824
0.199020 0.984314 0.246078
0.294118 0.986887 0.229902
0.391667 0.987929 0.203922
0.508088 0.988480 0.212500
0.623162 0.989522 0.237071
0.762132 0.992157 0.295466
0.927451 0.996017 0.308272
0.992157 0.933333 0.324510
0.027451 0.016667 0.138235
0.104902 0.016667 0.158333
0.197059 0.016667 0.180637
0.330882 0.020221 0.208456
0.497549 0.022059 0.208333
0.652574 0.027451 0.203922
0.810784 0.033333 0.223775
0.954534 0.048529 0.239338
1.000000 0.115686 0.259804
0.034191 0.108456 0.189828
0.120772 0.109743 0.199035
0.229657 0.115533 0.215931
0.364721 0.105882 0.223085
0.521998 0.086152 0.213297
0.668964 0.102175 0.221385
0.824265 0.064737 0.232567
0.961688 0.106464 0.244976
1.000000 0.210662 0.266544
0.055882 0.279902 0.259069
0.161887 0.279779 0.262990
0.290257 0.271262 0.254351
0.431863 0.269608 0.250980
0.572304 0.264216 0.245956
0.716789 0.255882 0.245098
0.861458 0.264154 0.254105
0.983456 0.289706 0.270588
1.000000 0.327206 0.282108
0.062500 0.453431 0.281740
0.173223 0.466131 0.285172
0.293505 0.455668 0.252083
0.468857 0.435463 0.245604
0.640135 0.437745 0.265441
0.787806 0.437255 0.280453
0.912531 0.447181 0.295282
0.996461 0.466728 0.310662
1.000000 0.472549 0.309926
0.050490 0.614216 0.273529
0.148223 0.641054 0.274571
0.274632 0.634314 0.219975
0.451716 0.622488 0.252451
0.635049 0.602696 0.242647
0.787745 0.594179 0.243444
0.928922 0.625980 0.306863
1.000000 0.638909 0.352941
1.000000 0.627451 0.346078
0.059191 0.748529 0.267770
0.159697 0.772089 0.273438
0.280760 0.769700 0.229779
0.432567 0.767279 0.216085
0.600000 0.756924 0.280025
0.756863 0.741023 0.252757
0.883793 0.729412 0.220588
0.979779 0.739338 0.303294
1.000000 0.743995 0.324877
0.049510 0.855637 0.264461
0.150153 0.867647 0.269087
0.276348 0.865686 0.236029
0.408762 0.864982 0.209436
0.550123 0.863971 0.218137
0.704473 0.858150 0.286642
0.846569 0.850919 0.298529
0.949877 0.828278 0.276471
1.000000 0.820588 0.285294
0.098284 0.944975 0.330147
0.219853 0.947227 0.329657
0.309436 0.948192 0.303554
0.409375 0.951394 0.264874
0.536275 0.951716 0.266054
0.667877 0.953125 0.321247
0.803370 0.953401 0.385263
0.931587 0.946952 0.377957
0.987377 0.891544 0.328922
0.128431 0.981373 0.330392
0.225490 0.981740 0.338725
0.309069 0.984314 0.326471
0.398897 0.987623 0.307353
0.509314 0.988235 0.302941
0.627328 0.991544 0.327941
0.763971 0.992157 0.374755
0.930392 0.994730 0.392157
0.988235 0.933333 0.394118
0.058824 0.019608 0.245098
0.122733 0.017279 0.254228
0.211642 0.018505 0.287255
0.327451 0.022059 0.311765
0.450980 0.027451 0.325490
0.621078 0.033824 0.327451
0.814828 0.035294 0.331373
0.956189 0.049142 0.335110
1.000000 0.065686 0.356863
0.053248 0.104596 0.281863
0.131020 0.109781 0.296791
0.232751 0.110478 0.323713
0.347365 0.109191 0.330017
0.469118 0.087500 0.337990
0.637247 0.033931 0.332774
0.823943 0.035846 0.336811
0.959498 0.050758 0.339622
1.000000 0.224877 0.382843
0.054902 0.261887 0.350490
0.151700 0.264445 0.355760
0.266146 0.264583 0.366146
0.388358 0.260616 0.367479
0.532353 0.251164 0.360478
0.698346 0.240196 0.349249
0.847365 0.260876 0.361428
0.972059 0.307001 0.385478
1.000000 0.337377 0.393627
0.075368 0.427880 0.392586
0.185953 0.439392 0.408632
0.309881 0.432230 0.404259
0.451409 0.426471 0.397488
0.607843 0.428922 0.399020
0.751065 0.430882 0.400406
0.889997 0.451838 0.416958
0.989400 0.469792 0.431441
1.000000 0.467096 0.420466
0.089461 0.600000 0.417647
0.216912 0.622396 0.436612
0.331985 0.616115 0.421752
0.455699 0.611734 0.397825
0.628799 0.595466 0.389706
0.784559 0.604657 0.417647
0.916483 0.641115 0.471324
0.993382 0.646722 0.489706
1.000000 0.632108 0.465441
0.153431 0.743137 0.429412
0.266598 0.761581 0.447013
0.346446 0.759804 0.417356
0.450490 0.760524 0.375000
0.600735 0.750031 0.418413
0.758762 0.736849 0.392379
0.885938 0.731036 0.372534
0.980017 0.750919 0.459429
1.000000 0.752451 0.461765
0.138480 0.854902 0.425123
0.254228 0.862623 0.431725
0.330545 0.861642 0.397273
0.422518 0.862914 0.342249
0.556985 0.861091 0.335662
0.709252 0.856434 0.427405
0.849020 0.850735 0.440686
0.954305 0.832966 0.409881
1.000000 0.824510 0.417525
0.211949 0.943627 0.454902
0.291483 0.946523 0.461458
0.362332 0.945680 0.445021
0.439147 0.950483 0.403179
0.547457 0.951471 0.380331
0.673698 0.951953 0.429404
0.809942 0.953002 0.492693
0.933027 0.944753 0.486642
0.986949 0.895098 0.439400
0.197059 0.980392 0.438725
0.270588 0.980392 0.445282
0.338603 0.983333 0.437255
0.419118 0.984314 0.420650
0.512990 0.986275 0.404657
0.630331 0.986703 0.423958
0.774142 0.990319 0.468260
0.929902 0.992157 0.485600
0.988235 0.933333 0.477941
0.080392 0.017647 0.358824
0.139706 0.019608 0.372059
0.230392 0.021569 0.392647
0.326961 0.025490 0.431863
0.448039 0.031373 0.430392
0.586520 0.044608 0.453186
0.763726 0.065196 0.478922
0.941422 0.066422 0.474265
1.000000 0.062745 0.456863
0.079167 0.102451 0.392892
0.145588 0.104228 0.401930
0.240870 0.102635 0.415074
0.341054 0.100092 0.451563
0.462868 0.096324 0.443015
0.601532 0.047059 0.462837
0.770772 0.067279 0.484069
0.943873 0.067862 0.477451
1.000000 0.065931 0.463971
0.052451 0.251961 0.444608
0.153922 0.258885 0.455392
0.258824 0.259436 0.463358
0.369363 0.257169 0.489216
0.496814 0.257843 0.478922
0.635601 0.258824 0.494118
0.814706 0.264216 0.501103
0.968015 0.259498 0.494608
1.000000 0.260294 0.474020
0.080147 0.415196 0.495098
0.182077 0.426164 0.511703
0.298039 0.421262 0.511458
0.418873 0.419118 0.523070
0.550490 0.416912 0.525368
0.712960 0.418168 0.525337
0.873713 0.423713 0.526838
0.979933 0.434099 0.525123
1.000000 0.456863 0.525000
0.120588 0.589216 0.541176
0.231618 0.606127 0.562745
0.347794 0.600000 0.559559
0.473284 0.593873 0.558578
0.614706 0.591176 0.554412
0.766422 0.610784 0.575245
0.885539 0.625980 0.592402
0.975368 0.628922 0.591789
1.000000 0.609804 0.568627
0.211275 0.737255 0.562745
0.314553 0.753401 0.583241
0.405882 0.748162 0.581740
0.497365 0.744884 0.564491
0.605882 0.740441 0.551961
0.752727 0.732567 0.544976
0.877451 0.743689 0.578676
0.978094 0.770588 0.618137
1.000000 0.763726 0.611029
0.276471 0.850000 0.576471
0.352512 0.855515 0.589216
0.420466 0.853309 0.584926
0.490196 0.856127 0.556311
0.581127 0.858578 0.514706
0.716728 0.854718 0.570527
0.847917 0.848162 0.578922
0.956863 0.839951 0.554596
1.000000 0.836765 0.564216
0.298775 0.943382 0.581373
0.356679 0.943413 0.586979
0.420037 0.941912 0.583762
0.496170 0.946262 0.570098
0.573162 0.949632 0.530637
0.687898 0.954749 0.541391
0.817218 0.952757 0.605637
0.937286 0.946844 0.602451
0.986275 0.901471 0.562745
0.307843 0.978431 0.560784
0.356373 0.978676 0.566912
0.401961 0.980392 0.561275
0.464461 0.980392 0.549265
0.541176 0.983333 0.532353
0.652941 0.987010 0.542647
0.794608 0.988725 0.581863
0.929412 0.993873 0.601961
0.988235 0.933333 0.601961
0.098039 0.023529 0.480392
0.151961 0.023223 0.482843
0.238358 0.025245 0.494608
0.332843 0.030453 0.519118
0.443137 0.035294 0.566667
0.599449 0.054841 0.577451
0.752819 0.075490 0.607476
0.888235 0.098529 0.616360
0.997059 0.099510 0.590196
0.100000 0.090380 0.497243
0.157008 0.092119 0.503209
0.246078 0.091192 0.513771
0.343321 0.084873 0.535478
0.456863 0.066575 0.581311
0.609559 0.055767 0.585608
0.759544 0.078493 0.614032
0.889070 0.098836 0.619340
0.995404 0.102941 0.594608
0.083456 0.248039 0.540074
0.159681 0.252589 0.549832
0.255882 0.252911 0.557598
0.364583 0.254213 0.572472
0.483762 0.256924 0.618076
0.638618 0.271002 0.618030
0.782659 0.282506 0.640931
0.906357 0.300613 0.641161
0.996324 0.294485 0.602941
0.083333 0.403983 0.590257
0.176302 0.411895 0.602466
0.286045 0.410003 0.604473
0.399449 0.416521 0.621362
0.531097 0.419853 0.659130
0.683065 0.435723 0.661642
0.817494 0.451900 0.678002
0.939017 0.452137 0.660095
1.000000 0.417218 0.611949
0.136029 0.576471 0.646324
0.246477 0.588542 0.662071
0.350245 0.586275 0.660601
0.467586 0.586734 0.666391
0.591176 0.592525 0.689093
0.724265 0.599694 0.698775
0.854596 0.600000 0.693811
0.963419 0.582690 0.669945
1.000000 0.558824 0.635784
0.228248 0.737684 0.684743
0.316238 0.743068 0.695833
0.409360 0.738664 0.695006
0.512661 0.735355 0.697059
0.620558 0.733793 0.697273
0.742502 0.730882 0.698323
0.867479 0.752390 0.722258
0.967463 0.753424 0.722733
1.000000 0.742157 0.708272
0.316176 0.846078 0.693137
0.381388 0.851731 0.701915
0.453033 0.848652 0.703431
0.539093 0.845404 0.704611
0.628799 0.848529 0.699571
0.726930 0.851900 0.699157
0.846354 0.846967 0.702849
0.962485 0.853125 0.706618
1.000000 0.861275 0.723162
0.350490 0.940196 0.695588
0.407721 0.943306 0.702451
0.471645 0.942540 0.705484
0.553745 0.944432 0.710976
0.632598 0.948866 0.704320
0.714040 0.955591 0.681503
0.821691 0.952436 0.711581
0.942073 0.947549 0.717670
0.984314 0.916667 0.701777
0.375000 0.976471 0.667157
0.432843 0.978922 0.677451
0.502574 0.979412 0.692157
0.554351 0.978860 0.691176
0.618137 0.980392 0.684559
0.700551 0.984314 0.675490
0.807843 0.988235 0.699877
0.934988 0.992157 0.723529
0.984314 0.942647 0.735294
0.105882 0.027451 0.587255
0.159804 0.027451 0.591176
0.247059 0.031373 0.602941
0.348529 0.039216 0.625368
0.459314 0.053431 0.686765
0.600980 0.067034 0.746936
0.765686 0.091176 0.741912
0.892034 0.110172 0.736275
0.972549 0.117647 0.708824
0.115074 0.066789 0.599510
0.171201 0.062730 0.605622
0.256250 0.042188 0.614675
0.358594 0.039752 0.636581
0.465931 0.054657 0.696814
0.609252 0.067770 0.754090
0.771722 0.092157 0.745435
0.894960 0.109865 0.739292
0.973162 0.117647 0.713235
0.092402 0.245588 0.638971
0.166452 0.247426 0.646354
0.259314 0.250000 0.657353
0.367096 0.255913 0.676654
0.484314 0.268627 0.726103
0.628768 0.278431 0.777145
0.787500 0.289032 0.766667
0.904902 0.307200 0.757384
0.972794 0.313971 0.722549
0.072917 0.394853 0.685539
0.176134 0.405974 0.699387
0.290227 0.410662 0.704963
0.396431 0.421369 0.727941
0.527267 0.434926 0.762500
0.665457 0.443689 0.804412
0.814798 0.457322 0.796752
0.915058 0.459007 0.775061
0.978799 0.450980 0.740564
0.145588 0.573039 0.746569
0.253676 0.584130 0.758578
0.347549 0.583824 0.761397
0.458946 0.589583 0.770956
0.579902 0.600490 0.795098
0.705637 0.603370 0.820588
0.828064 0.598039 0.806127
0.928615 0.599816 0.795098
0.993137 0.579412 0.755392
0.243015 0.728064 0.789338
0.319501 0.731847 0.795588
0.402543 0.731495 0.795496
0.504963 0.731495 0.799280
0.615870 0.730699 0.802880
0.726654 0.730025 0.812439
0.835355 0.728493 0.812286
0.944914 0.725123 0.805423
1.000000 0.705392 0.772672
0.311275 0.848775 0.802941
0.378983 0.851961 0.807874
0.455147 0.849020 0.809988
0.548254 0.848744 0.813358
0.645221 0.849142 0.816912
0.741391 0.846783 0.818811
0.842892 0.843321 0.815686
0.961152 0.864920 0.839400
0.999020 0.863971 0.841422
0.400735 0.944363 0.805270
0.453324 0.946906 0.809574
0.514828 0.946140 0.815043
0.594087 0.947687 0.820144
0.674816 0.949020 0.825490
0.752528 0.952528 0.825260
0.830331 0.955392 0.808241
0.944654 0.951149 0.825751
0.988358 0.939706 0.839093
0.409804 0.979412 0.763726
0.464216 0.979534 0.771569
0.526226 0.980392 0.780147
0.605392 0.978554 0.792157
0.700980 0.980882 0.816176
0.781863 0.986397 0.829044
0.840196 0.989706 0.820588
0.943627 0.993505 0.843260
0.988235 0.965686 0.879412
0.130882 0.035784 0.720098
0.183395 0.039216 0.724020
0.268995 0.043627 0.736642
0.369792 0.053922 0.759988
0.484804 0.068873 0.790196
0.595895 0.088235 0.859498
0.754412 0.106005 0.908456
0.914767 0.125123 0.887316
0.972549 0.125980 0.813235
0.144608 0.060600 0.729412
0.192471 0.061581 0.732552
0.279351 0.059053 0.746385
0.377635 0.058532 0.766521
0.491636 0.068873 0.795895
0.598162 0.089139 0.862730
0.755270 0.106801 0.910892
0.911933 0.122051 0.885723
0.974020 0.128983 0.818689
0.126348 0.261275 0.759191
0.190487 0.265012 0.768735
0.279320 0.270496 0.778585
0.378968 0.281204 0.799602
0.501164 0.291667 0.825245
0.613634 0.303079 0.882874
0.766023 0.307261 0.922273
0.913128 0.292647 0.893091
0.975000 0.314828 0.830515
0.136949 0.417157 0.802635
0.219838 0.426777 0.812607
0.313051 0.431679 0.822365
0.412186 0.442264 0.841598
0.529749 0.455729 0.865043
0.647848 0.464821 0.905208
0.783333 0.459191 0.923177
0.918053 0.448690 0.900551
0.978309 0.454779 0.843505
0.205147 0.580637 0.856618
0.280086 0.590411 0.865962
0.361765 0.590809 0.868260
0.472549 0.601961 0.877849
0.561397 0.604902 0.893505
0.678523 0.601961 0.908578
0.805025 0.597794 0.919547
0.928676 0.593413 0.904718
0.982353 0.591912 0.858088
0.275490 0.722549 0.886765
0.335784 0.725161 0.889377
0.407246 0.725322 0.892785
0.494975 0.727083 0.894301
0.593627 0.726563 0.899908
0.703669 0.729596 0.910960
0.820849 0.728186 0.923070
0.935187 0.725980 0.912722
0.984498 0.722549 0.874510
0.320098 0.844118 0.906373
0.385907 0.847166 0.909360
0.457813 0.847549 0.912531
0.542632 0.844960 0.910524
0.635049 0.843505 0.913787
0.731051 0.843061 0.915074
0.834038 0.842984 0.922120
0.944684 0.844301 0.924418
0.986152 0.846446 0.898407
0.400613 0.950490 0.909252
0.459926 0.953868 0.915686
0.521048 0.953646 0.918842
0.596959 0.952535 0.920734
0.675766 0.953186 0.922059
0.757989 0.952941 0.925597
0.848851 0.951838 0.928416
0.947181 0.951363 0.931863
0.996998 0.969669 0.958395
0.510784 0.984314 0.872059
0.557292 0.984314 0.879412
0.606863 0.984681 0.883701
0.668627 0.986091 0.891667
0.737990 0.988235 0.903186
0.816851 0.988419 0.918811
0.912745 0.996078 0.946691
0.973591 0.999571 0.966176
1.000000 1.000000 0.996569
0.188235 0.054902 0.843137
0.226471 0.058824 0.846569
0.299020 0.062745 0.854902
0.387745 0.074510 0.870588
0.496078 0.086275 0.892157
0.612255 0.103431 0.928431
0.711765 0.122549 0.985294
0.877451 0.133824 1.000000
0.984314 0.137255 0.933333
0.188235 0.120098 0.846078
0.225919 0.123529 0.849571
0.299877 0.127819 0.857843
0.386642 0.134681 0.872243
0.496324 0.140931 0.895343
0.613051 0.102941 0.931373
0.712500 0.121201 0.984314
0.875919 0.133701 0.999939
0.984804 0.140686 0.941176
0.180392 0.284314 0.866667
0.225368 0.286275 0.868627
0.300245 0.293137 0.878676
0.386765 0.300980 0.894608
0.495588 0.309804 0.913725
0.614216 0.308824 0.942157
0.706618 0.294118 0.991176
0.871936 0.249632 0.996936
0.979412 0.227451 0.942157
0.221569 0.437745 0.900000
0.265196 0.441667 0.905392
0.329412 0.443505 0.912255
0.406863 0.447059 0.925000
0.499755 0.449020 0.938971
0.621630 0.448529 0.956863
0.715931 0.442770 0.996691
0.877941 0.425000 0.996078
0.980882 0.413725 0.947549
0.223529 0.562745 0.925490
0.296814 0.576226 0.931127
0.375980 0.585784 0.936765
0.444853 0.585049 0.945098
0.514706 0.588235 0.960784
0.627451 0.586275 0.974020
0.748529 0.579902 0.992157
0.892157 0.572304 0.996078
0.986275 0.564706 0.952941
0.253431 0.691667 0.949510
0.305392 0.693934 0.951777
0.376961 0.694118 0.953064
0.466728 0.701961 0.959804
0.573775 0.716912 0.968137
0.659314 0.716176 0.981863
0.783211 0.714093 0.988603
0.902451 0.706863 0.997549
0.989706 0.707843 0.962255
0.317647 0.809804 0.969608
0.363235 0.809804 0.969608
0.431618 0.810049 0.969853
0.518137 0.813726 0.973529
0.616667 0.817647 0.975490
0.721078 0.826103 0.981005
0.814216 0.834069 0.988971
0.917157 0.829412 0.997059
0.992157 0.837255 0.972549
0.418137 0.927941 0.984804
0.456434 0.924510 0.984804
0.517279 0.924510 0.984804
0.591054 0.926654 0.986949
0.672304 0.926225 0.987010
0.761765 0.929228 0.990012
0.853922 0.932230 0.989093
0.941115 0.943627 0.995650
1.000000 0.959314 0.988725
0.588235 0.988235 0.960784
0.615196 0.992157 0.964706
0.657843 0.992157 0.969608
0.712255 0.992157 0.972549
0.782353 0.992157 0.976471
0.863235 0.996078 0.984314
0.944118 0.997059 0.993137
1.000000 1.000000 1.000000
1.000000 1.000000 1.000000
