luts/SG2.cube
TITLE "sample4"
LUT_3D_SIZE 33
DOMAIN_MIN 0.0 0.0 0.0
DOMAIN_MAX 1.0 1.0 1.0
0.015686 0.015686 0.015686
0.065686 0.019485 0.019485
0.097059 0.019363 0.019363
0.127941 0.016054 0.016054
0.158824 0.015686 0.015686
0.196936 0.015686 0.015686
0.235539 0.015686 0.015686
0.274142 0.019608 0.019608
0.308824 0.015686 0.015686
0.343505 0.018505 0.018505
0.375490 0.015686 0.015686
0.412868 0.018260 0.018260
0.445098 0.019608 0.019608
0.492402 0.019608 0.019608
0.536520 0.023529 0.023529
0.579044 0.023529 0.023529
0.619608 0.023529 0.023529
0.664093 0.027451 0.027451
0.700980 0.027451 0.027451
0.735784 0.029044 0.029044
0.768137 0.032843 0.032843
0.796201 0.031373 0.032721
0.827206 0.036520 0.039216
0.850368 0.039216 0.040319
0.873529 0.039216 0.048039
0.900613 0.043137 0.055760
0.927696 0.043873 0.063480
0.950858 0.047672 0.067279
0.969608 0.050980 0.070098
0.989338 0.054902 0.062377
1.000000 0.055147 0.058824
1.000000 0.059926 0.058946
1.000000 0.137255 0.066667
0.000123 0.065931 0.015686
0.038484 0.069616 0.015686
0.085294 0.065571 0.015449
0.124020 0.054657 0.015686
0.158349 0.042892 0.015686
0.196936 0.031599 0.015809
0.232353 0.017134 0.015709
0.271052 0.019485 0.019485
0.304902 0.015778 0.015778
0.339618 0.018539 0.018539
0.371653 0.015771 0.015771
0.408988 0.018302 0.018302
0.447503 0.019608 0.019608
0.492402 0.019608 0.021986
0.536520 0.021745 0.023529
0.579044 0.023529 0.027451
0.619608 0.023529 0.027328
0.662075 0.025433 0.031250
0.698843 0.027451 0.029588
0.733529 0.029117 0.029117
0.768091 0.032797 0.032797
0.796281 0.031495 0.032801
0.824510 0.036520 0.044156
0.850280 0.039128 0.051961
0.873560 0.039246 0.059681
0.900613 0.043137 0.067402
0.927673 0.043972 0.074387
0.950858 0.047672 0.078309
0.969730 0.050980 0.077941
0.989327 0.054902 0.070209
1.000000 0.055147 0.062737
1.000000 0.060895 0.058942
1.000000 0.152819 0.074510
0.000000 0.093137 0.011765
0.034321 0.096706 0.011772
0.080898 0.096814 0.011765
0.116399 0.093260 0.012132
0.154657 0.085784 0.012010
0.196362 0.081166 0.015112
0.235585 0.069501 0.012010
0.273897 0.062255 0.015686
0.305821 0.047181 0.015870
0.340686 0.032705 0.018574
0.371737 0.020680 0.015855
0.408946 0.018344 0.018344
0.451379 0.019608 0.019608
0.496178 0.019608 0.023529
0.538588 0.023284 0.027206
0.579044 0.023529 0.027451
0.619485 0.023529 0.031127
0.662010 0.025498 0.033211
0.697166 0.027451 0.033441
0.732008 0.029190 0.033012
0.766667 0.032751 0.036428
0.796201 0.031618 0.040479
0.824341 0.036520 0.051792
0.850191 0.039040 0.059505
0.874510 0.039277 0.067218
0.901417 0.043137 0.075069
0.927696 0.044072 0.082108
0.950858 0.047672 0.086029
0.969853 0.051011 0.082322
0.989315 0.054902 0.077819
1.000000 0.055147 0.070098
1.000000 0.094141 0.062860
1.000000 0.164216 0.078431
0.000000 0.127574 0.008211
0.026949 0.127585 0.011297
0.069508 0.127918 0.011520
0.111922 0.127608 0.008211
0.146936 0.120588 0.008211
0.188905 0.116234 0.011267
0.235608 0.108770 0.008946
0.274632 0.107678 0.011765
0.308824 0.099755 0.012040
0.343608 0.093015 0.014687
0.375743 0.085294 0.012132
0.418995 0.080277 0.016054
0.458946 0.071339 0.018275
0.501471 0.055924 0.023529
0.541996 0.038649 0.027451
0.580882 0.025195 0.031373
0.619608 0.023529 0.034926
0.662205 0.025563 0.036960
0.697059 0.027451 0.038848
0.731863 0.029262 0.037106
0.766667 0.032705 0.042770
0.796201 0.031614 0.048039
0.826953 0.036520 0.059429
0.850368 0.038951 0.070956
0.877175 0.039308 0.078768
0.904454 0.043137 0.086684
0.927995 0.044171 0.090495
0.950858 0.047672 0.093750
0.969975 0.051026 0.093260
0.989304 0.054902 0.085838
1.000000 0.081648 0.077696
1.000000 0.136175 0.070443
1.000000 0.179657 0.085907
0.000000 0.169118 0.004412
0.018520 0.172457 0.003937
0.061275 0.169332 0.004381
0.107154 0.169164 0.004412
0.150000 0.165686 0.004841
0.194930 0.164782 0.007307
0.241759 0.157047 0.007935
0.284436 0.153048 0.007843
0.322917 0.149020 0.008211
0.357721 0.141805 0.008686
0.399602 0.141176 0.012102
0.441789 0.137255 0.012255
0.482843 0.133027 0.014706
0.520879 0.126792 0.020098
0.559589 0.126225 0.024020
0.596921 0.120818 0.030025
0.633333 0.115686 0.033333
0.672289 0.112638 0.037837
0.708364 0.105453 0.041207
0.741667 0.100781 0.044531
0.772365 0.098713 0.050674
0.799832 0.094807 0.057751
0.828830 0.096783 0.067555
0.854795 0.095864 0.075123
0.879044 0.097304 0.082843
0.902466 0.102665 0.090456
0.928431 0.112500 0.098100
0.955224 0.128140 0.104412
0.971078 0.140257 0.103983
0.990441 0.153018 0.100398
0.998621 0.168168 0.095343
1.000000 0.187714 0.091146
1.000000 0.213725 0.096569
0.000000 0.205392 0.000613
0.000000 0.212416 0.000019
0.006549 0.209521 0.000000
0.070098 0.209314 0.000555
0.124311 0.208701 0.000000
0.176811 0.204875 0.000613
0.223775 0.197672 0.000498
0.266054 0.193015 0.003922
0.317708 0.192555 0.003248
0.362010 0.189093 0.001225
0.407299 0.188480 0.003922
0.447549 0.185907 0.007843
0.488603 0.183318 0.014216
0.526712 0.178309 0.021936
0.565418 0.174854 0.029657
0.601961 0.170918 0.036765
0.639216 0.167218 0.041176
0.677941 0.163400 0.046446
0.713848 0.162477 0.051471
0.744972 0.160780 0.055633
0.776578 0.159176 0.061749
0.805182 0.157108 0.068941
0.831127 0.156916 0.078853
0.858211 0.157108 0.086592
0.881526 0.157261 0.093199
0.907977 0.160551 0.098284
0.934306 0.164951 0.106005
0.957571 0.176294 0.112596
0.974556 0.181817 0.113649
0.992892 0.190441 0.113055
1.000000 0.201141 0.108372
1.000000 0.217440 0.109191
1.000000 0.237990 0.117034
0.000000 0.244118 0.000000
0.000000 0.247940 0.000000
0.000000 0.248039 0.000000
0.036259 0.248039 0.000000
0.103523 0.250582 0.000000
0.160156 0.250490 0.000000
0.219118 0.247166 0.000000
0.268788 0.245994 0.000000
0.311765 0.239706 0.000000
0.359352 0.235746 0.000000
0.410524 0.235539 0.002191
0.455270 0.235057 0.006495
0.496324 0.231342 0.016207
0.536397 0.228991 0.025559
0.573208 0.225169 0.037178
0.609681 0.222649 0.046178
0.647059 0.217525 0.052206
0.685049 0.213703 0.058088
0.717647 0.211275 0.062990
0.750735 0.208088 0.067226
0.781618 0.207353 0.074510
0.809061 0.207835 0.083808
0.838235 0.207353 0.092877
0.865319 0.207881 0.100697
0.888664 0.207537 0.104779
0.911803 0.208785 0.109926
0.938128 0.212607 0.116912
0.961389 0.219233 0.120833
0.978585 0.224908 0.121477
0.996446 0.229167 0.120833
1.000000 0.236520 0.116912
1.000000 0.249020 0.117034
1.000000 0.268382 0.125490
0.000000 0.281985 0.000000
0.000000 0.288875 0.000000
0.000000 0.289828 0.000000
0.007441 0.289828 0.000000
0.084053 0.292892 0.000000
0.142525 0.292548 0.000000
0.207475 0.289706 0.000000
0.261520 0.286577 0.000000
0.310355 0.285263 0.000000
0.351965 0.276107 0.000000
0.400391 0.274142 0.000000
0.451593 0.274142 0.006495
0.500980 0.274142 0.016667
0.542299 0.271465 0.031598
0.580997 0.267639 0.044968
0.617402 0.265441 0.053833
0.654902 0.261949 0.060355
0.691334 0.258245 0.066211
0.724992 0.253676 0.072786
0.754534 0.250264 0.078818
0.787332 0.248606 0.086029
0.814557 0.248307 0.094608
0.842034 0.248797 0.102060
0.869118 0.250371 0.109808
0.892494 0.249969 0.113848
0.919363 0.249943 0.117647
0.941950 0.254373 0.123935
0.965074 0.257732 0.127830
0.981373 0.259697 0.128554
0.996446 0.263890 0.128554
1.000000 0.270274 0.124632
1.000000 0.279193 0.125586
1.000000 0.295466 0.133333
0.000000 0.344118 0.000000
0.000000 0.345987 0.000000
0.000000 0.347059 0.000000
0.007996 0.347947 0.000000
0.084436 0.347059 0.000000
0.144730 0.347059 0.000000
0.206066 0.345527 0.000000
0.261642 0.340074 0.000000
0.314951 0.337255 0.000000
0.360172 0.331342 0.000000
0.402390 0.325735 0.000000
0.447763 0.317647 0.001624
0.499632 0.318627 0.014338
0.546324 0.318627 0.030147
0.588174 0.318076 0.045037
0.627083 0.313726 0.055607
0.666176 0.312255 0.066667
0.703830 0.309804 0.073989
0.736275 0.305882 0.082537
0.766759 0.300766 0.086887
0.795956 0.296936 0.094608
0.822641 0.295067 0.101961
0.846814 0.295159 0.108824
0.872794 0.295956 0.116667
0.896324 0.293627 0.120833
0.919240 0.297273 0.125153
0.941850 0.298591 0.128431
0.965104 0.305055 0.134007
0.984314 0.309804 0.135294
0.996354 0.312837 0.135294
1.000000 0.315012 0.134130
1.000000 0.323775 0.132445
1.000000 0.335294 0.134314
0.000000 0.382721 0.016299
0.000000 0.398074 0.013446
0.000000 0.399686 0.005990
0.000000 0.402328 0.000264
0.000000 0.398759 0.000000
0.089365 0.396029 0.000000
0.169447 0.394485 0.000000
0.224514 0.387500 0.000000
0.286642 0.383701 0.000000
0.340686 0.375980 0.000000
0.390587 0.370956 0.000000
0.434704 0.365587 0.000000
0.477482 0.356327 0.006694
0.528309 0.355270 0.021446
0.578914 0.357958 0.040058
0.625299 0.355787 0.054167
0.670588 0.356679 0.065257
0.710635 0.354753 0.076348
0.744868 0.350866 0.085302
0.774552 0.346978 0.095263
0.803722 0.343505 0.102328
0.829423 0.340085 0.109080
0.854312 0.337255 0.116544
0.879845 0.335662 0.123905
0.904626 0.335662 0.130116
0.927822 0.335662 0.136152
0.950490 0.336765 0.140074
0.972844 0.342134 0.143995
0.991820 0.343643 0.144133
1.000000 0.348426 0.144995
1.000000 0.348529 0.143926
1.000000 0.352696 0.142927
1.000000 0.364216 0.143995
0.000000 0.414706 0.028922
0.000000 0.433946 0.028837
0.000000 0.438159 0.018873
0.000000 0.437010 0.010907
0.000000 0.435938 0.003033
0.055760 0.433280 0.000000
0.149494 0.429167 0.000000
0.208211 0.423139 0.000000
0.265502 0.422304 0.000000
0.322204 0.414583 0.000000
0.378186 0.409559 0.000000
0.426700 0.404833 0.000000
0.471078 0.399724 0.000000
0.511137 0.390319 0.008709
0.561811 0.389997 0.025291
0.613687 0.392609 0.043919
0.665931 0.395833 0.060049
0.711803 0.397220 0.073078
0.747503 0.393336 0.085248
0.778424 0.389453 0.095711
0.807567 0.386029 0.106587
0.834191 0.382529 0.113848
0.859421 0.379657 0.122411
0.884781 0.379243 0.131572
0.908824 0.377206 0.137929
0.934413 0.376961 0.144462
0.954917 0.375490 0.148024
0.976662 0.378186 0.153991
0.992065 0.378339 0.154228
1.000000 0.383218 0.152826
1.000000 0.383333 0.151716
1.000000 0.386275 0.151800
1.000000 0.395098 0.154412
0.000000 0.448162 0.037868
0.000000 0.468750 0.037787
0.000000 0.472955 0.030430
0.000000 0.473039 0.022549
0.000000 0.470512 0.010049
0.015614 0.467980 0.000402
0.128807 0.467287 0.000000
0.191912 0.461837 0.000000
0.250735 0.460263 0.000000
0.304779 0.453910 0.000000
0.362324 0.450735 0.000000
0.415905 0.443356 0.001689
0.465686 0.441284 0.000000
0.508881 0.434796 0.000000
0.547917 0.426348 0.009903
0.594382 0.423407 0.025896
0.650429 0.429228 0.045833
0.702083 0.432475 0.064564
0.742670 0.433234 0.081495
0.778922 0.430882 0.093137
0.809804 0.426241 0.105744
0.837106 0.422400 0.116762
0.863304 0.420290 0.126716
0.888614 0.420711 0.137389
0.912745 0.419730 0.145741
0.938480 0.416494 0.152156
0.958333 0.416789 0.157345
0.979867 0.416387 0.161608
0.995389 0.416468 0.161857
1.000000 0.416789 0.163231
1.000000 0.416789 0.159436
1.000000 0.418340 0.159517
1.000000 0.428554 0.165931
0.000000 0.502451 0.030882
0.000000 0.511137 0.029933
0.000000 0.512745 0.022457
0.000000 0.510294 0.013251
0.000000 0.511458 0.005086
0.038756 0.508824 0.000460
0.131464 0.508824 0.000000
0.192249 0.505438 0.000000
0.248162 0.503799 0.000000
0.299142 0.499923 0.000000
0.352972 0.493903 0.002022
0.406250 0.489093 0.002941
0.456924 0.482292 0.001103
0.501716 0.478447 0.000000
0.543627 0.474418 0.000000
0.581664 0.463971 0.005193
0.627206 0.461765 0.019853
0.679335 0.464384 0.041100
0.727390 0.468229 0.061458
0.770619 0.469608 0.081648
0.804412 0.469608 0.097549
0.832981 0.467295 0.112623
0.861336 0.466697 0.124265
0.887332 0.465686 0.136596
0.909804 0.464338 0.143627
0.932644 0.463235 0.151563
0.956648 0.463695 0.161244
0.976348 0.463618 0.166299
0.991054 0.461949 0.165870
1.000000 0.464706 0.169608
1.000000 0.466176 0.171078
1.000000 0.470190 0.175000
1.000000 0.475490 0.175000
0.000000 0.533211 0.043137
0.000000 0.556373 0.049337
0.000000 0.564484 0.045711
0.000000 0.563848 0.032108
0.000000 0.560662 0.018995
0.000000 0.554776 0.000977
0.037737 0.554412 0.000000
0.138622 0.548671 0.000000
0.209436 0.544976 0.000000
0.267727 0.541054 0.000000
0.321193 0.536029 0.000000
0.377811 0.530637 0.000000
0.432108 0.522917 0.002911
0.483824 0.516789 0.000000
0.530270 0.512293 0.000000
0.573640 0.508444 0.000000
0.612561 0.502206 0.001593
0.657353 0.494742 0.013469
0.705967 0.498897 0.036068
0.750946 0.502049 0.060103
0.791927 0.503431 0.083104
0.828186 0.503431 0.101528
0.859069 0.503431 0.118865
0.887910 0.504086 0.131089
0.913143 0.502237 0.142555
0.937661 0.501838 0.151980
0.960960 0.502275 0.161956
0.982230 0.501838 0.171569
0.997963 0.503232 0.174234
1.000000 0.503431 0.178948
1.000000 0.499655 0.179044
1.000000 0.501888 0.185026
1.000000 0.507353 0.186642
0.000000 0.565686 0.049265
0.000000 0.588848 0.054848
0.000000 0.594746 0.051118
0.000000 0.594853 0.039790
0.000000 0.589706 0.023070
0.000000 0.585294 0.003699
0.004182 0.583502 0.000000
0.113358 0.579649 0.000000
0.190686 0.576716 0.000000
0.252198 0.574502 0.000000
0.305346 0.570297 0.000000
0.360738 0.567356 0.000000
0.415196 0.560692 0.001072
0.469401 0.555515 0.015081
0.518627 0.550000 0.007093
0.563235 0.547112 0.000000
0.607598 0.542402 0.000000
0.646569 0.532966 0.000000
0.683349 0.526471 0.009329
0.727734 0.525161 0.032146
0.770833 0.529014 0.060539
0.811297 0.533555 0.082943
0.848238 0.536029 0.103922
0.880637 0.536650 0.119983
0.909252 0.538235 0.134804
0.935907 0.538718 0.148154
0.959069 0.540441 0.161933
0.982230 0.540441 0.171446
0.998070 0.538021 0.176746
1.000000 0.538235 0.184314
1.000000 0.536520 0.186903
1.000000 0.540495 0.194838
1.000000 0.542157 0.194363
0.000000 0.596569 0.053064
0.000000 0.615931 0.060784
0.000000 0.621821 0.057116
0.000000 0.621936 0.047622
0.000000 0.620098 0.030775
0.000000 0.616176 0.011152
0.000000 0.614093 0.000000
0.090231 0.610627 0.000000
0.172886 0.610417 0.000000
0.238752 0.607012 0.000000
0.295221 0.605063 0.000000
0.345975 0.603205 0.000000
0.398606 0.597350 0.000000
0.453186 0.593493 0.006694
0.503186 0.587431 0.026555
0.550486 0.581859 0.010903
0.596875 0.576042 0.000000
0.638480 0.570339 0.000000
0.672250 0.562446 0.000000
0.706606 0.554668 0.005771
0.748974 0.554121 0.030224
0.791441 0.559191 0.057250
0.831250 0.563764 0.083050
0.869336 0.567620 0.104848
0.900337 0.569577 0.123284
0.929902 0.573039 0.138725
0.955147 0.573430 0.154412
0.978309 0.573365 0.169527
0.994746 0.572809 0.178569
1.000000 0.573235 0.186937
1.000000 0.575123 0.196684
1.000000 0.577198 0.204224
1.000000 0.576961 0.206005
0.000000 0.629412 0.037255
0.000000 0.637132 0.039216
0.000000 0.641054 0.039216
0.000000 0.643137 0.033701
0.000000 0.641176 0.020098
0.000000 0.642525 0.012377
0.017525 0.641544 0.001103
0.098223 0.641176 0.000000
0.172059 0.639216 0.000000
0.231495 0.637806 0.000000
0.286152 0.639216 0.000000
0.335049 0.634007 0.000000
0.381373 0.630882 0.000000
0.433946 0.629412 0.000000
0.481005 0.623284 0.013358
0.531066 0.619485 0.029657
0.578431 0.613726 0.013725
0.622917 0.608885 0.000000
0.662623 0.606127 0.000000
0.695404 0.598407 0.000000
0.729412 0.591422 0.003431
0.765564 0.588235 0.016422
0.804167 0.591422 0.039583
0.842218 0.596630 0.066605
0.878431 0.600490 0.089216
0.910417 0.605882 0.109988
0.935907 0.607843 0.127328
0.962316 0.611765 0.150551
0.985294 0.615686 0.169363
1.000000 0.618015 0.182904
1.000000 0.619730 0.192525
1.000000 0.621691 0.202145
1.000000 0.623529 0.207843
0.000000 0.658333 0.060417
0.000000 0.671994 0.068440
0.000000 0.675973 0.066667
0.000000 0.676275 0.061006
0.000000 0.674020 0.045711
0.000000 0.673939 0.028431
0.000000 0.672181 0.005492
0.000000 0.670745 0.000000
0.106771 0.668260 0.000000
0.186397 0.667674 0.000000
0.249265 0.667609 0.000000
0.304534 0.664338 0.000000
0.356127 0.661887 0.000000
0.405626 0.659180 0.000000
0.455813 0.657407 0.000000
0.506993 0.653435 0.006510
0.557108 0.647610 0.041054
0.606376 0.645592 0.019363
0.648039 0.641843 0.002068
0.685796 0.637132 0.000000
0.723683 0.633241 0.000000
0.752574 0.625613 0.000000
0.786765 0.619118 0.001302
0.825954 0.622890 0.019336
0.863511 0.629565 0.047794
0.897794 0.633421 0.075735
0.931863 0.637278 0.103163
0.958946 0.640809 0.135336
0.980025 0.644730 0.156265
0.996668 0.644903 0.173506
1.000000 0.648767 0.188611
1.000000 0.650548 0.198284
1.000000 0.654412 0.206005
0.000000 0.683578 0.074020
0.000000 0.697358 0.082215
0.000000 0.699265 0.080254
0.000000 0.701631 0.072832
0.000000 0.695833 0.061244
0.000000 0.697204 0.046078
0.000000 0.693949 0.021324
0.000000 0.692279 0.003807
0.089154 0.691422 0.000000
0.170335 0.690801 0.000000
0.237056 0.690732 0.000000
0.293015 0.689384 0.000000
0.342402 0.688143 0.000000
0.388925 0.686190 0.000000
0.439461 0.686259 0.000000
0.488672 0.680461 0.000000
0.537745 0.677451 0.027941
0.587990 0.673529 0.063120
0.630607 0.668857 0.034528
0.671201 0.666996 0.004075
0.708977 0.663143 0.000000
0.743727 0.657085 0.000000
0.775735 0.650490 0.000000
0.809574 0.648415 0.000000
0.846814 0.652757 0.008272
0.880630 0.654404 0.032353
0.917157 0.660463 0.066743
0.947426 0.663971 0.103945
0.972028 0.668107 0.133793
0.991176 0.670259 0.160616
1.000000 0.675735 0.182843
1.000000 0.679657 0.190564
1.000000 0.683578 0.198284
0.000000 0.706740 0.083946
0.000000 0.718382 0.091667
0.000000 0.722426 0.091789
0.000000 0.722426 0.084463
0.000000 0.718505 0.072871
0.000000 0.718505 0.061029
0.000000 0.715319 0.040686
0.000000 0.715441 0.019118
0.075460 0.715778 0.000797
0.160375 0.716176 0.000000
0.227091 0.717777 0.000000
0.282541 0.714583 0.000000
0.331633 0.714583 0.000000
0.378029 0.713201 0.000000
0.425038 0.712577 0.000000
0.471212 0.709815 0.000000
0.519547 0.704412 0.010172
0.568627 0.701727 0.052217
0.614254 0.697786 0.079795
0.655760 0.694030 0.044432
0.694087 0.691774 0.005974
0.732165 0.687925 0.000000
0.768513 0.684076 0.000000
0.801145 0.679209 0.000000
0.834283 0.677145 0.000000
0.865093 0.677122 0.001019
0.901716 0.679726 0.020833
0.935907 0.685788 0.060053
0.960662 0.691544 0.111397
0.982012 0.695125 0.145493
1.000000 0.699043 0.169853
1.000000 0.702819 0.182843
1.000000 0.706740 0.190564
0.000000 0.729902 0.069608
0.000000 0.738128 0.075383
0.000000 0.738235 0.075490
0.000000 0.739706 0.070956
0.000000 0.738726 0.062255
0.000000 0.742034 0.055775
0.000000 0.740196 0.038450
0.023759 0.740196 0.023667
0.092892 0.741299 0.009191
0.169133 0.740977 0.000000
0.225919 0.742371 0.000000
0.276363 0.741667 0.000000
0.325613 0.740686 0.000000
0.368505 0.740686 0.000000
0.413480 0.739308 0.000000
0.455469 0.738235 0.000000
0.503186 0.735784 0.002451
0.549586 0.731863 0.025199
0.593964 0.729841 0.062500
0.637469 0.726945 0.090564
0.677941 0.724020 0.064216
0.716667 0.721063 0.014522
0.751930 0.717188 0.000000
0.787377 0.716452 0.000000
0.820711 0.713971 0.000000
0.848039 0.709314 0.000000
0.878922 0.709773 0.000000
0.915564 0.714216 0.008502
0.940319 0.718137 0.046752
0.965441 0.720588 0.099648
0.984804 0.724663 0.135294
1.000000 0.728431 0.152129
1.000000 0.732353 0.163725
0.000000 0.762255 0.092892
0.000000 0.766176 0.095508
0.000000 0.768750 0.095466
0.000000 0.769118 0.090690
0.000000 0.768750 0.083012
0.000000 0.766176 0.070378
0.000000 0.765564 0.054534
0.000000 0.767402 0.037868
0.011673 0.768413 0.016054
0.121324 0.767402 0.000000
0.191965 0.768750 0.000000
0.249728 0.767402 0.000000
0.305162 0.766942 0.000000
0.353799 0.767950 0.000000
0.397917 0.766544 0.000000
0.441808 0.766912 0.000000
0.489461 0.766789 0.000000
0.537745 0.764828 0.002413
0.579879 0.763703 0.033433
0.622549 0.761707 0.070588
0.667402 0.757828 0.098009
0.706005 0.756101 0.072741
0.744608 0.753064 0.016766
0.781139 0.749142 0.000000
0.814982 0.746232 0.000000
0.845221 0.741789 0.000000
0.875620 0.738243 0.000000
0.906775 0.737377 0.000000
0.933134 0.737377 0.002099
0.956618 0.741299 0.056005
0.977122 0.742808 0.100000
0.998694 0.747714 0.125410
1.000000 0.749142 0.130637
0.000000 0.785294 0.095343
0.000000 0.790602 0.101877
0.000000 0.790763 0.098284
0.000000 0.791054 0.094485
0.000000 0.790839 0.085692
0.000000 0.787990 0.072848
0.000000 0.786994 0.057108
0.000000 0.787033 0.041789
0.000000 0.787684 0.022549
0.111029 0.787990 0.001448
0.182353 0.787990 0.000000
0.242088 0.789760 0.000000
0.296507 0.790135 0.000000
0.344983 0.788488 0.000000
0.390196 0.789706 0.000000
0.430882 0.790074 0.000000
0.474632 0.789951 0.000000
0.521040 0.787990 0.000000
0.562990 0.786811 0.007950
0.606013 0.785294 0.042777
0.648039 0.782598 0.076716
0.690564 0.780147 0.104611
0.729167 0.778922 0.074050
0.767770 0.776226 0.017762
0.803370 0.773223 0.000000
0.837500 0.769608 0.000000
0.871798 0.765181 0.000000
0.903608 0.762186 0.000000
0.926471 0.761765 0.000000
0.950008 0.762017 0.030277
0.969286 0.764461 0.078355
0.991176 0.767195 0.107391
1.000000 0.768382 0.111275
0.000000 0.812255 0.104167
0.000000 0.811186 0.099177
0.000000 0.811152 0.097181
0.000000 0.811416 0.093486
0.000000 0.811290 0.084298
0.000000 0.809264 0.073407
0.000000 0.808333 0.062500
0.000000 0.808950 0.047675
0.000000 0.811152 0.028676
0.107541 0.811152 0.005205
0.179534 0.811152 0.000000
0.236520 0.811152 0.000000
0.288817 0.813327 0.000000
0.337213 0.811152 0.000000
0.382475 0.811635 0.000000
0.423162 0.812649 0.000000
0.465564 0.812561 0.000000
0.506644 0.811669 0.000000
0.548652 0.809919 0.000000
0.591176 0.808333 0.016464
0.633701 0.808333 0.057920
0.676226 0.808333 0.091533
0.717992 0.806350 0.118099
0.757353 0.804412 0.087688
0.793566 0.802022 0.026838
0.830396 0.800249 0.000000
0.864583 0.796040 0.000000
0.900146 0.792475 0.000000
0.922687 0.788235 0.000965
0.943279 0.787623 0.039989
0.962554 0.784980 0.074740
0.983490 0.787623 0.099142
1.000000 0.787623 0.099142
0.000000 0.836275 0.097059
0.000000 0.834375 0.091268
0.000000 0.833395 0.087500
0.000000 0.837255 0.087255
0.000000 0.837255 0.080760
0.000000 0.833487 0.072181
0.000000 0.834130 0.061887
0.011489 0.835723 0.052145
0.031863 0.838235 0.037990
0.128186 0.836121 0.020129
0.190809 0.835600 0.002757
0.243199 0.838205 0.000000
0.289583 0.838725 0.000000
0.334559 0.836857 0.000000
0.377696 0.838542 0.000000
0.418781 0.838817 0.000000
0.459804 0.840686 0.000000
0.499387 0.840656 0.000000
0.539645 0.838909 0.000000
0.579534 0.840196 0.018137
0.622059 0.839093 0.052941
0.660662 0.839185 0.085417
0.701900 0.838297 0.112439
0.740104 0.835570 0.139614
0.776961 0.833088 0.127206
0.814645 0.832138 0.091912
0.848039 0.830637 0.043321
0.883670 0.827298 0.030790
0.910294 0.819118 0.050123
0.934436 0.817371 0.070803
0.953431 0.814645 0.087561
0.971722 0.813695 0.090901
0.988235 0.813726 0.079412
0.000000 0.864461 0.106740
0.000000 0.865196 0.105787
0.000000 0.864514 0.101402
0.000000 0.861397 0.094485
0.000000 0.862638 0.087623
0.000000 0.861397 0.079423
0.000000 0.861397 0.069118
0.000000 0.862255 0.055270
0.000000 0.862377 0.039951
0.080143 0.863599 0.019608
0.168405 0.863771 0.000804
0.225858 0.864265 0.000000
0.279044 0.864997 0.000000
0.325245 0.864970 0.000000
0.371438 0.865319 0.000000
0.413270 0.866544 0.000000
0.454473 0.865319 0.000000
0.494608 0.868382 0.000000
0.530254 0.868382 0.000000
0.570956 0.868382 0.002489
0.607644 0.866468 0.025980
0.647109 0.867329 0.055810
0.685807 0.865051 0.079534
0.723889 0.863599 0.116046
0.763971 0.861397 0.150551
0.799322 0.858146 0.145278
0.834766 0.857475 0.115028
0.872905 0.853799 0.064514
0.902574 0.849893 0.075260
0.929737 0.842279 0.088071
0.952627 0.837623 0.087446
0.968873 0.830951 0.079615
0.984314 0.830025 0.002574
0.000000 0.888480 0.115196
0.000000 0.888358 0.108900
0.000000 0.887791 0.107399
0.000000 0.885294 0.100613
0.000000 0.885692 0.096722
0.000000 0.887362 0.091782
0.000000 0.887745 0.081235
0.000000 0.888480 0.070588
0.000000 0.885539 0.055944
0.098652 0.888274 0.038971
0.174249 0.886979 0.013450
0.230515 0.887385 0.000253
0.277451 0.888480 0.000000
0.322181 0.886887 0.000000
0.366498 0.888480 0.000000
0.408188 0.886642 0.000000
0.447426 0.885294 0.000000
0.487278 0.886788 0.000000
0.521982 0.888480 0.000000
0.559436 0.888480 0.000000
0.596783 0.888480 0.005882
0.637377 0.888733 0.039223
0.674985 0.888480 0.069623
0.713159 0.887056 0.112339
0.753002 0.887500 0.154228
0.788442 0.882644 0.183042
0.826333 0.884559 0.184069
0.864576 0.881373 0.161259
