luts/SG2.cube
TITLE "sample4"
LUT_3D_SIZE 9
DOMAIN_MIN 0.0 0.0 0.0
DOMAIN_MAX 1.0 1.0 1.0
0.015686 0.015686 0.015686
0.158824 0.015686 0.015686
0.308824 0.015686 0.015686
0.445098 0.019608 0.019608
0.619608 0.023529 0.023529
0.768137 0.032843 0.032843
0.873529 0.039216 0.048039
0.969608 0.050980 0.070098
1.000000 0.137255 0.066667
0.000000 0.169118 0.004412
0.150000 0.165686 0.004841
0.322917 0.149020 0.008211
0.482843 0.133027 0.014706
0.633333 0.115686 0.033333
0.772365 0.098713 0.050674
0.879044 0.097304 0.082843
0.971078 0.140257 0.103983
1.000000 0.213725 0.096569
0.000000 0.344118 0.000000
0.084436 0.347059 0.000000
0.314951 0.337255 0.000000
0.499632 0.318627 0.014338
0.666176 0.312255 0.066667
0.795956 0.296936 0.094608
0.896324 0.293627 0.120833
0.984314 0.309804 0.135294
1.000000 0.335294 0.134314
0.000000 0.502451 0.030882
0.000000 0.511458 0.005086
0.248162 0.503799 0.000000
0.456924 0.482292 0.001103
0.627206 0.461765 0.019853
0.804412 0.469608 0.097549
0.909804 0.464338 0.143627
0.991054 0.461949 0.165870
1.000000 0.475490 0.175000
0.000000 0.629412 0.037255
0.000000 0.641176 0.020098
0.172059 0.639216 0.000000
0.381373 0.630882 0.000000
0.578431 0.613726 0.013725
0.729412 0.591422 0.003431
0.878431 0.600490 0.089216
0.985294 0.615686 0.169363
1.000000 0.623529 0.207843
0.000000 0.729902 0.069608
0.000000 0.738726 0.062255
0.092892 0.741299 0.009191
0.325613 0.740686 0.000000
0.503186 0.735784 0.002451
0.677941 0.724020 0.064216
0.820711 0.713971 0.000000
0.940319 0.718137 0.046752
1.000000 0.732353 0.163725
0.000000 0.836275 0.097059
0.000000 0.837255 0.080760
0.031863 0.838235 0.037990
0.289583 0.838725 0.000000
0.459804 0.840686 0.000000
0.622059 0.839093 0.052941
0.776961 0.833088 0.127206
0.910294 0.819118 0.050123
0.988235 0.813726 0.079412
0.000000 0.933824 0.169118
0.000858 0.930882 0.155882
0.085172 0.931740 0.114461
0.291544 0.934804 0.024816
0.447549 0.935049 0.009314
0.584926 0.936581 0.061397
0.737868 0.937377 0.216176
0.878370 0.934804 0.255882
0.975980 0.900000 0.206373
0.000000 0.980392 0.113725
0.000000 0.980392 0.105882
0.156863 0.983333 0.105882
0.322059 0.984314 0.101961
0.452941 0.986275 0.121569
0.574510 0.988235 0.181863
0.699020 0.991176 0.246078
0.833333 0.992157 0.294608
0.960784 0.992157 0.290196
0.019118 0.019118 0.154902
0.154902 0.015686 0.159252
0.279412 0.019240 0.154534
0.444301 0.019424 0.153431
0.600245 0.023529 0.166912
0.747243 0.031373 0.172059
0.859314 0.036642 0.174632
0.963174 0.051471 0.178922
1.000000 0.058824 0.178922
0.000000 0.160784 0.160846
0.145213 0.161328 0.164874
0.301700 0.162990 0.165135
0.461742 0.165196 0.173675
0.614216 0.153401 0.176440
0.753102 0.131694 0.178592
0.867586 0.118627 0.183594
0.967050 0.139828 0.189714
1.000000 0.196569 0.190196
0.000000 0.333333 0.188848
0.127497 0.336106 0.177083
0.316054 0.326379 0.173376
0.492953 0.317739 0.183150
0.647059 0.309559 0.193076
0.777895 0.295052 0.196523
0.884712 0.290104 0.202359
0.978937 0.300674 0.209206
1.000000 0.318137 0.206740
0.000000 0.492463 0.189706
0.043474 0.501585 0.174732
0.257920 0.492111 0.142662
0.461765 0.471752 0.171569
0.633915 0.454412 0.164461
0.797848 0.461213 0.206127
0.906939 0.455622 0.226915
0.992586 0.455086 0.238419
1.000000 0.466483 0.241483
0.000000 0.627451 0.181863
0.000000 0.639032 0.172580
0.204044 0.635968 0.125980
0.397059 0.625980 0.137347
0.587377 0.604902 0.170343
0.736765 0.582353 0.143382
0.886275 0.597059 0.198529
0.985754 0.613726 0.253707
1.000000 0.619608 0.277206
0.000000 0.732843 0.185294
0.000000 0.743627 0.181457
0.163526 0.741713 0.144102
0.345718 0.738350 0.115388
0.517892 0.730637 0.154565
0.688611 0.717463 0.180706
0.827941 0.703922 0.124326
0.949058 0.716399 0.185440
1.000000 0.730699 0.251777
0.000000 0.834926 0.193137
0.000000 0.835616 0.184972
0.128186 0.836275 0.157843
0.312102 0.837025 0.113603
0.472733 0.837684 0.110417
0.632230 0.833778 0.177282
0.789124 0.828830 0.212531
0.916728 0.815135 0.176088
0.990196 0.809681 0.215686
0.013113 0.931311 0.242096
0.018444 0.930882 0.230507
0.160938 0.931526 0.199479
0.308310 0.934536 0.137952
0.460049 0.935018 0.130147
0.592356 0.935187 0.151693
0.744286 0.934268 0.281710
0.883877 0.931311 0.316062
0.976471 0.894179 0.275980
0.000000 0.980392 0.229412
0.000000 0.980392 0.225490
0.197549 0.983333 0.221569
0.334988 0.984314 0.211458
0.458824 0.986275 0.212255
0.578248 0.985907 0.244730
0.699387 0.988603 0.296078
0.833272 0.992096 0.339767
0.960784 0.992157 0.340196
0.016667 0.016667 0.267647
0.150980 0.016667 0.272426
0.271569 0.019608 0.290441
0.406495 0.024510 0.298652
0.566176 0.028922 0.296078
0.731740 0.031373 0.283456
0.850245 0.036275 0.278676
0.955392 0.072426 0.291176
1.000000 0.147059 0.287255
0.000000 0.161397 0.280025
0.135064 0.165196 0.285248
0.284038 0.171324 0.313726
0.417846 0.175184 0.314354
0.587745 0.158027 0.299449
0.732644 0.143015 0.288986
0.852696 0.186091 0.298652
0.959743 0.196814 0.299387
1.000000 0.221446 0.295588
0.000000 0.330392 0.323284
0.153064 0.330760 0.329013
0.301471 0.324081 0.328799
0.457813 0.317892 0.321875
0.604534 0.313603 0.315319
0.743658 0.308670 0.313572
0.865931 0.313174 0.317279
0.968750 0.321906 0.320435
1.000000 0.330882 0.312255
0.000000 0.481863 0.334926
0.134896 0.488251 0.341176
0.278094 0.483824 0.318413
0.449510 0.468505 0.319899
0.625980 0.465196 0.321446
0.775000 0.468459 0.340947
0.887929 0.467310 0.347365
0.980208 0.470650 0.348591
1.000000 0.472672 0.343627
0.000000 0.619608 0.334804
0.076838 0.628186 0.340196
0.236887 0.627451 0.303064
0.389645 0.621936 0.271630
0.580637 0.602696 0.309559
0.735110 0.583946 0.280025
0.880025 0.608701 0.337255
0.979902 0.628922 0.382782
1.000000 0.628922 0.389706
0.000000 0.728554 0.327328
0.035202 0.737960 0.328631
0.209896 0.737377 0.298162
0.344470 0.737163 0.246308
0.512439 0.729412 0.278309
0.684804 0.718015 0.313664
0.830239 0.708793 0.255086
0.950475 0.725888 0.323269
1.000000 0.741667 0.375000
0.000000 0.832108 0.319363
0.021752 0.835662 0.318015
0.184069 0.836275 0.295527
0.326164 0.836887 0.250980
0.478309 0.839583 0.241544
0.633241 0.836887 0.300000
0.786765 0.829105 0.336765
0.919087 0.818505 0.306219
0.993137 0.816422 0.334069
0.022304 0.930515 0.360294
0.036933 0.927451 0.351869
0.221354 0.928646 0.330913
0.334972 0.934406 0.279274
0.460846 0.935110 0.244975
0.596385 0.936504 0.257950
0.747396 0.933946 0.384498
0.884161 0.934528 0.412469
0.976961 0.894608 0.375980
0.000000 0.977451 0.335294
0.000000 0.977819 0.334314
0.218627 0.980637 0.332843
0.346446 0.983701 0.323039
0.462255 0.984314 0.313726
0.581985 0.988235 0.335784
0.701226 0.988480 0.375735
0.833333 0.991299 0.417157
0.964706 0.992157 0.424510
0.018137 0.019608 0.378431
0.148836 0.019608 0.379902
0.270466 0.022426 0.415686
0.404412 0.028983 0.441238
0.525000 0.035294 0.426225
0.664277 0.050061 0.427022
0.828922 0.045588 0.408333
0.954412 0.049142 0.389706
1.000000 0.058824 0.364216
0.000000 0.169118 0.402941
0.140847 0.175222 0.411803
0.273529 0.179105 0.430576
0.408019 0.176968 0.450490
0.530576 0.177941 0.435386
0.671936 0.164323 0.428784
0.837117 0.144746 0.413281
0.954266 0.116896 0.393589
1.000000 0.159926 0.384130
0.000000 0.325490 0.439216
0.130959 0.325843 0.441850
0.278309 0.323346 0.446691
0.417019 0.318229 0.457491
0.545037 0.314951 0.452083
0.713113 0.301639 0.434544
0.850950 0.295037 0.421569
0.956909 0.315594 0.421477
1.000000 0.345098 0.420711
0.008885 0.471507 0.458272
0.140434 0.477811 0.464821
0.293398 0.470205 0.463833
0.433418 0.464790 0.465686
0.589124 0.457598 0.458303
0.726900 0.457782 0.455331
0.854274 0.464154 0.459314
0.960983 0.472549 0.460187
1.000000 0.473897 0.450429
0.035784 0.611765 0.464706
0.134804 0.620435 0.473866
0.290625 0.615870 0.471507
0.410570 0.612776 0.446783
0.568750 0.600980 0.454412
0.725735 0.595313 0.449755
0.861949 0.622549 0.487561
0.962653 0.639859 0.513726
1.000000 0.636029 0.506618
0.058272 0.725000 0.459804
0.158655 0.733640 0.470297
0.290211 0.729151 0.465916
0.388258 0.729435 0.427099
0.517433 0.724755 0.413205
0.680676 0.715970 0.449020
0.825965 0.709176 0.399694
0.948537 0.742647 0.487063
1.000000 0.755944 0.511275
0.046201 0.831373 0.460417
0.148009 0.832506 0.460830
0.265594 0.833180 0.447426
0.371446 0.835463 0.410463
0.490502 0.837806 0.373100
0.635034 0.835585 0.419715
0.786305 0.831219 0.473713
0.920542 0.825490 0.437255
0.995956 0.823407 0.462623
0.072855 0.926961 0.476777
0.191460 0.926693 0.476203
0.301685 0.928156 0.472825
0.393804 0.931189 0.444899
0.477512 0.935600 0.369700
0.606855 0.935470 0.375421
0.751486 0.933762 0.493689
0.884352 0.934352 0.520136
0.976961 0.898039 0.483333
0.000000 0.977941 0.442647
0.124816 0.977941 0.442647
0.261275 0.979412 0.443627
0.369669 0.980392 0.436336
0.473039 0.984314 0.420833
0.585723 0.984314 0.431801
0.700123 0.986397 0.461275
0.835478 0.991973 0.508027
0.972549 0.989706 0.517157
0.039216 0.021569 0.503922
0.161029 0.023529 0.513235
0.276471 0.028922 0.525000
0.383824 0.035294 0.561275
0.519608 0.042157 0.570588
0.641912 0.058333 0.546569
0.769118 0.075000 0.551471
0.906127 0.080392 0.528676
1.000000 0.070588 0.488235
0.017157 0.178922 0.524265
0.147794 0.181158 0.528615
0.269853 0.183701 0.539890
0.383517 0.181464 0.568474
0.521936 0.175613 0.576961
0.645190 0.182200 0.554504
0.771262 0.179473 0.558088
0.908548 0.166299 0.534314
0.999510 0.082598 0.494608
0.000000 0.319118 0.545098
0.119179 0.320588 0.549694
0.267892 0.322794 0.554902
0.391360 0.320159 0.573039
0.528676 0.314951 0.584804
0.652941 0.320956 0.571569
0.784191 0.327083 0.571691
0.932537 0.312868 0.546201
1.000000 0.277451 0.504412
0.008578 0.463971 0.567647
0.129167 0.469056 0.574357
0.278554 0.465319 0.574632
0.408119 0.462714 0.579167
0.544730 0.457475 0.593015
0.671109 0.458364 0.590472
0.823836 0.452083 0.576348
0.952880 0.436857 0.556648
1.000000 0.427696 0.528922
0.054902 0.603922 0.583333
0.152328 0.609804 0.591422
0.297549 0.604902 0.591176
0.429779 0.600735 0.591912
0.559804 0.594118 0.593627
0.701716 0.595098 0.591544
0.827941 0.600245 0.593137
0.940564 0.614583 0.603799
1.000000 0.611765 0.593137
0.076471 0.721569 0.579902
0.189522 0.727757 0.589063
0.314951 0.723652 0.589767
0.432904 0.720067 0.588235
0.539216 0.718137 0.566422
0.677451 0.713695 0.583670
0.819118 0.718199 0.581863
0.943290 0.760692 0.639216
1.000000 0.768627 0.646078
0.092647 0.832843 0.586765
0.217525 0.831924 0.586458
0.333824 0.830882 0.589828
0.443505 0.830882 0.590135
0.528676 0.834804 0.550980
0.647549 0.832659 0.553922
0.786520 0.828554 0.602328
0.917647 0.829841 0.582108
0.997059 0.838235 0.605882
0.197059 0.926716 0.592892
0.268290 0.926746 0.594393
0.361152 0.926961 0.596078
0.455576 0.929442 0.594853
0.535294 0.932108 0.562745
0.631373 0.936183 0.535110
0.759069 0.936275 0.599265
0.890012 0.934528 0.626471
0.978922 0.904412 0.599265
0.200000 0.976471 0.560784
0.251961 0.976471 0.561029
0.336275 0.976961 0.563235
0.425000 0.979167 0.562745
0.512745 0.980392 0.550000
0.607843 0.984314 0.544608
0.717157 0.986275 0.569608
0.842892 0.990196 0.610294
0.978431 0.980392 0.625490
0.099510 0.053922 0.608333
0.171262 0.060294 0.612255
0.271569 0.062377 0.617892
0.382353 0.043689 0.630392
0.481618 0.050980 0.677451
0.630882 0.064216 0.688787
0.756863 0.083333 0.664338
0.874694 0.098529 0.659007
0.959314 0.107353 0.629412
0.069914 0.187439 0.619792
0.159850 0.190525 0.623039
0.264522 0.194102 0.630622
0.377512 0.194616 0.640862
0.480392 0.191820 0.684069
0.632054 0.187768 0.692961
0.757981 0.193045 0.671569
0.873729 0.181066 0.662270
0.960968 0.127267 0.635784
0.052206 0.318627 0.634804
0.152957 0.320358 0.637883
0.267892 0.322518 0.644485
0.376762 0.324510 0.656204
0.488787 0.325735 0.692463
0.640319 0.326440 0.705254
0.765012 0.335049 0.684773
0.881235 0.334436 0.678431
0.973407 0.318750 0.643137
0.054841 0.453064 0.655882
0.147373 0.457062 0.662630
0.274694 0.456143 0.662745
0.396017 0.462109 0.673529
0.514246 0.463235 0.699295
0.653945 0.462661 0.712684
0.775904 0.466927 0.703339
0.895159 0.465005 0.695389
0.992647 0.433885 0.649632
0.081863 0.592157 0.680882
0.182843 0.595588 0.686275
0.305699 0.593934 0.686213
0.425950 0.593352 0.689185
0.544363 0.593137 0.697917
0.667892 0.594577 0.709988
0.787990 0.594118 0.713909
0.923468 0.586612 0.698376
1.000000 0.563480 0.662745
0.084007 0.718627 0.693566
0.208946 0.718559 0.696385
0.324740 0.715625 0.696017
0.441644 0.713787 0.699426
0.558150 0.713235 0.703922
0.679067 0.713235 0.708969
0.807782 0.720665 0.716376
0.927451 0.730898 0.722059
0.999081 0.733333 0.720037
0.155882 0.831740 0.702941
0.250444 0.831541 0.703018
0.358272 0.831005 0.708333
0.463235 0.829121 0.708410
0.571262 0.827083 0.709252
0.673162 0.829351 0.699770
0.789216 0.827359 0.718260
0.921017 0.837194 0.717325
0.998162 0.861275 0.751471
0.236765 0.929105 0.703125
0.299632 0.928087 0.704067
0.389262 0.929029 0.706832
0.484620 0.929427 0.708647
0.582782 0.930882 0.711121
0.665441 0.935608 0.685417
0.770052 0.935907 0.698300
0.896408 0.936949 0.732437
0.981863 0.915686 0.719118
0.216667 0.976471 0.657843
0.289706 0.976471 0.661765
0.394608 0.976471 0.674020
0.500858 0.977941 0.687684
0.571569 0.980392 0.683578
0.644730 0.980944 0.666789
0.744485 0.986765 0.680270
0.856556 0.989706 0.718321
0.984314 0.984314 0.739216
0.130392 0.098039 0.696078
0.186765 0.101961 0.699510
0.274510 0.109069 0.706863
0.375000 0.110784 0.718505
0.483824 0.100490 0.747059
0.594608 0.076961 0.798039
0.745833 0.087990 0.804657
0.868505 0.110172 0.768382
0.952941 0.117647 0.740196
0.116789 0.194975 0.703799
0.178661 0.198269 0.705331
0.269363 0.203309 0.713480
0.370772 0.209865 0.727099
0.483640 0.217034 0.754167
0.592770 0.213894 0.804029
0.745711 0.198897 0.810294
0.866942 0.193811 0.772963
0.954044 0.141176 0.745711
0.100000 0.318137 0.720098
0.177145 0.319638 0.721691
0.274571 0.325490 0.730086
0.371017 0.331679 0.745558
0.491299 0.338480 0.766176
0.600797 0.342310 0.813419
0.752206 0.338542 0.818934
0.872947 0.342800 0.784007
0.957108 0.331618 0.757108
0.068627 0.442157 0.741544
0.161811 0.446936 0.746569
0.290870 0.456587 0.753523
0.397672 0.464338 0.766590
0.508333 0.471078 0.784375
0.619409 0.471829 0.818627
0.763695 0.470374 0.825123
0.881327 0.472718 0.800551
0.964216 0.458211 0.773529
0.096078 0.582353 0.768137
0.208395 0.587561 0.774816
0.309926 0.587377 0.776103
0.419424 0.589093 0.781066
0.533088 0.595833 0.793137
0.646875 0.598529 0.817279
0.774510 0.596569 0.821078
0.894669 0.598958 0.816176
0.972549 0.581373 0.787745
0.130147 0.712868 0.790196
0.225843 0.711152 0.792647
0.328922 0.709222 0.792647
0.440748 0.710417 0.796339
0.555331 0.710233 0.799939
0.671400 0.714400 0.810784
0.788542 0.718137 0.819424
0.904488 0.717770 0.824770
0.991054 0.703799 0.795588
0.206863 0.828676 0.809069
0.278217 0.826746 0.807108
0.373223 0.826471 0.808027
0.475858 0.824510 0.810938
0.583578 0.825613 0.814828
0.687010 0.825521 0.818627
0.794056 0.827390 0.821998
0.919148 0.836305 0.831342
0.992157 0.844363 0.834314
0.269118 0.933824 0.812010
0.326317 0.930407 0.811229
0.409161 0.929749 0.813909
0.503018 0.930653 0.816942
0.598713 0.931127 0.818382
0.696017 0.934804 0.820221
0.790012 0.935938 0.811826
0.901348 0.934911 0.829688
0.985294 0.932230 0.835784
0.241176 0.980392 0.764706
0.306373 0.979534 0.767647
0.398775 0.980392 0.772304
0.495588 0.978554 0.776471
0.600490 0.976961 0.784314
0.714583 0.984314 0.804412
0.787745 0.986029 0.798775
0.882230 0.989583 0.824020
0.989216 0.992157 0.850980
0.169608 0.133824 0.785784
0.211275 0.137316 0.788848
0.284804 0.145588 0.797426
0.378431 0.155882 0.811765
0.484069 0.161275 0.826716
0.586581 0.143811 0.870588
0.706373 0.106005 0.912255
0.868627 0.118137 0.922610
0.953431 0.125980 0.845588
0.162194 0.213297 0.793076
0.207246 0.214706 0.794815
0.285110 0.221998 0.804473
0.374854 0.230147 0.818850
0.484099 0.237806 0.834559
0.588565 0.240610 0.874510
0.708211 0.232843 0.918689
0.864752 0.192823 0.920581
0.952390 0.141667 0.849571
0.158824 0.325000 0.808333
0.209344 0.327589 0.813113
0.290809 0.332966 0.820313
0.379182 0.343153 0.834222
0.487806 0.352206 0.851409
0.599556 0.358333 0.885953
0.713817 0.359161 0.923529
0.865993 0.347702 0.923698
0.954902 0.339461 0.863480
0.164400 0.451471 0.833824
0.225391 0.454986 0.837278
0.312071 0.459681 0.843137
0.404527 0.467463 0.856549
0.503523 0.477482 0.873621
0.620948 0.481978 0.895037
0.728968 0.485172 0.926884
0.871569 0.477413 0.920749
0.960172 0.464093 0.875551
0.162010 0.578431 0.860294
0.230607 0.580576 0.863940
0.318811 0.580821 0.866115
0.432384 0.591023 0.872855
0.527574 0.599020 0.889583
0.640135 0.604167 0.904810
0.754412 0.605637 0.923468
0.885325 0.602175 0.920864
0.966667 0.590196 0.885784
0.218934 0.706373 0.885110
0.269953 0.705476 0.884842
0.354243 0.707659 0.887669
0.448039 0.710103 0.891360
0.549020 0.711673 0.897978
0.660478 0.719723 0.911389
0.778064 0.722105 0.922672
0.893627 0.720443 0.925345
0.971569 0.711458 0.895098
0.250000 0.822549 0.900490
0.307476 0.819976 0.903217
0.392892 0.822825 0.904933
0.484498 0.819960 0.904642
0.585907 0.823529 0.909559
0.688634 0.826639 0.914752
0.795159 0.829749 0.919945
0.904718 0.831143 0.930086
0.978431 0.826471 0.910294
0.297672 0.933885 0.915257
0.353608 0.930829 0.915571
0.433012 0.933134 0.917923
0.520205 0.932475 0.919118
0.613266 0.933303 0.921078
0.707498 0.935256 0.924326
0.804718 0.934850 0.926961
0.911772 0.934804 0.929971
0.993076 0.943076 0.939154
0.347059 0.984314 0.883824
0.396569 0.984314 0.887745
0.469118 0.984681 0.890686
0.551471 0.985784 0.895588
0.642157 0.986520 0.899755
0.734988 0.986949 0.907537
0.839583 0.992157 0.920098
0.946630 0.999571 0.950551
1.000000 1.000000 0.970098
0.203922 0.145098 0.854902
0.234804 0.149020 0.858824
0.300000 0.156863 0.866667
0.377451 0.168627 0.880882
0.474510 0.180392 0.896078
0.586275 0.184314 0.920588
0.678431 0.114706 0.970588
0.814706 0.129902 1.000000
0.952941 0.133333 0.976471
0.197549 0.218627 0.862745
0.230392 0.218627 0.866176
0.296446 0.223407 0.871446
0.376164 0.234314 0.884988
0.474755 0.245833 0.903922
0.585784 0.253615 0.926654
0.675490 0.244118 0.976593
0.811091 0.201777 1.000000
0.955392 0.152941 0.978431
0.200000 0.325490 0.880392
0.235784 0.326471 0.881373
0.302206 0.332598 0.889216
0.379902 0.340074 0.903431
0.474510 0.349020 0.918627
0.587745 0.357230 0.940564
0.676226 0.360049 0.981373
0.815074 0.349632 0.999632
0.949020 0.327451 0.977451
0.233824 0.452941 0.904412
0.266176 0.452941 0.908333
0.324510 0.456863 0.915196
0.399510 0.464706 0.927022
0.480392 0.469363 0.940441
0.593199 0.474020 0.955944
0.689828 0.476593 0.989461
0.827267 0.471936 0.996078
0.952941 0.461275 0.978431
0.235294 0.566667 0.927451
0.292647 0.575980 0.931373
0.372549 0.586275 0.938235
0.437010 0.588971 0.943873
0.505882 0.592157 0.958824
0.598039 0.594118 0.973284
0.718627 0.593627 0.988235
0.846569 0.593873 0.997794
0.958824 0.588235 0.982353
0.266176 0.684314 0.948039
0.303431 0.684314 0.950306
0.370098 0.688235 0.954044
0.453431 0.696078 0.958333
0.555637 0.710294 0.966667
0.632353 0.711765 0.980392
0.755270 0.710294 0.984681
0.865380 0.711275 0.997365
0.969608 0.712255 0.987745
0.314706 0.798039 0.968627
0.351471 0.796446 0.968627
0.415686 0.796078 0.968627
0.496569 0.799632 0.970343
0.589216 0.805392 0.974020
0.690441 0.812500 0.978186
0.783824 0.822549 0.988235
0.888725 0.822426 0.996936
0.980392 0.825490 0.993137
0.367157 0.919118 0.984314
0.408946 0.915686 0.980882
0.470711 0.915686 0.983456
0.545772 0.918015 0.984498
0.631618 0.917892 0.986520
0.720404 0.920895 0.989522
0.820098 0.923529 0.988725
0.924081 0.938297 0.992218
0.989706 0.942647 0.995588
0.509804 0.992157 0.968627
0.540686 0.992647 0.972549
0.587255 0.996078 0.976471
0.644118 0.993627 0.977941
0.715686 0.996078 0.980392
0.800490 0.996078 0.984314
0.894118 0.997059 0.989216
0.980882 1.000000 0.996078
1.000000 1.000000 1.000000
