luts/SG2.cube
TITLE "sample4"
LUT_3D_SIZE 5
DOMAIN_MIN 0.0 0.0 0.0
DOMAIN_MAX 1.0 1.0 1.0
0.015686 0.015686 0.015686
0.308824 0.015686 0.015686
0.619608 0.023529 0.023529
0.873529 0.039216 0.048039
1.000000 0.137255 0.066667
0.000000 0.344118 0.000000
0.314951 0.337255 0.000000
0.666176 0.312255 0.066667
0.896324 0.293627 0.120833
1.000000 0.335294 0.134314
0.000000 0.629412 0.037255
0.172059 0.639216 0.000000
0.578431 0.613726 0.013725
0.878431 0.600490 0.089216
1.000000 0.623529 0.207843
0.000000 0.836275 0.097059
0.031863 0.838235 0.037990
0.459804 0.840686 0.000000
0.776961 0.833088 0.127206
0.988235 0.813726 0.079412
0.000000 0.980392 0.113725
0.156863 0.983333 0.105882
0.452941 0.986275 0.121569
0.699020 0.991176 0.246078
0.960784 0.992157 0.290196
0.016667 0.016667 0.267647
0.271569 0.019608 0.290441
0.566176 0.028922 0.296078
0.850245 0.036275 0.278676
1.000000 0.147059 0.287255
0.000000 0.330392 0.323284
0.301471 0.324081 0.328799
0.604534 0.313603 0.315319
0.865931 0.313174 0.317279
1.000000 0.330882 0.312255
0.000000 0.619608 0.334804
0.236887 0.627451 0.303064
0.580637 0.602696 0.309559
0.880025 0.608701 0.337255
1.000000 0.628922 0.389706
0.000000 0.832108 0.319363
0.184069 0.836275 0.295527
0.478309 0.839583 0.241544
0.786765 0.829105 0.336765
0.993137 0.816422 0.334069
0.000000 0.977451 0.335294
0.218627 0.980637 0.332843
0.462255 0.984314 0.313726
0.701226 0.988480 0.375735
0.964706 0.992157 0.424510
0.039216 0.021569 0.503922
0.276471 0.028922 0.525000
0.519608 0.042157 0.570588
0.769118 0.075000 0.551471
1.000000 0.070588 0.488235
0.000000 0.319118 0.545098
0.267892 0.322794 0.554902
0.528676 0.314951 0.584804
0.784191 0.327083 0.571691
1.000000 0.277451 0.504412
0.054902 0.603922 0.583333
0.297549 0.604902 0.591176
0.559804 0.594118 0.593627
0.827941 0.600245 0.593137
1.000000 0.611765 0.593137
0.092647 0.832843 0.586765
0.333824 0.830882 0.589828
0.528676 0.834804 0.550980
0.786520 0.828554 0.602328
0.997059 0.838235 0.605882
0.200000 0.976471 0.560784
0.336275 0.976961 0.563235
0.512745 0.980392 0.550000
0.717157 0.986275 0.569608
0.978431 0.980392 0.625490
0.130392 0.098039 0.696078
0.274510 0.109069 0.706863
0.483824 0.100490 0.747059
0.745833 0.087990 0.804657
0.952941 0.117647 0.740196
0.100000 0.318137 0.720098
0.274571 0.325490 0.730086
0.491299 0.338480 0.766176
0.752206 0.338542 0.818934
0.957108 0.331618 0.757108
0.096078 0.582353 0.768137
0.309926 0.587377 0.776103
0.533088 0.595833 0.793137
0.774510 0.596569 0.821078
0.972549 0.581373 0.787745
0.206863 0.828676 0.809069
0.373223 0.826471 0.808027
0.583578 0.825613 0.814828
0.794056 0.827390 0.821998
0.992157 0.844363 0.834314
0.241176 0.980392 0.764706
0.398775 0.980392 0.772304
0.600490 0.976961 0.784314
0.787745 0.986029 0.798775
0.989216 0.992157 0.850980
0.203922 0.145098 0.854902
0.300000 0.156863 0.866667
0.474510 0.180392 0.896078
0.678431 0.114706 0.970588
0.952941 0.133333 0.976471
0.200000 0.325490 0.880392
0.302206 0.332598 0.889216
0.474510 0.349020 0.918627
0.676226 0.360049 0.981373
0.949020 0.327451 0.977451
0.235294 0.566667 0.927451
0.372549 0.586275 0.938235
0.505882 0.592157 0.958824
0.718627 0.593627 0.988235
0.958824 0.588235 0.982353
0.314706 0.798039 0.968627
0.415686 0.796078 0.968627
0.589216 0.805392 0.974020
0.783824 0.822549 0.988235
0.980392 0.825490 0.993137
0.509804 0.992157 0.968627
0.587255 0.996078 0.976471
0.715686 0.996078 0.980392
0.894118 0.997059 0.989216
1.000000 1.000000 1.000000
