luts/SG3.cube
TITLE "sample6"
LUT_3D_SIZE 33
DOMAIN_MIN 0.0 0.0 0.0
DOMAIN_MAX 1.0 1.0 1.0
0.015686 0.015686 0.019608
0.061887 0.019485 0.019485
0.097059 0.019363 0.019363
0.127941 0.016054 0.016054
0.162255 0.015686 0.015686
0.200858 0.015686 0.015686
0.243382 0.015686 0.015686
0.285907 0.019608 0.019608
0.320588 0.015686 0.015686
0.362010 0.018505 0.018505
0.397794 0.015686 0.016912
0.436397 0.018260 0.019608
0.472549 0.019608 0.019608
0.518260 0.019608 0.021936
0.566176 0.023529 0.023529
0.612500 0.023529 0.023529
0.658824 0.025490 0.025490
0.703309 0.029289 0.029289
0.741912 0.031373 0.031373
0.776593 0.031373 0.031373
0.807353 0.035294 0.036765
0.832843 0.035294 0.035294
0.862500 0.040441 0.040441
0.885662 0.043137 0.043137
0.908824 0.043137 0.043137
0.931985 0.047059 0.047059
0.954412 0.047794 0.050980
0.974387 0.050980 0.051593
0.993137 0.051471 0.054902
1.000000 0.055270 0.058824
1.000000 0.058824 0.059069
1.000000 0.091544 0.058946
1.000000 0.152941 0.058824
0.000368 0.057966 0.015686
0.046086 0.061650 0.015686
0.089093 0.054289 0.015449
0.127462 0.043126 0.015686
0.162270 0.028033 0.015686
0.200858 0.016402 0.015809
0.239484 0.015709 0.015709
0.278895 0.019485 0.019485
0.316667 0.015778 0.015778
0.355270 0.018539 0.018539
0.393873 0.015771 0.015771
0.431170 0.018302 0.018302
0.468581 0.019608 0.019608
0.515931 0.019658 0.019658
0.566054 0.023460 0.023460
0.610417 0.023529 0.023587
0.654963 0.025429 0.025490
0.701291 0.029289 0.029289
0.738059 0.031373 0.031373
0.772744 0.031373 0.031445
0.805882 0.035294 0.036719
0.831618 0.035375 0.035375
0.862416 0.039131 0.040441
0.885574 0.043015 0.043049
0.908854 0.043168 0.043168
0.932081 0.047059 0.047059
0.955124 0.047894 0.050980
0.974491 0.051593 0.051593
0.993244 0.054902 0.054902
1.000000 0.055381 0.058824
1.000000 0.058824 0.059069
1.000000 0.114220 0.058824
1.000000 0.160662 0.058824
0.000000 0.085539 0.011765
0.049763 0.089216 0.015334
0.085049 0.088986 0.015441
0.123652 0.085417 0.015464
0.161795 0.073805 0.012010
0.200896 0.068742 0.015112
0.243183 0.047304 0.015732
0.281740 0.025452 0.019363
0.316851 0.015870 0.015870
0.358157 0.018574 0.018574
0.393873 0.015855 0.015855
0.432475 0.018344 0.018344
0.473284 0.019608 0.019608
0.519853 0.019608 0.021890
0.567647 0.023392 0.023392
0.610417 0.023529 0.023644
0.656863 0.025368 0.025490
0.701226 0.029289 0.029289
0.737990 0.031373 0.031373
0.772817 0.031373 0.031518
0.805790 0.035294 0.036673
0.831656 0.035455 0.035455
0.862332 0.039047 0.040441
0.885486 0.042892 0.042961
0.908885 0.043199 0.043199
0.935049 0.047059 0.047059
0.955300 0.047993 0.050980
0.977696 0.051019 0.051593
0.993352 0.054902 0.054902
1.000000 0.055492 0.058824
1.000000 0.060938 0.058839
1.000000 0.133456 0.058824
1.000000 0.168382 0.055147
0.000000 0.119730 0.008211
0.046212 0.120098 0.011297
0.081495 0.120098 0.011543
0.119765 0.119765 0.011765
0.155101 0.112699 0.008211
0.200670 0.108023 0.011577
0.247005 0.096638 0.011834
0.289093 0.092115 0.015606
0.324418 0.076808 0.012408
0.362849 0.064828 0.016054
0.397679 0.044148 0.015939
0.436156 0.023273 0.018386
0.481005 0.019608 0.019608
0.527328 0.021867 0.021867
0.571446 0.023323 0.023529
0.614338 0.023702 0.023702
0.658640 0.025306 0.027267
0.701421 0.029289 0.029289
0.737990 0.031373 0.031373
0.772890 0.031373 0.031373
0.805744 0.035294 0.036627
0.831736 0.035535 0.035535
0.862247 0.040074 0.040441
0.885662 0.042873 0.042873
0.909804 0.043229 0.043229
0.935826 0.047059 0.047059
0.955446 0.048093 0.050980
0.977696 0.051038 0.051593
0.993459 0.054902 0.054902
1.000000 0.055603 0.058824
1.000000 0.100728 0.058824
1.000000 0.152685 0.055369
1.000000 0.183578 0.055270
0.000000 0.171569 0.004412
0.028094 0.174893 0.004305
0.070343 0.171569 0.001195
0.118919 0.168459 0.004412
0.164277 0.168566 0.004412
0.206694 0.163802 0.007797
0.256955 0.155576 0.007935
0.303064 0.148407 0.008333
0.344608 0.143627 0.011275
0.378294 0.133104 0.008824
0.421232 0.128186 0.012255
0.464660 0.120833 0.012745
0.509314 0.111520 0.014890
0.549877 0.103554 0.016376
0.592402 0.102022 0.020098
0.633318 0.099249 0.022151
0.674020 0.090441 0.022059
0.714936 0.087837 0.026072
0.751501 0.081342 0.029442
0.782276 0.071155 0.029335
0.813726 0.063113 0.035110
0.838879 0.055882 0.036795
0.864124 0.052604 0.038879
0.887623 0.057338 0.042647
0.910784 0.065074 0.042770
0.933946 0.084268 0.044271
0.956373 0.110509 0.048100
0.979167 0.131357 0.057843
0.994669 0.151164 0.057843
0.999556 0.168873 0.057843
1.000000 0.184835 0.051011
1.000000 0.204672 0.054305
1.000000 0.221569 0.057843
0.000000 0.209314 0.000000
0.000000 0.212519 0.000000
0.028148 0.212661 0.000000
0.089461 0.209624 0.000555
0.142892 0.209115 0.000000
0.192498 0.204875 0.000613
0.239959 0.197174 0.000498
0.286140 0.189951 0.003198
0.334620 0.188634 0.004075
0.381177 0.182181 0.004534
0.430637 0.180216 0.006809
0.473250 0.174142 0.007843
0.516054 0.170113 0.010907
0.557836 0.165931 0.012377
0.598997 0.160003 0.014170
0.639013 0.156495 0.016012
0.680086 0.152574 0.018260
0.720753 0.150410 0.020221
0.753408 0.148039 0.021936
0.786765 0.145826 0.025486
0.815794 0.145956 0.027681
0.841088 0.143907 0.029814
0.868696 0.143926 0.034260
0.893333 0.147426 0.035907
0.916207 0.149173 0.039369
0.939694 0.156874 0.040552
0.961642 0.166307 0.044256
0.984926 0.181346 0.054289
0.997105 0.193581 0.054825
1.000000 0.202206 0.054599
1.000000 0.213725 0.053876
1.000000 0.232985 0.051206
1.000000 0.245833 0.069363
0.000000 0.248039 0.000000
0.000000 0.254948 0.000000
0.001379 0.251961 0.000000
0.065265 0.251961 0.000000
0.120741 0.248438 0.000000
0.176455 0.247419 0.000000
0.234804 0.246569 0.000000
0.283739 0.245420 0.000000
0.330576 0.238725 0.000000
0.385172 0.235539 0.000000
0.437975 0.234804 0.000000
0.484812 0.231495 0.000000
0.529688 0.226961 0.001195
0.571392 0.224334 0.002765
0.611688 0.220512 0.005070
0.648897 0.214805 0.008234
0.689461 0.211275 0.010539
0.728186 0.209046 0.012500
0.760784 0.204825 0.015610
0.791981 0.203431 0.017716
0.822825 0.203156 0.020343
0.848277 0.203431 0.023269
0.873529 0.205622 0.027451
0.900613 0.207146 0.031373
0.923162 0.207537 0.032292
0.943750 0.212132 0.043382
0.965441 0.219256 0.058686
0.987607 0.227688 0.072419
1.000000 0.236673 0.073039
1.000000 0.240931 0.073039
1.000000 0.251517 0.068673
1.000000 0.263871 0.065464
1.000000 0.276226 0.085539
0.000000 0.282843 0.000000
0.000000 0.288875 0.000000
0.000000 0.289024 0.000000
0.036194 0.292892 0.000000
0.107598 0.292892 0.000000
0.164717 0.292892 0.000000
0.227083 0.292195 0.000000
0.280457 0.288971 0.000000
0.329963 0.288542 0.000000
0.375249 0.278925 0.000000
0.431495 0.277474 0.000000
0.486029 0.277206 0.000000
0.535953 0.275735 0.000000
0.579412 0.270956 0.000000
0.619838 0.267639 0.000483
0.658245 0.264985 0.000456
0.697181 0.259988 0.001287
0.735907 0.255760 0.004779
0.768130 0.252819 0.007835
0.797672 0.249755 0.010294
0.827083 0.248606 0.014537
0.854730 0.247744 0.018160
0.881250 0.249755 0.020466
0.905028 0.250371 0.024387
0.927788 0.250184 0.040441
0.950065 0.253864 0.059681
0.969240 0.259030 0.077451
0.991322 0.266433 0.088480
1.000000 0.271186 0.088955
1.000000 0.275368 0.086194
1.000000 0.282093 0.078186
1.000000 0.291667 0.074877
1.000000 0.303309 0.094975
0.000000 0.353922 0.000000
0.000000 0.358701 0.000000
0.000000 0.356066 0.000000
0.032874 0.356771 0.000000
0.109436 0.358946 0.000000
0.165319 0.356036 0.000000
0.229596 0.355331 0.000000
0.285172 0.349663 0.000000
0.339216 0.346078 0.000000
0.386642 0.343260 0.000000
0.430208 0.334559 0.000000
0.481710 0.327788 0.000000
0.537745 0.331005 0.000000
0.588480 0.330392 0.000000
0.633272 0.326471 0.000000
0.673162 0.323928 0.000000
0.712255 0.320098 0.000000
0.748529 0.316268 0.000000
0.782353 0.313726 0.000429
0.809896 0.309191 0.006311
0.835784 0.305760 0.025858
0.861857 0.303554 0.043199
0.886029 0.303983 0.058701
0.908364 0.304075 0.073376
0.930882 0.305392 0.079412
0.951593 0.306740 0.088879
0.970098 0.310784 0.096998
0.991942 0.317800 0.105882
0.999142 0.322672 0.109681
1.000000 0.326563 0.106679
1.000000 0.331434 0.104718
1.000000 0.337500 0.103033
1.000000 0.346078 0.105882
0.000000 0.394485 0.000000
0.000000 0.413725 0.000000
0.000000 0.414269 0.000000
0.000000 0.414093 0.000000
0.024449 0.413128 0.000000
0.121128 0.409241 0.000000
0.194692 0.406250 0.000000
0.251965 0.399265 0.000000
0.313817 0.395466 0.000000
0.368137 0.388538 0.000000
0.419975 0.382721 0.000000
0.462879 0.374399 0.000000
0.514170 0.368781 0.000000
0.568627 0.369811 0.000000
0.623637 0.370956 0.000000
0.671841 0.370956 0.000000
0.717096 0.369853 0.000000
0.755856 0.365414 0.000000
0.790074 0.361527 0.000000
0.819363 0.358743 0.000000
0.846860 0.354167 0.015441
0.868639 0.351126 0.046101
0.893528 0.349020 0.071714
0.916242 0.346634 0.090196
0.939920 0.347426 0.104657
0.959195 0.348043 0.113480
0.977941 0.351555 0.121201
0.999069 0.357820 0.130859
1.000000 0.359329 0.132368
1.000000 0.363113 0.136049
1.000000 0.364392 0.132161
1.000000 0.368348 0.128519
1.000000 0.375980 0.136152
0.000000 0.433088 0.000000
0.000000 0.449717 0.000000
0.000000 0.454013 0.000000
0.000000 0.452696 0.000000
0.000000 0.451624 0.000000
0.094746 0.448775 0.000000
0.180147 0.444853 0.000000
0.235394 0.439974 0.000000
0.295650 0.436091 0.000000
0.352474 0.430270 0.000000
0.409176 0.424862 0.000000
0.458073 0.420519 0.000000
0.501991 0.412500 0.000000
0.549257 0.406235 0.000000
0.606173 0.408379 0.000000
0.660746 0.411566 0.000000
0.714951 0.411520 0.000000
0.758287 0.411680 0.000000
0.793873 0.407797 0.000000
0.821561 0.402819 0.002688
0.850705 0.399479 0.032353
0.873407 0.395221 0.064338
0.897411 0.393490 0.087117
0.922013 0.391889 0.102183
0.943811 0.389645 0.113480
0.965196 0.389683 0.124854
0.981863 0.390181 0.132338
1.000000 0.396147 0.139951
1.000000 0.397794 0.142800
1.000000 0.398905 0.143758
1.000000 0.399020 0.141100
1.000000 0.401961 0.140158
1.000000 0.410784 0.146569
0.000000 0.467770 0.000000
0.000000 0.487052 0.000000
0.000000 0.491299 0.000000
0.000000 0.491299 0.000000
0.000000 0.490119 0.000000
0.065372 0.487377 0.000000
0.163971 0.485547 0.000000
0.222231 0.480097 0.000000
0.280116 0.478523 0.000000
0.339694 0.473518 0.000000
0.396814 0.468574 0.000000
0.450314 0.462963 0.000000
0.500980 0.459544 0.000000
0.543627 0.450980 0.000000
0.586765 0.444240 0.000000
0.642157 0.444382 0.000000
0.698162 0.448836 0.000000
0.750349 0.450245 0.000000
0.789729 0.451494 0.000000
0.822859 0.446569 0.002141
0.851471 0.442892 0.037117
0.876321 0.438086 0.072400
0.901294 0.437745 0.092647
0.926727 0.435428 0.109938
0.947702 0.434406 0.122549
0.966985 0.432181 0.132843
0.983693 0.432475 0.137990
1.000000 0.432475 0.147672
1.000000 0.432644 0.150414
1.000000 0.433697 0.152815
1.000000 0.433739 0.151348
1.000000 0.436562 0.147917
1.000000 0.444240 0.155515
0.000000 0.526961 0.000000
0.000000 0.535646 0.000000
0.000000 0.537255 0.000000
0.000000 0.537255 0.000000
0.000000 0.535968 0.000000
0.075674 0.533333 0.000000
0.166146 0.533058 0.000000
0.224556 0.528477 0.000000
0.277083 0.527941 0.000000
0.331985 0.524020 0.000000
0.388051 0.517953 0.000000
0.442050 0.511795 0.000000
0.493137 0.505882 0.000000
0.537010 0.499632 0.000000
0.580300 0.495006 0.000000
0.620512 0.486642 0.000000
0.673039 0.485784 0.000000
0.727175 0.488894 0.000000
0.774203 0.489645 0.000000
0.812760 0.490196 0.014323
0.845098 0.490196 0.037071
0.871691 0.487883 0.065977
0.898775 0.485815 0.091636
0.921936 0.484513 0.110248
0.944118 0.483456 0.124020
0.963480 0.481051 0.135662
0.983303 0.483548 0.147028
0.997518 0.482353 0.153324
1.000000 0.482537 0.156066
1.000000 0.485294 0.163603
1.000000 0.484467 0.166176
1.000000 0.490656 0.168673
1.000000 0.493627 0.167647
0.000000 0.562255 0.000000
0.000000 0.585489 0.000000
0.000000 0.589606 0.000000
0.000000 0.589706 0.000000
0.000000 0.588113 0.000000
0.000000 0.582227 0.000000
0.081725 0.578676 0.000000
0.176593 0.574529 0.000000
0.241207 0.571232 0.000000
0.299755 0.565686 0.000000
0.356487 0.561887 0.000000
0.412557 0.554714 0.000000
0.468398 0.547901 0.000000
0.522093 0.542647 0.000000
0.567157 0.537538 0.000000
0.612010 0.532364 0.000000
0.652574 0.523407 0.000000
0.700000 0.519118 0.000000
0.749104 0.522426 0.000000
0.794083 0.524931 0.000000
0.832598 0.526961 0.016789
0.866054 0.526160 0.056430
0.895964 0.526961 0.086887
0.923204 0.525368 0.108008
0.945711 0.524786 0.125123
0.966422 0.521446 0.138461
0.986221 0.523775 0.152083
1.000000 0.524023 0.162010
1.000000 0.522840 0.173039
1.000000 0.523039 0.180610
1.000000 0.521446 0.182721
1.000000 0.521496 0.185099
1.000000 0.526961 0.186642
0.000000 0.593137 0.000000
0.000000 0.616368 0.000000
0.000000 0.622197 0.000000
0.000000 0.620305 0.000000
0.000000 0.616942 0.000000
0.000000 0.612745 0.000000
0.056556 0.610953 0.000000
0.154396 0.607100 0.000000
0.226532 0.603186 0.000000
0.284191 0.599747 0.000000
0.339951 0.597748 0.000000
0.396032 0.592011 0.000000
0.451134 0.586428 0.000000
0.506702 0.581250 0.000000
0.556878 0.575460 0.000000
0.601279 0.570642 0.000000
0.645956 0.565931 0.000000
0.683701 0.555323 0.000000
0.725245 0.550751 0.000000
0.769562 0.551593 0.000000
0.812500 0.553922 0.000000
0.849755 0.557085 0.017624
0.886229 0.557843 0.060692
0.913863 0.559697 0.089844
0.941912 0.560049 0.112255
0.962875 0.560049 0.132843
0.982598 0.560049 0.150169
1.000000 0.560394 0.164216
1.000000 0.561275 0.175031
1.000000 0.557843 0.184681
1.000000 0.556127 0.188971
1.000000 0.560103 0.196622
1.000000 0.557843 0.194363
0.000000 0.624020 0.000000
0.000000 0.643382 0.000000
0.000000 0.649272 0.000000
0.000000 0.647499 0.000000
0.000000 0.644118 0.000000
0.000000 0.641544 0.000000
0.021706 0.640051 0.000000
0.136397 0.638078 0.000000
0.212102 0.634406 0.000000
0.272549 0.633946 0.000000
0.328431 0.631863 0.000000
0.379921 0.626735 0.000000
0.435049 0.622871 0.000000
0.488480 0.617770 0.000000
0.541230 0.610961 0.000000
0.588726 0.605388 0.000000
0.635172 0.601532 0.000000
0.674751 0.593869 0.000000
0.711466 0.585976 0.000000
0.746569 0.579044 0.000000
0.788189 0.578799 0.000000
0.829308 0.582721 0.000000
0.869891 0.587293 0.017080
0.902792 0.591150 0.059164
0.932108 0.592647 0.089706
0.956951 0.592647 0.118348
0.978676 0.593038 0.140954
0.996691 0.595018 0.160252
1.000000 0.594256 0.173055
1.000000 0.592647 0.186715
1.000000 0.592777 0.196454
1.000000 0.594788 0.206062
1.000000 0.594485 0.203922
0.000000 0.656863 0.000000
0.000000 0.664645 0.000000
0.000000 0.668627 0.000000
0.000000 0.670772 0.000000
0.000000 0.668627 0.000000
0.000000 0.668321 0.000000
0.044240 0.668627 0.000000
0.141544 0.667096 0.000000
0.208824 0.664706 0.000000
0.265380 0.664706 0.000000
0.318873 0.664706 0.000000
0.364461 0.659498 0.000000
0.415931 0.657598 0.000000
0.468076 0.654902 0.000000
0.518260 0.648775 0.000000
0.567402 0.644976 0.000000
0.614706 0.639216 0.000000
0.659252 0.634375 0.000000
0.699877 0.630760 0.000000
0.732659 0.621936 0.000000
0.765441 0.614951 0.000000
0.802145 0.613726 0.000000
0.841422 0.616912 0.000000
0.876961 0.620711 0.001103
0.907843 0.623529 0.033333
0.937439 0.625490 0.075551
0.961029 0.629412 0.108456
0.983885 0.629718 0.135172
1.000000 0.635294 0.161765
1.000000 0.637439 0.177022
1.000000 0.637377 0.188480
1.000000 0.639277 0.198162
1.000000 0.641176 0.201961
0.000000 0.685784 0.000000
0.000000 0.699445 0.000000
0.000000 0.703554 0.000000
0.000000 0.705614 0.000000
0.000000 0.701731 0.000000
0.000000 0.701716 0.000000
0.000000 0.699632 0.000000
0.046147 0.698196 0.000000
0.148683 0.695711 0.000000
0.221105 0.695125 0.000000
0.283908 0.695060 0.000000
0.335907 0.691789 0.000000
0.384268 0.689338 0.000000
0.436998 0.686631 0.000000
0.491108 0.683946 0.000000
0.541425 0.680886 0.000000
0.593444 0.674020 0.000000
0.642647 0.671205 0.000000
0.684245 0.668122 0.000000
0.721090 0.663492 0.000000
0.758287 0.658073 0.000000
0.787868 0.649774 0.000000
0.821408 0.646569 0.000000
0.857326 0.649755 0.000000
0.893505 0.653094 0.002604
0.924843 0.654868 0.031740
0.951815 0.660417 0.085616
0.977941 0.662500 0.128106
0.994960 0.664338 0.154657
1.000000 0.664511 0.171668
1.000000 0.668260 0.186642
1.000000 0.670098 0.196381
1.000000 0.670098 0.200245
0.000000 0.711029 0.001716
0.000000 0.724809 0.013343
0.000000 0.726716 0.011382
0.000000 0.728876 0.002244
0.000000 0.723009 0.000000
0.000000 0.722794 0.000000
0.000000 0.721078 0.000000
0.029680 0.719730 0.000000
0.136091 0.718873 0.000000
0.207966 0.718252 0.000000
0.270833 0.718183 0.000000
0.324387 0.714951 0.000000
0.373775 0.714951 0.000000
0.421607 0.713641 0.000000
0.471798 0.711029 0.000000
0.521883 0.707912 0.000000
0.572181 0.702083 0.000000
0.623284 0.699142 0.000000
0.665901 0.696308 0.000000
0.705599 0.691544 0.000000
0.744271 0.688388 0.000000
0.778263 0.682062 0.000000
0.807644 0.675245 0.000000
0.842532 0.674150 0.000000
0.875551 0.675735 0.000000
0.907705 0.677558 0.000000
0.939951 0.680392 0.024678
0.966422 0.685784 0.094386
0.987500 0.687500 0.130147
1.000000 0.687661 0.156533
1.000000 0.693168 0.175138
1.000000 0.695343 0.186589
1.000000 0.699265 0.190441
0.000000 0.734191 0.014951
0.000000 0.744290 0.030442
0.000000 0.748139 0.030637
0.000000 0.748434 0.019390
0.000000 0.745956 0.003876
0.000000 0.745707 0.000000
0.000000 0.742034 0.000000
0.017138 0.742383 0.000000
0.127819 0.742034 0.000000
0.200693 0.743179 0.000000
0.259689 0.742402 0.000000
0.314461 0.742034 0.000000
0.363006 0.740579 0.000000
0.409402 0.740005 0.000000
0.456411 0.738113 0.000000
0.504668 0.734938 0.000000
0.553676 0.729105 0.000000
0.603075 0.726103 0.000000
0.648238 0.723323 0.000000
0.689162 0.719451 0.000000
0.728784 0.715303 0.000000
0.764886 0.712255 0.000000
0.799885 0.707606 0.000000
0.832518 0.702290 0.000000
0.863480 0.700092 0.000000
0.893788 0.700142 0.000000
0.925245 0.702819 0.000000
0.955151 0.706740 0.038369
0.976348 0.710662 0.101961
0.995002 0.713140 0.136056
1.000000 0.714729 0.160417
1.000000 0.718505 0.173407
1.000000 0.720833 0.179534
0.000000 0.757353 0.016667
0.000000 0.763205 0.027344
0.000000 0.767004 0.027451
0.000000 0.767295 0.020558
0.000000 0.766176 0.007169
0.000000 0.767417 0.000000
0.015533 0.765196 0.000000
0.055974 0.765732 0.000000
0.143015 0.766299 0.000000
0.202589 0.766667 0.000000
0.261428 0.768137 0.000000
0.310187 0.766667 0.000000
0.356434 0.765686 0.000000
0.399877 0.765809 0.000000
0.444026 0.764859 0.000000
0.487990 0.762546 0.000000
0.535049 0.759314 0.000000
0.583410 0.757384 0.000000
0.626961 0.754013 0.006158
0.671293 0.751348 0.023575
0.711765 0.747549 0.013051
0.748882 0.745098 0.000000
0.782843 0.740717 0.000000
0.818336 0.737531 0.000000
0.848162 0.735049 0.000000
0.875490 0.730070 0.000000
0.904902 0.729381 0.000000
0.934942 0.733824 0.000000
0.958150 0.735417 0.020711
0.979427 0.737745 0.081373
0.996324 0.741728 0.115594
1.000000 0.744118 0.131051
1.000000 0.746569 0.142647
0.000000 0.785784 0.064093
0.000000 0.792279 0.070508
0.000000 0.794692 0.068176
0.000000 0.794979 0.063239
0.000000 0.795021 0.048208
0.000000 0.792279 0.031373
0.000000 0.791184 0.011144
0.000000 0.791789 0.000000
0.075735 0.794516 0.000000
0.163848 0.790931 0.000000
0.224563 0.792279 0.000000
0.283333 0.792279 0.000000
0.336535 0.791437 0.000000
0.381798 0.792279 0.000000
0.426815 0.792279 0.000000
0.471343 0.792279 0.000000
0.520833 0.792279 0.000000
0.567195 0.788990 0.000000
0.611252 0.789805 0.000000
0.653922 0.785784 0.023775
0.697426 0.782966 0.056081
0.737377 0.780515 0.008847
0.775559 0.776593 0.000000
0.810662 0.772672 0.000000
0.842433 0.766483 0.000000
0.872672 0.761960 0.000000
0.902336 0.760424 0.000000
0.927520 0.756775 0.000000
0.948820 0.756664 0.001287
0.971936 0.758207 0.047066
0.988725 0.758410 0.094485
1.000000 0.763400 0.109926
1.000000 0.762255 0.121446
0.000000 0.808824 0.065196
0.000000 0.814170 0.074426
0.000000 0.814292 0.074510
0.000000 0.814583 0.065924
0.000000 0.814369 0.051961
0.000000 0.812554 0.034858
0.000000 0.811520 0.015196
0.000000 0.812109 0.001716
0.069056 0.814216 0.000000
0.158356 0.811520 0.000000
0.221569 0.812745 0.000000
0.274686 0.813289 0.000000
0.326195 0.813664 0.000000
0.374027 0.813618 0.000000
0.417647 0.813235 0.000000
0.460172 0.813603 0.000000
0.505392 0.813480 0.000000
0.550329 0.811520 0.000000
0.594363 0.810340 0.000000
0.635286 0.808824 0.003286
0.676501 0.806127 0.038971
0.719363 0.803676 0.065525
0.760539 0.802451 0.011719
0.798384 0.799755 0.000000
0.830821 0.794730 0.000000
0.864951 0.789216 0.000000
0.895328 0.784789 0.000000
0.923215 0.781181 0.000000
0.942310 0.779810 0.000000
0.964331 0.780147 0.018765
0.981051 0.780147 0.068627
0.998813 0.782759 0.084069
1.000000 0.780147 0.090441
0.000000 0.835784 0.081740
0.000000 0.834716 0.075682
0.000000 0.834681 0.073476
0.000000 0.837500 0.067138
0.000000 0.834681 0.055132
0.000000 0.831863 0.041862
0.000000 0.832391 0.025490
0.000000 0.832479 0.006985
0.068168 0.834681 0.000276
0.155882 0.834681 0.000000
0.217992 0.834681 0.000000
0.270845 0.834681 0.000000
0.321661 0.834681 0.000000
0.366257 0.834681 0.000000
0.409926 0.834681 0.000000
0.450613 0.836179 0.000000
0.493015 0.834681 0.000000
0.535417 0.834681 0.000000
0.579404 0.833448 0.000000
0.619076 0.831863 0.000000
0.661152 0.831449 0.024142
0.704645 0.830515 0.065564
0.746201 0.827597 0.097174
0.786830 0.826838 0.042842
0.821017 0.823744 0.009099
0.854167 0.819857 0.000000
0.887584 0.815441 0.000000
0.919313 0.808161 0.000000
0.938373 0.804274 0.005668
0.957862 0.803309 0.037152
0.976892 0.800421 0.060524
0.995133 0.802118 0.071255
1.000000 0.799387 0.061152
0.000000 0.856863 0.084314
0.000000 0.857813 0.079473
0.000000 0.856924 0.075735
0.000000 0.857138 0.071936
0.000000 0.857843 0.065196
0.000000 0.856863 0.054534
0.014645 0.857659 0.040502
0.030852 0.858487 0.024694
0.106618 0.858578 0.006618
0.176042 0.858548 0.001256
0.226654 0.858824 0.000000
0.277512 0.859804 0.000000
0.322426 0.859804 0.000000
0.364951 0.859804 0.000000
0.408088 0.860355 0.000000
0.447794 0.860325 0.000000
0.488725 0.860784 0.000000
0.528217 0.860784 0.000000
0.568382 0.862439 0.001287
0.609926 0.859804 0.008456
0.649142 0.860784 0.024265
0.689124 0.860447 0.061949
0.728676 0.859498 0.101225
0.769393 0.855882 0.131955
0.803676 0.852696 0.113971
0.840472 0.851746 0.069608
0.873958 0.849694 0.023223
0.906219 0.842984 0.036244
0.929534 0.834804 0.061765
0.949755 0.830392 0.070956
0.965196 0.826409 0.074387
0.983487 0.825460 0.047488
0.996078 0.822549 0.000000
0.000000 0.884926 0.110662
0.000000 0.884804 0.109708
0.000000 0.884122 0.105270
0.000000 0.884926 0.098407
0.000000 0.882246 0.088863
0.000000 0.881005 0.083345
0.000000 0.884191 0.073039
0.000000 0.884256 0.059004
0.048989 0.881985 0.040809
0.146691 0.884685 0.021327
0.210072 0.883379 0.001762
0.259436 0.883873 0.000000
0.308502 0.884926 0.000000
0.354799 0.884578 0.000000
0.400613 0.886650 0.000000
0.442157 0.886152 0.000000
0.481495 0.886887 0.000000
0.521201 0.887990 0.000000
0.555882 0.887990 0.000000
0.596304 0.887990 0.008391
0.635095 0.887990 0.037745
0.672549 0.886937 0.063163
0.710294 0.884658 0.098897
0.748897 0.883207 0.139331
0.787500 0.881005 0.172549
0.822852 0.877754 0.162010
0.857560 0.877083 0.138557
0.892513 0.870822 0.104622
0.922181 0.865579 0.111780
0.945136 0.856821 0.110742
0.965196 0.849387 0.109681
0.976811 0.841885 0.075513
0.992157 0.841789 0.000000
0.000000 0.907353 0.140196
0.000000 0.904879 0.133188
0.000000 0.904412 0.128722
0.000000 0.904167 0.121691
0.000000 0.904565 0.118536
0.000000 0.904167 0.113595
0.000000 0.906756 0.103048
0.000000 0.904741 0.090234
0.081679 0.905147 0.075490
0.164461 0.907353 0.054205
0.215916 0.906357 0.022028
0.263235 0.906993 0.001011
0.308824 0.907813 0.000000
0.351662 0.904603 0.000000
0.395343 0.906694 0.000000
0.435639 0.905859 0.000000
0.474510 0.904902 0.000000
0.511152 0.906005 0.000000
0.545512 0.907675 0.000000
0.583701 0.907353 0.000000
0.623775 0.908088 0.033088
0.661642 0.908088 0.088105
0.699510 0.906863 0.116927
0.738113 0.906457 0.157108
0.776532 0.906556 0.186336
0.811811 0.900820 0.206288
0.846676 0.900843 0.199617
0.884804 0.899747 0.180515
