luts/SG3.cube
TITLE "sample6"
LUT_3D_SIZE 5
DOMAIN_MIN 0.0 0.0 0.0
DOMAIN_MAX 1.0 1.0 1.0
0.015686 0.015686 0.019608
0.320588 0.015686 0.015686
0.658824 0.025490 0.025490
0.908824 0.043137 0.043137
1.000000 0.152941 0.058824
0.000000 0.353922 0.000000
0.339216 0.346078 0.000000
0.712255 0.320098 0.000000
0.930882 0.305392 0.079412
1.000000 0.346078 0.105882
0.000000 0.656863 0.000000
0.208824 0.664706 0.000000
0.614706 0.639216 0.000000
0.907843 0.623529 0.033333
1.000000 0.641176 0.201961
0.000000 0.856863 0.084314
0.106618 0.858578 0.006618
0.488725 0.860784 0.000000
0.803676 0.852696 0.113971
0.996078 0.822549 0.000000
0.000000 0.980392 0.145098
0.190196 0.984314 0.125490
0.464706 0.988235 0.125490
0.709804 0.992157 0.252941
0.976471 0.976471 0.305882
0.043137 0.016667 0.271569
0.287255 0.020343 0.290196
0.616667 0.028922 0.293627
0.886275 0.040196 0.278431
1.000000 0.123529 0.279412
0.036029 0.330147 0.319363
0.329657 0.323284 0.323346
0.648775 0.312990 0.310662
0.905637 0.312194 0.312990
1.000000 0.327206 0.300000
0.018627 0.641176 0.325980
0.258578 0.648652 0.270466
0.624755 0.619118 0.286520
0.914706 0.627328 0.331373
1.000000 0.636765 0.378431
0.024510 0.851961 0.306863
0.222059 0.855882 0.274510
0.511152 0.857721 0.232108
0.819547 0.848529 0.333150
1.000000 0.824510 0.322304
0.000000 0.980392 0.334314
0.245343 0.983578 0.325735
0.472549 0.985784 0.302941
0.712990 0.991422 0.370833
0.976471 0.976471 0.420588
0.096078 0.023529 0.511765
0.296569 0.029412 0.538726
0.553922 0.048039 0.580392
0.810294 0.080882 0.561275
1.000000 0.066667 0.480392
0.038725 0.309314 0.555392
0.296201 0.313848 0.567647
0.564461 0.305147 0.587990
0.826961 0.312010 0.575245
1.000000 0.261275 0.496569
0.084314 0.618627 0.596078
0.337990 0.618382 0.600980
0.604412 0.605882 0.600490
0.863971 0.614951 0.604167
1.000000 0.616667 0.593137
0.229412 0.849020 0.597549
0.386520 0.848284 0.601593
0.560784 0.852451 0.549510
0.820711 0.844485 0.606250
1.000000 0.843137 0.601961
0.274510 0.978431 0.570588
0.374020 0.979902 0.568627
0.525490 0.981373 0.546078
0.726961 0.988235 0.567157
0.980392 0.976471 0.629412
0.165686 0.038235 0.711765
0.298039 0.046078 0.722549
0.507843 0.068137 0.772059
0.784314 0.095833 0.822549
0.968627 0.117647 0.740196
0.158333 0.307108 0.734804
0.302022 0.312990 0.748713
0.519485 0.326593 0.788848
0.789032 0.319853 0.830453
0.970588 0.314706 0.755147
0.195588 0.592647 0.785784
0.355515 0.598652 0.793750
0.566422 0.606863 0.814706
0.810907 0.605515 0.833946
0.984314 0.586765 0.788235
0.293873 0.845098 0.825735
0.427757 0.842402 0.824326
0.622672 0.841299 0.830637
0.826654 0.840748 0.835294
0.995343 0.857843 0.850000
0.340196 0.980392 0.771569
0.462500 0.980392 0.780392
0.642157 0.980392 0.797549
0.818137 0.988235 0.817402
0.992157 0.988235 0.870588
0.219608 0.058824 0.858824
0.311765 0.066667 0.869608
0.490196 0.086275 0.898039
0.690196 0.118627 0.979412
0.968627 0.137255 0.972549
0.219608 0.316667 0.884314
0.313971 0.322794 0.895343
0.486275 0.336765 0.924020
0.684314 0.338480 0.989216
0.960784 0.295098 0.977451
0.309804 0.584314 0.939216
0.403431 0.597549 0.946078
0.518627 0.598039 0.966667
0.733333 0.596078 0.992647
0.972549 0.588235 0.978431
0.379412 0.803922 0.972549
0.466912 0.803922 0.972794
0.629412 0.817157 0.976471
0.810539 0.835049 0.988971
0.987255 0.840196 0.989216
0.576471 0.992157 0.968627
0.646078 0.996078 0.976471
0.762745 0.996078 0.980392
0.932353 0.997059 0.993137
1.000000 1.000000 1.000000
