luts/SG3.cube
TITLE "sample6"
LUT_3D_SIZE 9
DOMAIN_MIN 0.0 0.0 0.0
DOMAIN_MAX 1.0 1.0 1.0
0.015686 0.015686 0.019608
0.162255 0.015686 0.015686
0.320588 0.015686 0.015686
0.472549 0.019608 0.019608
0.658824 0.025490 0.025490
0.807353 0.035294 0.036765
0.908824 0.043137 0.043137
0.993137 0.051471 0.054902
1.000000 0.152941 0.058824
0.000000 0.171569 0.004412
0.164277 0.168566 0.004412
0.344608 0.143627 0.011275
0.509314 0.111520 0.014890
0.674020 0.090441 0.022059
0.813726 0.063113 0.035110
0.910784 0.065074 0.042770
0.994669 0.151164 0.057843
1.000000 0.221569 0.057843
0.000000 0.353922 0.000000
0.109436 0.358946 0.000000
0.339216 0.346078 0.000000
0.537745 0.331005 0.000000
0.712255 0.320098 0.000000
0.835784 0.305760 0.025858
0.930882 0.305392 0.079412
0.999142 0.322672 0.109681
1.000000 0.346078 0.105882
0.000000 0.526961 0.000000
0.000000 0.535968 0.000000
0.277083 0.527941 0.000000
0.493137 0.505882 0.000000
0.673039 0.485784 0.000000
0.845098 0.490196 0.037071
0.944118 0.483456 0.124020
1.000000 0.482537 0.156066
1.000000 0.493627 0.167647
0.000000 0.656863 0.000000
0.000000 0.668627 0.000000
0.208824 0.664706 0.000000
0.415931 0.657598 0.000000
0.614706 0.639216 0.000000
0.765441 0.614951 0.000000
0.907843 0.623529 0.033333
1.000000 0.635294 0.161765
1.000000 0.641176 0.201961
0.000000 0.757353 0.016667
0.000000 0.766176 0.007169
0.143015 0.766299 0.000000
0.356434 0.765686 0.000000
0.535049 0.759314 0.000000
0.711765 0.747549 0.013051
0.848162 0.735049 0.000000
0.958150 0.735417 0.020711
1.000000 0.746569 0.142647
0.000000 0.856863 0.084314
0.000000 0.857843 0.065196
0.106618 0.858578 0.006618
0.322426 0.859804 0.000000
0.488725 0.860784 0.000000
0.649142 0.860784 0.024265
0.803676 0.852696 0.113971
0.929534 0.834804 0.061765
0.996078 0.822549 0.000000
0.014706 0.945588 0.201471
0.020037 0.945650 0.191238
0.187132 0.946936 0.164093
0.335968 0.950000 0.115502
0.480637 0.948529 0.112255
0.614216 0.950490 0.148836
0.758333 0.950000 0.242525
0.897488 0.950429 0.259252
0.983824 0.900490 0.207843
0.000000 0.980392 0.145098
0.000000 0.980882 0.133333
0.190196 0.984314 0.125490
0.335294 0.988235 0.103431
0.464706 0.988235 0.125490
0.586275 0.992157 0.185784
0.709804 0.992157 0.252941
0.841176 0.996078 0.294608
0.976471 0.976471 0.305882
0.023039 0.019118 0.150980
0.159252 0.015686 0.155331
0.301961 0.019240 0.150613
0.468137 0.021752 0.145404
0.639461 0.023775 0.158578
0.790196 0.034988 0.162439
0.897181 0.040564 0.162745
0.989706 0.051900 0.167586
1.000000 0.062745 0.170588
0.000000 0.159314 0.155882
0.163473 0.158624 0.159053
0.319118 0.154963 0.155836
0.492302 0.150919 0.163833
0.654933 0.127696 0.166146
0.794792 0.095872 0.166720
0.902987 0.063725 0.172978
0.990257 0.130101 0.176042
1.000000 0.199020 0.176409
0.000000 0.341176 0.174020
0.140441 0.343260 0.153860
0.343627 0.329779 0.157475
0.531771 0.325352 0.171262
0.693382 0.313051 0.178676
0.820895 0.297564 0.183471
0.920098 0.294026 0.190472
0.996339 0.309498 0.196507
1.000000 0.324020 0.196569
0.000000 0.515012 0.169914
0.075934 0.522281 0.144991
0.290763 0.511229 0.128876
0.500980 0.489645 0.147488
0.683180 0.475735 0.148928
0.839645 0.476478 0.190510
0.940012 0.470588 0.216115
1.000000 0.471592 0.230944
1.000000 0.479412 0.233456
0.000000 0.652941 0.154167
0.003002 0.664522 0.138756
0.241299 0.658824 0.094669
0.434743 0.647886 0.119945
0.627451 0.626593 0.133701
0.776869 0.603922 0.117249
0.919179 0.618137 0.180392
1.000000 0.631373 0.248254
1.000000 0.633333 0.271078
0.000000 0.756556 0.159988
0.003378 0.768467 0.154435
0.202191 0.766667 0.110417
0.380882 0.762684 0.083448
0.553431 0.753186 0.137010
0.723951 0.740993 0.145037
0.857981 0.724203 0.088680
0.966996 0.733372 0.185026
1.000000 0.742647 0.235600
0.000000 0.855760 0.172917
0.015426 0.858456 0.165150
0.178768 0.856342 0.134038
0.346952 0.859007 0.093045
0.502941 0.857721 0.086336
0.662623 0.855316 0.164093
0.816422 0.848683 0.205392
0.936106 0.829151 0.178263
0.999632 0.820588 0.194118
0.024939 0.943505 0.257292
0.028301 0.945757 0.246507
0.228385 0.946400 0.221278
0.356449 0.946729 0.182613
0.493137 0.948713 0.178217
0.623200 0.948078 0.207146
0.767325 0.948820 0.296998
0.903048 0.946186 0.313779
0.983885 0.894608 0.266667
0.000000 0.980882 0.233824
0.016299 0.980882 0.225980
0.225123 0.984314 0.220711
0.348223 0.987929 0.205086
0.470588 0.988235 0.208578
0.587868 0.989522 0.240993
0.711152 0.989583 0.295466
0.841176 0.992157 0.336275
0.976961 0.976471 0.348039
0.043137 0.016667 0.271569
0.162868 0.016667 0.275490
0.287255 0.020343 0.290196
0.428922 0.027451 0.298652
0.616667 0.028922 0.293627
0.774510 0.032843 0.281373
0.886275 0.040196 0.278431
0.978922 0.051471 0.286397
1.000000 0.123529 0.279412
0.010784 0.151103 0.279044
0.155270 0.151471 0.283931
0.298284 0.153676 0.304167
0.446630 0.151900 0.307537
0.631127 0.118321 0.291851
0.773897 0.101976 0.281373
0.888695 0.164798 0.295067
0.983701 0.183869 0.293015
1.000000 0.214216 0.285784
0.036029 0.330147 0.319363
0.178217 0.329504 0.324755
0.329657 0.323284 0.323346
0.493107 0.317616 0.316238
0.648775 0.312990 0.310662
0.787990 0.307230 0.309283
0.905637 0.312194 0.312990
0.992770 0.321691 0.312592
1.000000 0.327206 0.300000
0.028799 0.496201 0.331250
0.168444 0.502022 0.337270
0.302819 0.497917 0.300858
0.493199 0.478539 0.302068
0.676654 0.481311 0.319118
0.817218 0.479550 0.335754
0.925061 0.478064 0.342923
0.997748 0.478676 0.344256
1.000000 0.476103 0.333824
0.018627 0.641176 0.325980
0.121446 0.651471 0.323836
0.258578 0.648652 0.270466
0.430392 0.639400 0.268444
0.624755 0.619118 0.286520
0.778248 0.604167 0.270588
0.914706 0.627328 0.331373
0.998284 0.642831 0.381434
1.000000 0.636765 0.378431
0.025000 0.752941 0.314338
0.068428 0.761091 0.310417
0.239706 0.760570 0.271078
0.386305 0.757476 0.234421
0.554473 0.748652 0.281189
0.724081 0.735922 0.289874
0.864063 0.726042 0.240257
0.971078 0.741131 0.324372
1.000000 0.749877 0.361275
0.024510 0.851961 0.306863
0.039185 0.857843 0.302451
0.222059 0.855882 0.274510
0.358180 0.856495 0.231955
0.511152 0.857721 0.232108
0.668658 0.854473 0.297488
0.819547 0.848529 0.333150
0.939216 0.830484 0.306955
1.000000 0.824510 0.322304
0.030760 0.942279 0.364216
0.145466 0.942325 0.353324
0.267096 0.943290 0.334375
0.373269 0.946569 0.290594
0.499510 0.947304 0.277757
0.628554 0.948269 0.301409
0.773683 0.948499 0.391513
0.907184 0.946400 0.406265
0.983456 0.894975 0.362745
0.000000 0.980392 0.334314
0.088971 0.980515 0.326961
0.245343 0.983578 0.325735
0.359314 0.984314 0.311642
0.472549 0.985784 0.302941
0.592034 0.988235 0.327941
0.712990 0.991422 0.370833
0.844118 0.994730 0.407966
0.976471 0.976471 0.420588
0.065196 0.019608 0.386275
0.167157 0.019608 0.390196
0.285172 0.022426 0.419608
0.427941 0.029902 0.442157
0.560784 0.039216 0.437255
0.715196 0.053431 0.429473
0.875613 0.045588 0.407721
0.979228 0.052757 0.382169
1.000000 0.061275 0.357843
0.053922 0.145772 0.398039
0.165579 0.147894 0.410532
0.293673 0.150858 0.439476
0.434498 0.146936 0.445956
0.564461 0.131219 0.439951
0.717570 0.084291 0.427627
0.877619 0.047426 0.409896
0.979373 0.053577 0.386788
1.000000 0.156924 0.378922
0.027574 0.319976 0.440196
0.164583 0.319179 0.443735
0.303830 0.317892 0.454534
0.448162 0.311474 0.459743
0.587194 0.305147 0.453983
0.760601 0.288603 0.431863
0.889890 0.284252 0.419424
0.980515 0.319332 0.422426
1.000000 0.337745 0.413235
0.052083 0.480760 0.464154
0.182093 0.484919 0.470588
0.327390 0.477926 0.469256
0.475061 0.471017 0.468566
0.636428 0.465717 0.460570
0.771507 0.465196 0.458249
0.894347 0.473039 0.461275
0.983157 0.478385 0.460677
1.000000 0.473468 0.445527
0.067892 0.630147 0.465931
0.187255 0.637990 0.475827
0.327635 0.631556 0.470404
0.445129 0.628922 0.437010
0.618015 0.612500 0.442892
0.772059 0.614461 0.454902
0.897243 0.638787 0.494363
0.984559 0.652604 0.517402
1.000000 0.641176 0.500735
0.080331 0.746078 0.460294
0.218620 0.751785 0.469983
0.322564 0.749770 0.457552
0.417180 0.749939 0.408012
0.559559 0.743107 0.419853
0.724793 0.732782 0.431656
0.862377 0.725705 0.394562
0.969531 0.755882 0.489714
1.000000 0.762255 0.500551
0.085784 0.850980 0.459926
0.205790 0.852114 0.457843
0.300735 0.852328 0.438358
0.396615 0.855070 0.386933
0.525490 0.856863 0.361765
0.673912 0.851501 0.432782
0.820343 0.847794 0.469945
0.942678 0.835600 0.437653
1.000000 0.829412 0.451471
0.172120 0.940012 0.479902
0.244118 0.940602 0.478125
0.336765 0.940778 0.471124
0.420895 0.944240 0.442961
0.515686 0.947365 0.391023
0.641176 0.947120 0.414017
0.778447 0.946492 0.498897
0.910846 0.946278 0.513825
0.984314 0.898529 0.470098
0.089216 0.980392 0.442647
0.177941 0.980392 0.441176
0.283333 0.980392 0.437255
0.384804 0.983395 0.426961
0.484804 0.985049 0.412990
0.597488 0.986152 0.423958
0.713726 0.988235 0.459314
0.845711 0.992157 0.493934
0.980392 0.976471 0.511765
0.096078 0.023529 0.511765
0.182353 0.025245 0.523039
0.296569 0.029412 0.538726
0.409069 0.037990 0.582843
0.553922 0.048039 0.580392
0.683088 0.064216 0.564216
0.810294 0.080882 0.561275
0.940931 0.080392 0.525245
1.000000 0.066667 0.480392
0.093382 0.143627 0.530637
0.181403 0.144608 0.536275
0.296998 0.141176 0.547243
0.409988 0.135876 0.586458
0.555270 0.125000 0.579657
0.682353 0.099265 0.564553
0.810110 0.081556 0.560784
0.938695 0.083854 0.530178
1.000000 0.068873 0.485049
0.038725 0.309314 0.555392
0.173223 0.313419 0.559804
0.296201 0.313848 0.567647
0.418015 0.309804 0.594608
0.564461 0.305147 0.587990
0.695098 0.306556 0.582047
0.826961 0.312010 0.575245
0.960907 0.297243 0.540993
1.000000 0.261275 0.496569
0.064951 0.467892 0.578922
0.179871 0.473529 0.584988
0.313909 0.468995 0.586213
0.444363 0.466360 0.596293
0.584681 0.460662 0.600245
0.713266 0.459589 0.597855
0.866544 0.451103 0.578615
0.975919 0.439001 0.554688
1.000000 0.433333 0.528922
0.084314 0.618627 0.596078
0.206985 0.623775 0.603922
0.337990 0.618382 0.600980
0.470588 0.612132 0.602328
0.604412 0.605882 0.600490
0.745466 0.608211 0.600368
0.863971 0.614951 0.604167
0.964706 0.627328 0.612377
1.000000 0.616667 0.593137
0.131127 0.739951 0.588726
0.253554 0.744914 0.596324
0.363419 0.740993 0.597549
0.472580 0.736458 0.594332
0.576716 0.735294 0.570098
0.721569 0.728401 0.579626
0.854902 0.738726 0.600490
0.968934 0.775888 0.647457
1.000000 0.774265 0.645343
0.229412 0.849020 0.597549
0.293995 0.848039 0.598713
0.386520 0.848284 0.601593
0.479105 0.848468 0.595343
0.560784 0.852451 0.549510
0.686275 0.848652 0.574449
0.820711 0.844485 0.606250
0.943627 0.842157 0.585723
1.000000 0.843137 0.601961
0.270343 0.941912 0.601471
0.323131 0.938511 0.601685
0.397672 0.939154 0.601226
0.483762 0.941850 0.597243
0.558824 0.943873 0.562010
0.662653 0.947947 0.547947
0.789461 0.947855 0.611275
0.916912 0.946324 0.627941
0.984314 0.906618 0.597059
0.274510 0.978431 0.570588
0.307353 0.978431 0.567157
0.374020 0.979902 0.568627
0.448039 0.980392 0.562255
0.525490 0.981373 0.546078
0.619608 0.984314 0.543137
0.726961 0.988235 0.567157
0.865441 0.990441 0.608088
0.980392 0.976471 0.629412
0.134804 0.028922 0.624020
0.198529 0.031373 0.627635
0.295098 0.035294 0.635784
0.405882 0.045588 0.652451
0.512255 0.055637 0.701716
0.669179 0.070527 0.704841
0.794608 0.090196 0.680392
0.901654 0.102451 0.662929
0.977451 0.107353 0.623039
0.132843 0.148223 0.630576
0.196898 0.147227 0.635218
0.294976 0.146645 0.642142
0.406181 0.145581 0.658019
0.513082 0.137010 0.703922
0.669677 0.109689 0.703255
0.795956 0.090564 0.681327
0.901670 0.103715 0.664905
0.979105 0.109130 0.628431
0.120466 0.305882 0.648529
0.195650 0.307613 0.652145
0.296324 0.310784 0.661520
0.409115 0.311566 0.672978
0.522426 0.311826 0.715074
0.678891 0.311887 0.713618
0.802390 0.317800 0.697702
0.907353 0.321569 0.680208
0.990074 0.301348 0.636275
0.097610 0.453493 0.671630
0.200437 0.456878 0.676486
0.314629 0.457736 0.679412
0.427390 0.464070 0.693773
0.547764 0.464001 0.724540
0.694056 0.463113 0.720037
0.815028 0.467555 0.716085
0.920895 0.465977 0.699433
0.999449 0.429534 0.644669
0.143627 0.601961 0.695833
0.244026 0.606036 0.702451
0.352206 0.604228 0.701348
0.467402 0.605116 0.704871
0.583211 0.605270 0.717525
0.707567 0.603186 0.721752
0.825245 0.603615 0.724755
0.950000 0.594608 0.704075
1.000000 0.567892 0.663971
0.184191 0.735784 0.708272
0.270650 0.735409 0.710608
0.373790 0.732093 0.710723
0.482904 0.729986 0.712600
0.598775 0.727665 0.717433
0.716812 0.727022 0.720098
0.840457 0.737132 0.729979
0.954588 0.747059 0.736581
1.000000 0.744118 0.728983
0.266054 0.849142 0.718505
0.327650 0.847809 0.719378
0.415686 0.847212 0.721078
0.509681 0.844485 0.723238
0.608517 0.842647 0.721569
0.706510 0.844501 0.713205
0.823529 0.843413 0.726134
0.950613 0.854013 0.732031
1.000000 0.870098 0.756985
0.312929 0.942157 0.713051
0.363442 0.939851 0.714928
0.440242 0.941192 0.718229
0.525421 0.941123 0.721094
0.615533 0.943719 0.719945
0.691621 0.947373 0.693643
0.798208 0.947993 0.713312
0.923062 0.948736 0.738258
0.984314 0.919608 0.729228
0.316176 0.976471 0.669608
0.369914 0.976471 0.674816
0.455515 0.979412 0.688235
0.542034 0.978860 0.699387
0.596569 0.980392 0.688971
0.661336 0.982475 0.669179
0.758333 0.987132 0.685907
0.887929 0.991850 0.727635
0.984314 0.980392 0.750980
0.165686 0.038235 0.711765
0.214706 0.039216 0.715196
0.298039 0.046078 0.722549
0.401348 0.054902 0.735294
0.507843 0.068137 0.772059
0.625980 0.082721 0.823407
0.784314 0.095833 0.822549
0.895956 0.114093 0.776348
0.968627 0.117647 0.740196
0.163725 0.159436 0.717770
0.212577 0.161397 0.720098
0.296814 0.163940 0.728462
0.399157 0.164905 0.741851
0.508885 0.166789 0.777206
0.628554 0.154289 0.825260
0.784773 0.097672 0.822212
0.896737 0.114154 0.779642
0.970221 0.121569 0.742157
0.158333 0.307108 0.734804
0.213725 0.309161 0.739216
0.302022 0.312990 0.748713
0.401961 0.319026 0.761091
0.519485 0.326593 0.788848
0.636642 0.325674 0.834222
0.789032 0.319853 0.830453
0.899632 0.323529 0.791881
0.970588 0.314706 0.755147
0.137500 0.443873 0.758578
0.230040 0.453110 0.764752
0.329167 0.459191 0.771661
0.424939 0.467356 0.787485
0.541667 0.471569 0.805944
0.654412 0.471706 0.839767
0.800460 0.468137 0.835141
0.908150 0.469654 0.806633
0.977451 0.455147 0.770956
0.195588 0.592647 0.785784
0.268137 0.598039 0.792463
0.355515 0.598652 0.793750
0.458946 0.600551 0.799020
0.566422 0.606863 0.814706
0.681556 0.606373 0.837194
0.810907 0.605515 0.833946
0.920833 0.607414 0.824449
0.984314 0.586765 0.788235
0.234191 0.726471 0.807353
0.294332 0.726011 0.809804
0.380515 0.724449 0.809712
0.484804 0.725092 0.812347
0.595098 0.725919 0.816912
0.706924 0.728922 0.827252
0.820251 0.730913 0.833854
0.931005 0.731143 0.834635
0.996936 0.714583 0.798529
0.293873 0.845098 0.825735
0.345864 0.843413 0.824479
0.427757 0.842402 0.824326
0.522028 0.841023 0.827604
0.622672 0.841299 0.830637
0.722059 0.840196 0.833180
0.826654 0.840748 0.835294
0.944608 0.854167 0.847059
0.995343 0.857843 0.850000
0.349020 0.945588 0.823897
0.392279 0.942601 0.823162
0.464920 0.942371 0.826042
0.550398 0.942417 0.829197
0.639216 0.944179 0.832169
0.730346 0.947534 0.834681
0.819118 0.950490 0.827512
0.927129 0.949678 0.839691
0.985784 0.942770 0.855515
0.340196 0.980392 0.771569
0.385784 0.980392 0.775490
0.462500 0.980392 0.780392
0.549877 0.978554 0.788235
0.642157 0.980392 0.797549
0.748775 0.984681 0.821814
0.818137 0.988235 0.817402
0.908333 0.993137 0.843260
0.992157 0.988235 0.870588
0.204902 0.050980 0.797549
0.239216 0.050980 0.801471
0.311765 0.057721 0.809314
0.401961 0.066667 0.823529
0.507843 0.076716 0.842157
0.608824 0.095895 0.891973
0.737255 0.110784 0.935294
0.899081 0.122059 0.933885
0.964706 0.129412 0.845098
0.194118 0.191176 0.807843
0.232177 0.192915 0.810011
0.307736 0.199449 0.819669
0.398491 0.208517 0.834046
0.508088 0.212929 0.850000
0.608640 0.205706 0.895512
0.736259 0.168581 0.935600
0.896239 0.121998 0.931916
0.967708 0.129902 0.851593
0.196936 0.318995 0.823039
0.240610 0.323346 0.828676
0.314338 0.329075 0.837898
0.402589 0.338373 0.852635
0.515135 0.344608 0.869853
0.620496 0.349556 0.907721
0.741483 0.344884 0.941422
0.894424 0.325061 0.932292
0.969363 0.320833 0.862377
0.219608 0.455086 0.849510
0.267241 0.462033 0.855147
0.342877 0.465349 0.861520
0.428860 0.474625 0.875973
0.530729 0.482353 0.892249
0.643765 0.485294 0.916176
0.762132 0.484360 0.942341
0.900467 0.472978 0.932062
0.970833 0.458211 0.872794
0.237990 0.589951 0.875980
0.287714 0.591912 0.879871
0.360907 0.590809 0.881801
0.466912 0.604810 0.891575
0.553309 0.610907 0.908333
0.667402 0.615686 0.923100
0.785294 0.613480 0.938971
0.911244 0.609099 0.932567
0.978431 0.594118 0.883824
0.293627 0.719608 0.900797
0.331311 0.720627 0.900651
0.402022 0.721032 0.903447
0.487546 0.723820 0.907047
0.584222 0.727298 0.914951
0.691238 0.734138 0.926961
0.806051 0.736029 0.938358
0.921484 0.731641 0.937109
0.981863 0.722059 0.896569
0.331250 0.835294 0.916176
0.375720 0.835294 0.916330
0.447794 0.836581 0.919608
0.531602 0.835600 0.919960
0.625306 0.837745 0.922855
0.722641 0.842693 0.927451
0.822886 0.843321 0.934804
0.928922 0.845282 0.941850
0.982721 0.843137 0.914706
0.374081 0.945650 0.927022
0.416184 0.943398 0.927336
0.487224 0.945971 0.930438
0.566031 0.944240 0.932276
0.652972 0.945067 0.932843
0.741667 0.948146 0.936252
0.834804 0.947365 0.938725
0.934865 0.946569 0.942165
0.996998 0.954841 0.950919
0.436765 0.987745 0.887745
0.475000 0.987745 0.891667
0.535784 0.987255 0.895956
0.610294 0.986091 0.901287
0.691422 0.988235 0.907353
0.776348 0.988419 0.918995
0.878799 0.995711 0.939706
0.962255 0.999571 0.965748
1.000000 1.000000 0.985294
0.219608 0.058824 0.858824
0.250490 0.062745 0.862255
0.311765 0.066667 0.869608
0.391667 0.074510 0.882353
0.490196 0.086275 0.898039
0.598039 0.099510 0.926961
0.690196 0.118627 0.979412
0.834314 0.129902 1.000000
0.968627 0.137255 0.972549
0.213235 0.190196 0.866176
0.242586 0.193137 0.866667
0.305270 0.197059 0.874510
0.384498 0.207047 0.888419
0.486520 0.215931 0.907353
0.597549 0.215870 0.931863
0.688235 0.186887 0.981740
0.834191 0.132843 1.000000
0.968137 0.137255 0.975000
0.219608 0.316667 0.884314
0.251471 0.316667 0.885294
0.313971 0.322794 0.895343
0.387745 0.328064 0.907353
0.486275 0.336765 0.924020
0.599510 0.342034 0.945588
0.684314 0.338480 0.989216
0.833701 0.324142 1.000000
0.960784 0.295098 0.977451
0.258824 0.451471 0.910784
0.288726 0.455392 0.914706
0.342647 0.457230 0.921936
0.411275 0.463235 0.934314
0.493382 0.466422 0.948284
0.608333 0.467708 0.962255
0.696446 0.470098 0.997059
0.845282 0.462439 1.000000
0.966176 0.451961 0.975980
0.309804 0.584314 0.939216
0.357843 0.596078 0.941176
0.403431 0.597549 0.946078
0.459314 0.596814 0.951716
0.518627 0.598039 0.966667
0.616176 0.599265 0.978431
0.733333 0.596078 0.992647
0.862745 0.595833 1.000000
0.972549 0.588235 0.978431
0.323529 0.693627 0.954412
0.354718 0.695895 0.956863
0.414216 0.700000 0.958333
0.492647 0.707843 0.966176
0.589461 0.723529 0.974510
0.659804 0.722610 0.984314
0.775368 0.719976 0.990441
0.881373 0.720282 1.000000
0.979902 0.721569 0.986275
0.379412 0.803922 0.972549
0.412868 0.803922 0.972549
0.466912 0.803922 0.972794
0.541176 0.810784 0.974632
0.629412 0.817157 0.976471
0.727941 0.828186 0.982108
0.810539 0.835049 0.988971
0.907353 0.834191 0.997059
0.987255 0.840196 0.989216
0.444118 0.926961 0.984804
0.475980 0.923529 0.984804
0.529534 0.923529 0.984681
0.596936 0.925858 0.986642
0.675245 0.925735 0.986765
0.759620 0.928738 0.990012
0.852696 0.935172 0.988725
0.944056 0.950061 0.995650
0.993137 0.954902 0.995588
0.576471 0.992157 0.968627
0.603431 0.992647 0.972549
0.646078 0.996078 0.976471
0.699020 0.993627 0.976471
0.762745 0.996078 0.980392
0.843627 0.996078 0.984314
0.932353 0.997059 0.993137
0.993137 1.000000 1.000000
1.000000 1.000000 1.000000
