luts/SG4.cube
TITLE "sample7"
LUT_3D_SIZE 33
DOMAIN_MIN 0.0 0.0 0.0
DOMAIN_MAX 1.0 1.0 1.0
0.015686 0.015686 0.015686
0.038725 0.019485 0.019485
0.073039 0.019363 0.019363
0.096936 0.016054 0.016054
0.120098 0.015686 0.015686
0.143260 0.015686 0.018995
0.170343 0.015686 0.015686
0.201348 0.019608 0.019608
0.227451 0.015686 0.018627
0.257230 0.018505 0.019608
0.285294 0.015686 0.019608
0.316176 0.018260 0.022181
0.347059 0.017157 0.023529
0.384191 0.018015 0.023529
0.422794 0.019608 0.023529
0.459314 0.019608 0.023529
0.496078 0.019608 0.021569
0.534681 0.021446 0.023529
0.567647 0.023529 0.023529
0.598529 0.023529 0.023529
0.630882 0.025000 0.025000
0.660294 0.023529 0.024877
0.695098 0.031373 0.031373
0.724877 0.031373 0.031373
0.752941 0.031373 0.031373
0.783824 0.032230 0.032230
0.810784 0.035294 0.035294
0.845588 0.035907 0.035907
0.872059 0.039216 0.039216
0.899142 0.043505 0.043505
0.922304 0.047059 0.047059
0.945711 0.047181 0.047181
0.980392 0.050980 0.050980
0.011887 0.042647 0.015686
0.042410 0.046327 0.015690
0.077206 0.042525 0.015686
0.100858 0.035172 0.016054
0.124020 0.031005 0.015702
0.147181 0.027206 0.019014
0.174265 0.020221 0.015709
0.201321 0.019485 0.019581
0.227451 0.015778 0.019669
0.254534 0.018539 0.022461
0.285294 0.015771 0.020879
0.314871 0.018302 0.023529
0.347013 0.017111 0.023529
0.384191 0.019608 0.023529
0.422725 0.019539 0.023529
0.457533 0.019608 0.023587
0.496017 0.019608 0.025429
0.530882 0.021446 0.023529
0.563848 0.023529 0.023529
0.594730 0.023529 0.023529
0.629412 0.024954 0.024954
0.659069 0.023652 0.024958
0.691215 0.028676 0.031288
0.722059 0.030182 0.031284
0.752941 0.028431 0.031373
0.783797 0.032299 0.032299
0.810884 0.035294 0.035294
0.841789 0.035907 0.036010
0.868750 0.039216 0.039338
0.895699 0.043493 0.043493
0.922304 0.047059 0.047059
0.945826 0.047178 0.047181
0.980392 0.069975 0.051103
0.004167 0.069853 0.015686
0.038366 0.073775 0.015686
0.069853 0.073775 0.015456
0.096936 0.069975 0.015686
0.120343 0.065472 0.015686
0.146852 0.061558 0.015931
0.174311 0.054213 0.015732
0.204220 0.050368 0.019608
0.228370 0.039338 0.019792
0.258333 0.035417 0.022495
0.285294 0.028033 0.019853
0.316176 0.020872 0.022266
0.349265 0.017065 0.023529
0.387967 0.019608 0.023529
0.422656 0.019470 0.023529
0.459314 0.019608 0.023644
0.495956 0.019608 0.023529
0.530760 0.021576 0.023529
0.563726 0.023529 0.023529
0.594753 0.023529 0.023529
0.626869 0.024908 0.024908
0.656533 0.023775 0.025038
0.691008 0.028676 0.031204
0.722059 0.031127 0.031196
0.752941 0.028431 0.031373
0.783770 0.032368 0.032368
0.810983 0.035294 0.035294
0.841873 0.035907 0.036114
0.868842 0.039216 0.039461
0.895787 0.043137 0.043482
0.918857 0.043382 0.047059
0.945703 0.047174 0.047181
0.976716 0.108824 0.047304
0.003922 0.093015 0.012132
0.038247 0.096469 0.015219
0.065709 0.096714 0.015441
0.093015 0.096936 0.015353
0.116544 0.092693 0.012132
0.146626 0.089093 0.015188
0.174334 0.084873 0.015755
0.204902 0.084517 0.019527
0.231373 0.078217 0.018627
0.262255 0.076961 0.019975
0.289216 0.070228 0.019861
0.322430 0.068267 0.019975
0.358318 0.061275 0.019838
0.393260 0.051225 0.022086
0.428064 0.034727 0.023529
0.459314 0.021274 0.023529
0.495895 0.019608 0.023529
0.530955 0.021446 0.023529
0.563726 0.023529 0.023529
0.594608 0.021419 0.023529
0.626823 0.024862 0.024862
0.657962 0.023897 0.025119
0.694730 0.031120 0.031120
0.725613 0.031005 0.031108
0.755699 0.028431 0.031373
0.783743 0.032437 0.032437
0.811083 0.035294 0.035294
0.841977 0.035907 0.036217
0.868505 0.039216 0.039583
0.895221 0.043137 0.043470
0.918405 0.043382 0.047059
0.945699 0.048169 0.047181
0.976838 0.139706 0.047426
0.010784 0.126471 0.012255
0.038725 0.129810 0.015104
0.062224 0.126930 0.011765
0.092203 0.126517 0.011811
0.122610 0.127390 0.012255
0.153431 0.126471 0.015150
0.187439 0.119363 0.015778
0.221569 0.118627 0.015686
0.252328 0.115074 0.016054
0.277083 0.111412 0.013710
0.312500 0.110784 0.016176
0.348529 0.108211 0.016176
0.381863 0.103125 0.018321
0.416100 0.100613 0.017570
0.449020 0.094393 0.019608
0.482215 0.086474 0.020098
0.514951 0.078186 0.020098
0.548131 0.068612 0.021921
0.578738 0.059773 0.021599
0.609727 0.044761 0.021492
0.641360 0.031250 0.025674
0.671599 0.025199 0.027451
0.703493 0.029963 0.029963
0.732001 0.030882 0.031020
0.762010 0.031005 0.031373
0.790472 0.032123 0.032506
0.820251 0.035294 0.035294
0.850858 0.038802 0.038802
0.874939 0.039216 0.039216
0.901425 0.043781 0.043459
0.927482 0.075551 0.046385
0.950965 0.123085 0.047059
0.981373 0.163235 0.044118
0.008456 0.151103 0.015686
0.034823 0.158230 0.011784
0.058701 0.158372 0.008663
0.086340 0.158889 0.011455
0.120221 0.155438 0.011765
0.151103 0.155025 0.011765
0.185294 0.151111 0.014951
0.216789 0.146569 0.015074
0.253615 0.146109 0.015227
0.288163 0.144190 0.012377
0.323706 0.145956 0.011765
0.358088 0.142245 0.011765
0.392034 0.140794 0.014216
0.424387 0.136148 0.015686
0.455614 0.132330 0.017479
0.487910 0.126348 0.017770
0.519608 0.122733 0.017953
0.554209 0.120263 0.018057
0.584781 0.115763 0.017402
0.614216 0.110413 0.017643
0.647166 0.107966 0.021906
0.675980 0.105093 0.021971
0.706671 0.102451 0.026417
0.737573 0.099583 0.027891
0.764706 0.098529 0.028217
0.794252 0.097304 0.028922
0.822434 0.101225 0.031985
0.856127 0.109260 0.035390
0.879979 0.112500 0.035907
0.906985 0.125360 0.040139
0.929573 0.141950 0.039828
0.957250 0.170014 0.043750
0.984926 0.206005 0.043750
0.000735 0.182108 0.011765
0.023797 0.189116 0.011665
0.047748 0.189262 0.008088
0.078431 0.189882 0.008509
0.112408 0.189216 0.008241
0.146071 0.188718 0.008578
0.185156 0.188480 0.008441
0.219363 0.187906 0.011765
0.254105 0.184743 0.011949
0.292731 0.183004 0.009475
0.330622 0.184559 0.011259
0.366422 0.181985 0.009191
0.399755 0.180637 0.010570
0.432108 0.178745 0.011765
0.464798 0.174923 0.013894
0.497449 0.168873 0.015686
0.529044 0.165319 0.016054
0.561987 0.163113 0.016077
0.591835 0.161029 0.015686
0.621324 0.157108 0.013794
0.652206 0.155178 0.015962
0.681480 0.153669 0.017999
0.712745 0.155377 0.020343
0.743750 0.155476 0.023529
0.771998 0.153370 0.023713
0.798775 0.156533 0.024265
0.828922 0.160294 0.027451
0.859926 0.164331 0.031373
0.883824 0.168964 0.032108
0.910241 0.173529 0.035662
0.933134 0.185095 0.036029
0.957353 0.205415 0.039951
0.988235 0.237010 0.039951
0.000000 0.212255 0.011765
0.009314 0.219144 0.007870
0.036029 0.220290 0.004971
0.070753 0.223939 0.004779
0.104779 0.223162 0.004029
0.141690 0.224020 0.004301
0.182070 0.223162 0.003922
0.219910 0.223162 0.004592
0.256556 0.222733 0.007077
0.289461 0.217038 0.008701
0.329902 0.216176 0.007843
0.369167 0.215614 0.007843
0.407475 0.215855 0.008379
0.440338 0.213500 0.008701
0.474632 0.211014 0.011765
0.505515 0.207475 0.011765
0.536826 0.203983 0.012623
0.569765 0.201716 0.014250
0.599502 0.195711 0.013963
0.629044 0.192299 0.012274
0.657920 0.191789 0.013680
0.688503 0.190342 0.014239
0.719876 0.191789 0.016276
0.751471 0.192406 0.019608
0.778768 0.192004 0.019822
0.806495 0.195711 0.019795
0.834153 0.199632 0.023529
0.866445 0.203554 0.027451
0.887745 0.204902 0.028309
0.911194 0.211845 0.031453
0.934069 0.219539 0.032230
0.961275 0.236275 0.036152
0.989093 0.267157 0.036152
0.000000 0.273529 0.001961
0.000000 0.278309 0.001011
0.017647 0.275735 0.000980
0.062500 0.276471 0.000980
0.105515 0.276838 0.000000
0.141513 0.276471 0.000000
0.187929 0.274939 0.000000
0.227083 0.270251 0.000000
0.266667 0.269608 0.000245
0.302298 0.266789 0.001685
0.335968 0.259743 0.003983
0.376563 0.255882 0.004259
0.416789 0.256985 0.007843
0.454779 0.255882 0.007843
0.489461 0.252390 0.010049
0.521078 0.248039 0.011305
0.555392 0.246569 0.013235
0.586765 0.242279 0.014706
0.616667 0.240196 0.014706
0.644608 0.236275 0.013511
0.674387 0.234191 0.011152
0.702083 0.231985 0.010754
0.730392 0.229412 0.011765
0.761152 0.230116 0.012745
0.787745 0.230392 0.012990
0.815196 0.233977 0.015901
0.842402 0.236275 0.016667
0.874908 0.243137 0.022243
0.899510 0.247059 0.024510
0.922672 0.251348 0.027543
0.941912 0.258150 0.028431
0.966146 0.271017 0.029504
0.989216 0.292157 0.029412
0.000000 0.301471 0.000000
0.000000 0.320711 0.000000
0.001034 0.324931 0.000000
0.050348 0.323897 0.000000
0.096691 0.320466 0.000000
0.136397 0.317770 0.000000
0.182108 0.315525 0.000000
0.221205 0.309930 0.000000
0.263143 0.306373 0.000000
0.301471 0.302574 0.000000
0.336152 0.297549 0.000000
0.368260 0.290330 0.000379
0.407966 0.287531 0.003922
0.448039 0.285784 0.005595
0.488710 0.286267 0.006610
0.524659 0.285198 0.010443
0.562194 0.283272 0.013174
0.595071 0.281346 0.015686
0.625988 0.277459 0.016919
0.656250 0.275245 0.015686
0.686075 0.272917 0.013526
0.712745 0.269876 0.013614
0.739828 0.267770 0.011420
0.770041 0.268202 0.010179
0.795803 0.268995 0.008946
0.825617 0.270715 0.009563
0.852290 0.274548 0.012868
0.885466 0.280932 0.015859
0.908854 0.284819 0.019746
0.930411 0.289970 0.020711
0.949686 0.297794 0.020711
0.971936 0.309681 0.023564
0.996078 0.328922 0.020711
0.000000 0.328431 0.000000
0.000000 0.351593 0.000000
0.000000 0.353355 0.000000
0.025996 0.355882 0.000000
0.081863 0.351225 0.000000
0.124877 0.348231 0.000000
0.171094 0.347534 0.000000
0.209658 0.340786 0.000000
0.251532 0.337255 0.000000
0.291812 0.333456 0.000000
0.331127 0.331970 0.000000
0.366230 0.327627 0.000000
0.401501 0.323529 0.000000
0.436397 0.316667 0.002328
0.477742 0.317203 0.005147
0.520182 0.317241 0.009069
0.562745 0.318015 0.012377
0.598935 0.316092 0.016950
0.633088 0.314905 0.019072
0.662377 0.312247 0.019110
0.692616 0.310509 0.018842
0.720466 0.306671 0.018382
0.748392 0.306373 0.021921
0.777673 0.305959 0.021078
0.806311 0.307598 0.018076
0.833310 0.311252 0.016299
0.860034 0.311749 0.012454
0.890809 0.317907 0.009069
0.914124 0.319516 0.011918
0.936765 0.324763 0.014354
0.953600 0.328845 0.016835
0.975735 0.340564 0.016912
1.000000 0.359804 0.014216
0.000000 0.355392 0.000000
0.000000 0.378596 0.000000
0.000000 0.384107 0.000000
0.003665 0.384065 0.000000
0.062010 0.381985 0.000000
0.112745 0.379132 0.000000
0.161642 0.378922 0.000000
0.197059 0.375000 0.000000
0.239583 0.372059 0.000000
0.282108 0.367881 0.000000
0.323407 0.365809 0.000000
0.362351 0.362351 0.000000
0.400490 0.359773 0.000000
0.432296 0.354289 0.000000
0.468038 0.347549 0.001348
0.508598 0.347549 0.002715
0.554963 0.349510 0.008517
0.598143 0.350839 0.014319
0.635440 0.350881 0.019608
0.668570 0.350123 0.019608
0.699157 0.349157 0.022687
0.728186 0.344853 0.029140
0.759191 0.345780 0.034329
0.789227 0.346201 0.038369
0.817279 0.347855 0.040104
0.844363 0.350123 0.038235
0.868873 0.351471 0.031863
0.898127 0.356216 0.024353
0.921369 0.356786 0.006342
0.940564 0.359555 0.006733
0.957514 0.363480 0.009107
0.976961 0.374020 0.006698
1.000000 0.390686 0.005270
0.000000 0.410784 0.000000
0.000000 0.419470 0.000000
0.000000 0.422457 0.000000
0.000000 0.422181 0.000000
0.041850 0.421078 0.000000
0.099372 0.417387 0.000000
0.152451 0.417157 0.000000
0.191789 0.413771 0.000000
0.230392 0.413235 0.000000
0.274678 0.409727 0.000000
0.315993 0.403707 0.000000
0.357001 0.398560 0.000000
0.396017 0.395098 0.000000
0.431373 0.391176 0.000000
0.466176 0.386765 0.000000
0.497840 0.378799 0.000000
0.544363 0.378922 0.001961
0.590043 0.382031 0.008379
0.631710 0.385233 0.015380
0.672089 0.388251 0.021599
0.707353 0.387255 0.027451
0.739844 0.387393 0.036152
0.768658 0.385784 0.047335
0.796078 0.386198 0.051180
0.823529 0.387255 0.053554
0.850291 0.387791 0.056219
0.876685 0.393627 0.056281
0.905760 0.396078 0.049801
0.925184 0.396262 0.040196
0.947044 0.400000 0.028952
0.966176 0.405545 0.020374
0.984115 0.411933 0.002420
0.998529 0.421078 0.000000
0.000000 0.428922 0.000000
0.000000 0.456005 0.000000
0.000000 0.465610 0.000000
0.000000 0.465809 0.000000
0.012439 0.460784 0.000000
0.081867 0.456373 0.000000
0.140250 0.454481 0.000000
0.183211 0.450632 0.000000
0.222549 0.446936 0.000000
0.262745 0.443463 0.000000
0.305637 0.437990 0.000000
0.346994 0.432345 0.000000
0.386397 0.427926 0.000000
0.426593 0.425000 0.000000
0.461397 0.422097 0.000000
0.497438 0.417402 0.000000
0.534130 0.410478 0.000000
0.575000 0.410061 0.000000
0.621324 0.415234 0.004902
0.663726 0.419696 0.013568
0.705515 0.421078 0.023545
0.740319 0.423652 0.034861
0.773529 0.425000 0.049877
0.802290 0.425655 0.057150
0.830392 0.427328 0.063725
0.857985 0.428186 0.067525
0.883701 0.433877 0.073652
0.913971 0.437749 0.077202
0.934605 0.440487 0.076348
0.953826 0.443164 0.066667
0.969263 0.443260 0.047059
0.988530 0.451030 0.018482
1.000000 0.460294 0.008578
0.000000 0.457598 0.000000
0.000000 0.484697 0.000000
0.000000 0.492785 0.000000
0.000000 0.492892 0.000000
0.000000 0.491176 0.000000
0.059704 0.485394 0.000000
0.125490 0.483655 0.000000
0.171316 0.477688 0.000000
0.212071 0.476042 0.000000
0.251103 0.473775 0.000000
0.292938 0.471569 0.000000
0.335394 0.466521 0.000000
0.377206 0.462010 0.000000
0.420305 0.459804 0.000000
0.457598 0.455882 0.000000
0.495519 0.452995 0.000000
0.532476 0.449387 0.000000
0.565020 0.441598 0.000000
0.603676 0.440947 0.000000
0.647587 0.444401 0.000697
0.690686 0.448683 0.008824
0.731740 0.451961 0.022940
0.769807 0.457108 0.038434
0.802826 0.460424 0.050628
0.831373 0.462439 0.059865
0.859674 0.465931 0.068865
0.887500 0.470267 0.075245
0.917770 0.474387 0.082353
0.938235 0.475766 0.082138
0.955599 0.479412 0.077489
0.971431 0.477941 0.056756
0.990740 0.485715 0.043804
1.000000 0.491176 0.026225
0.000000 0.486765 0.000000
0.000000 0.513848 0.000000
0.000000 0.521814 0.000000
0.000000 0.519976 0.000000
0.000000 0.518398 0.000000
0.039867 0.514216 0.000000
0.110761 0.514216 0.000000
0.159314 0.510750 0.000000
0.202420 0.508456 0.000000
0.243382 0.507135 0.000000
0.283249 0.507024 0.000000
0.325877 0.503328 0.000000
0.368336 0.500613 0.000000
0.410650 0.496201 0.000000
0.452083 0.491598 0.000000
0.490686 0.487741 0.000000
0.529412 0.484926 0.000000
0.563354 0.480143 0.000000
0.594730 0.472250 0.000000
0.630159 0.469841 0.000000
0.673775 0.474387 0.000000
0.716931 0.480760 0.003102
0.758824 0.487339 0.016383
0.796909 0.491789 0.033157
0.829289 0.495588 0.046691
0.859769 0.502451 0.059436
0.888871 0.505270 0.069240
0.916176 0.510620 0.076674
0.936412 0.511903 0.077696
0.955710 0.512550 0.072426
0.973169 0.514346 0.064583
0.992402 0.522419 0.055082
1.000000 0.525980 0.047304
0.000000 0.527451 0.000000
0.000000 0.539032 0.000000
0.000000 0.544976 0.000000
0.000000 0.547059 0.000000
0.000000 0.545098 0.000000
0.009926 0.546446 0.000000
0.091789 0.543505 0.000000
0.146936 0.545098 0.000000
0.191667 0.542647 0.000000
0.235110 0.543137 0.000000
0.275613 0.543137 0.000000
0.314828 0.538603 0.000000
0.356618 0.536029 0.000000
0.401042 0.534130 0.000000
0.441544 0.528309 0.000000
0.482966 0.526409 0.000000
0.522549 0.522549 0.000000
0.561213 0.519608 0.000000
0.596201 0.515931 0.000000
0.625980 0.511336 0.000000
0.662255 0.507108 0.000000
0.702206 0.509191 0.000000
0.745956 0.516912 0.000000
0.785355 0.522672 0.003615
0.820098 0.528431 0.018137
0.853983 0.535294 0.036152
0.882966 0.539583 0.046569
0.913603 0.545404 0.059436
0.936520 0.549020 0.068627
0.957598 0.551164 0.068627
0.975000 0.554902 0.062377
0.992402 0.558946 0.053002
1.000000 0.566667 0.050980
0.000000 0.552451 0.000000
0.000000 0.573889 0.000000
0.000000 0.581855 0.000000
0.000000 0.582158 0.000000
0.000000 0.579902 0.000000
0.000000 0.578064 0.000000
0.067057 0.575980 0.000000
0.131495 0.574544 0.000000
0.180055 0.572580 0.000000
0.222917 0.572059 0.000000
0.265319 0.572059 0.000000
0.303309 0.570221 0.000000
0.343061 0.568919 0.000000
0.385528 0.565062 0.000000
0.429167 0.564216 0.000000
0.472430 0.561156 0.000000
0.514890 0.557292 0.000000
0.557479 0.556373 0.000000
0.594171 0.554396 0.000000
0.628064 0.553688 0.000000
0.660095 0.548897 0.000000
0.691176 0.543976 0.000000
0.727941 0.543995 0.000000
0.768968 0.551716 0.000000
0.808609 0.559436 0.000000
0.844784 0.566755 0.003451
0.877696 0.574877 0.013971
0.911275 0.580434 0.032721
0.932966 0.584084 0.044102
0.953899 0.586079 0.047943
0.973169 0.591797 0.049027
0.990499 0.595711 0.037990
1.000000 0.603431 0.042034
0.000000 0.583333 0.000000
0.000000 0.601034 0.000000
0.000000 0.608931 0.000000
0.000000 0.609229 0.000000
0.000000 0.605362 0.000000
0.000000 0.605147 0.000000
0.050169 0.601226 0.000000
0.116429 0.601601 0.000000
0.166176 0.599571 0.000000
0.211275 0.599020 0.000000
0.254213 0.599020 0.000000
0.293505 0.599020 0.000000
0.332751 0.597641 0.000000
0.373935 0.597013 0.000000
0.416406 0.596063 0.000000
0.460853 0.594187 0.000000
0.502206 0.588971 0.000000
0.547741 0.587255 0.000000
0.585264 0.585264 0.000000
0.620343 0.583333 0.000000
0.655147 0.582506 0.000000
0.683824 0.575858 0.000000
0.715395 0.573284 0.000000
0.753439 0.574525 0.000000
0.791912 0.582169 0.000000
0.827934 0.588220 0.000000
0.862255 0.598039 0.000000
0.896446 0.603431 0.000000
0.923744 0.607139 0.004688
0.946484 0.611435 0.006824
0.967402 0.617157 0.010754
0.982897 0.620956 0.002206
1.000000 0.628676 0.000000
0.000000 0.610294 0.000000
0.000000 0.628114 0.000000
0.000000 0.635907 0.000000
0.000000 0.636152 0.000000
0.000000 0.630193 0.000000
0.000000 0.632230 0.000000
0.028577 0.628608 0.000000
0.103328 0.629902 0.000000
0.156250 0.629504 0.000000
0.202899 0.629247 0.000000
0.246454 0.629174 0.000000
0.285784 0.629902 0.000000
0.325858 0.629902 0.000000
0.363936 0.627872 0.000000
0.407146 0.626999 0.000000
0.448430 0.625134 0.000000
0.490564 0.620895 0.000000
0.536163 0.618137 0.000000
0.573606 0.616131 0.000000
0.611677 0.613270 0.000000
0.648024 0.612347 0.000000
0.679657 0.610294 0.000000
0.710784 0.606740 0.000000
0.742322 0.604699 0.000000
0.777788 0.605362 0.000000
0.812010 0.610803 0.000000
0.846814 0.619171 0.000000
0.883582 0.626716 0.000000
0.912209 0.630193 0.000000
0.936765 0.636301 0.000000
0.959681 0.643995 0.000000
0.977501 0.644118 0.000000
0.994485 0.654167 0.000000
0.000000 0.642647 0.000000
0.000000 0.653248 0.000000
0.000000 0.657200 0.000000
0.000000 0.657491 0.000000
0.000000 0.656556 0.000000
0.000000 0.659084 0.000000
0.003983 0.656863 0.000000
0.083134 0.659314 0.000000
0.144853 0.658578 0.000000
0.193673 0.660095 0.000000
0.239706 0.661489 0.000000
0.279534 0.662255 0.000000
0.319608 0.661275 0.000000
0.357338 0.660800 0.000000
0.396814 0.660447 0.000000
0.438649 0.657353 0.000000
0.481373 0.654902 0.000000
0.525766 0.653753 0.000000
0.567004 0.649602 0.000000
0.606587 0.648529 0.000000
0.641667 0.646140 0.000000
0.676471 0.644102 0.000000
0.708824 0.640227 0.000000
0.740395 0.639216 0.000000
0.771201 0.637377 0.000000
0.799066 0.637132 0.000000
0.835784 0.643382 0.000000
0.872426 0.650490 0.000000
0.899816 0.654718 0.000000
0.926593 0.660922 0.000000
0.949663 0.664859 0.000000
0.968873 0.672549 0.000000
0.988235 0.677941 0.000000
0.000000 0.673407 0.000000
0.000000 0.683743 0.000000
0.000000 0.687745 0.000000
0.000000 0.690319 0.000000
0.000000 0.687745 0.000000
0.000000 0.687745 0.000000
0.000000 0.686650 0.000000
0.068578 0.686960 0.000000
0.133272 0.689982 0.000000
0.182464 0.688971 0.000000
0.230515 0.689514 0.000000
0.272032 0.689434 0.000000
0.312868 0.690824 0.000000
0.351471 0.690866 0.000000
0.389315 0.690908 0.000000
0.430044 0.693034 0.000000
0.475735 0.692279 0.000000
0.518137 0.690319 0.000000
0.560271 0.688603 0.000000
0.601348 0.685352 0.000000
0.638986 0.683318 0.000000
0.675517 0.681591 0.000000
0.708510 0.678554 0.000000
0.742892 0.677830 0.000000
0.771201 0.675643 0.000000
0.801226 0.672059 0.000000
0.828562 0.672059 0.000000
0.862500 0.675034 0.000000
0.890319 0.678722 0.000000
0.917402 0.684065 0.000000
0.940479 0.687906 0.000000
0.962297 0.694363 0.000000
0.979044 0.702083 0.000000
0.000000 0.704167 0.000000
0.000000 0.713396 0.000000
0.000000 0.713480 0.000000
0.000000 0.716291 0.000000
0.000000 0.713634 0.000000
0.000000 0.710784 0.000000
0.000000 0.710294 0.000000
0.043306 0.712523 0.000000
0.119485 0.713480 0.000000
0.168283 0.713480 0.000000
0.218030 0.714706 0.000000
0.261275 0.715250 0.000000
0.303370 0.716391 0.000000
0.343750 0.717402 0.000000
0.380147 0.717938 0.000000
0.418467 0.718053 0.000000
0.462255 0.717402 0.000000
0.505354 0.714706 0.000000
0.545588 0.712301 0.000000
0.585907 0.710784 0.000000
0.624510 0.708088 0.000000
0.662186 0.706442 0.000000
0.697794 0.705637 0.000000
0.731717 0.705637 0.000000
0.764154 0.702635 0.000000
0.794631 0.702351 0.000000
0.824740 0.701210 0.000000
0.853240 0.699441 0.000000
0.880239 0.702941 0.000000
0.907238 0.707116 0.000000
0.930070 0.709559 0.000000
0.951961 0.716215 0.000000
0.968627 0.721324 0.000000
0.000000 0.733824 0.000000
0.000000 0.736677 0.000000
0.000000 0.739285 0.000000
0.000000 0.739564 0.000000
0.000000 0.738097 0.000000
0.000000 0.734926 0.000000
0.000000 0.734559 0.000000
0.015797 0.737745 0.000000
0.101440 0.739859 0.000000
0.158701 0.737745 0.000000
0.207230 0.740786 0.000000
0.252451 0.740564 0.000000
0.295267 0.742739 0.000000
0.332108 0.741667 0.000000
0.371193 0.742279 0.000000
0.409314 0.742647 0.000000
0.449326 0.743076 0.000000
0.489855 0.741081 0.000000
0.530630 0.739331 0.000000
0.571569 0.737745 0.000000
0.610172 0.736275 0.000000
0.652317 0.734547 0.000000
0.689315 0.733824 0.000000
0.724877 0.733824 0.000000
0.757567 0.733824 0.000000
0.790564 0.733824 0.000000
0.821124 0.733295 0.000000
0.852819 0.729730 0.000000
0.875980 0.729412 0.000000
0.899142 0.729799 0.000000
0.922235 0.730078 0.000000
0.944240 0.736642 0.000000
0.960784 0.740564 0.000000
0.000000 0.761765 0.000000
0.000000 0.765656 0.000000
0.000000 0.764767 0.000000
0.000000 0.768536 0.000000
0.000000 0.768627 0.000000
0.000000 0.764859 0.000000
0.000000 0.765502 0.000000
0.000000 0.767096 0.000000
0.088235 0.769608 0.000000
0.149847 0.770313 0.000000
0.197549 0.770588 0.000000
0.244516 0.771232 0.000000
0.287255 0.771201 0.000000
0.326930 0.771170 0.000000
0.365931 0.772120 0.000000
0.404075 0.772089 0.000000
0.443627 0.772549 0.000000
0.483578 0.772549 0.000000
0.524265 0.771262 0.000000
0.562868 0.770374 0.000000
0.601471 0.770466 0.000000
0.641085 0.768627 0.000000
0.681618 0.767341 0.000000
0.718413 0.766667 0.000000
0.751716 0.764461 0.000000
0.784804 0.763511 0.000000
0.818076 0.764951 0.000000
0.850337 0.761612 0.000000
0.873897 0.757353 0.000000
0.896201 0.756587 0.000000
0.918199 0.754105 0.000000
0.937500 0.759804 0.000000
0.953922 0.760784 0.000000
0.000000 0.794730 0.000000
0.000000 0.799387 0.000000
0.000000 0.798706 0.000000
0.000000 0.798652 0.000000
0.000000 0.795971 0.000000
0.000000 0.795588 0.000000
0.000000 0.798078 0.000000
0.000000 0.798652 0.000000
0.073346 0.796569 0.000000
0.142402 0.799269 0.000000
0.193896 0.801026 0.000000
0.238408 0.801520 0.000000
0.284115 0.802574 0.000000
0.324161 0.803083 0.000000
0.363113 0.806495 0.000000
0.403343 0.807721 0.000000
0.438787 0.806495 0.000000
0.480358 0.807931 0.000000
0.520588 0.807835 0.000000
0.559191 0.808314 0.000000
0.597794 0.806495 0.000000
0.636397 0.805442 0.000000
0.674142 0.801616 0.000000
0.712125 0.801095 0.000000
0.747518 0.800950 0.000000
0.780385 0.796929 0.000000
0.813848 0.796163 0.000000
0.845588 0.792390 0.000000
0.875123 0.791176 0.000000
0.899142 0.787377 0.000000
0.918137 0.786642 0.000000
0.933674 0.783061 0.000000
0.952941 0.786887 0.000000
0.000000 0.825000 0.000000
0.000000 0.825613 0.000000
0.000000 0.825735 0.000000
0.000000 0.822549 0.000000
0.000000 0.822947 0.000000
0.000000 0.821929 0.000000
0.000000 0.825000 0.000000
0.000000 0.825038 0.000000
0.051287 0.823346 0.000000
0.130676 0.825735 0.000000
0.185524 0.825965 0.000000
0.230392 0.826471 0.000000
0.274449 0.829657 0.000000
0.315196 0.828362 0.000000
0.355392 0.829657 0.000000
0.392502 0.828163 0.000000
0.431005 0.830392 0.000000
0.469164 0.830002 0.000000
0.505882 0.829657 0.000000
0.546377 0.829657 0.000000
0.584283 0.830392 0.000000
0.621691 0.830392 0.000000
0.660064 0.828661 0.000000
0.698369 0.828761 0.000000
0.736765 0.826471 0.000000
0.771324 0.826310 0.000000
0.806725 0.826333 0.000000
0.840931 0.823169 0.000000
