luts/SG4.cube
TITLE "sample7"
LUT_3D_SIZE 5
DOMAIN_MIN 0.0 0.0 0.0
DOMAIN_MAX 1.0 1.0 1.0
0.015686 0.015686 0.015686
0.227451 0.015686 0.018627
0.496078 0.019608 0.021569
0.752941 0.031373 0.031373
0.980392 0.050980 0.050980
0.000000 0.273529 0.001961
0.266667 0.269608 0.000245
0.555392 0.246569 0.013235
0.787745 0.230392 0.012990
0.989216 0.292157 0.029412
0.000000 0.527451 0.000000
0.191667 0.542647 0.000000
0.522549 0.522549 0.000000
0.820098 0.528431 0.018137
1.000000 0.566667 0.050980
0.000000 0.761765 0.000000
0.088235 0.769608 0.000000
0.443627 0.772549 0.000000
0.751716 0.764461 0.000000
0.953922 0.760784 0.000000
0.000000 0.956863 0.000000
0.083333 0.960784 0.000000
0.401961 0.964706 0.000000
0.678431 0.968627 0.000000
0.933333 0.976471 0.054902
0.027451 0.016667 0.204902
0.213725 0.016667 0.224755
0.451471 0.023529 0.237745
0.718627 0.027696 0.229167
0.960784 0.120588 0.250980
0.022304 0.266667 0.265686
0.250490 0.263909 0.267831
0.501471 0.255760 0.257598
0.751900 0.253370 0.258088
0.980392 0.297794 0.266667
0.000000 0.525490 0.277941
0.206740 0.537990 0.246201
0.515931 0.515931 0.252941
0.812623 0.537745 0.283211
1.000000 0.572059 0.305392
0.000000 0.766912 0.246569
0.132598 0.774510 0.220282
0.441054 0.776471 0.176348
0.751716 0.767218 0.242647
0.960784 0.765686 0.226225
0.000000 0.956863 0.198039
0.087500 0.960784 0.187010
0.394118 0.964706 0.124020
0.674020 0.968627 0.237500
0.937255 0.976471 0.309804
0.031373 0.019608 0.419608
0.226471 0.023529 0.434804
0.425490 0.030392 0.473529
0.651471 0.052451 0.478922
0.943137 0.062745 0.466667
0.000000 0.253922 0.460294
0.224265 0.258946 0.469485
0.442647 0.253922 0.491667
0.678064 0.262010 0.496691
0.963725 0.221078 0.467647
0.040196 0.511765 0.504902
0.255882 0.516667 0.514461
0.489216 0.509804 0.518137
0.767892 0.518137 0.521569
0.973529 0.544118 0.524510
0.004412 0.766176 0.518137
0.235539 0.768627 0.520221
0.460049 0.773039 0.474020
0.751103 0.766544 0.506740
0.972549 0.789706 0.531373
0.000000 0.954902 0.492157
0.189706 0.956863 0.494118
0.431373 0.960784 0.467647
0.676961 0.968627 0.473529
0.943137 0.976471 0.545098
0.050980 0.027451 0.618627
0.228431 0.034314 0.629412
0.423039 0.048529 0.668627
0.647059 0.067647 0.737990
0.877451 0.102941 0.716667
0.009069 0.247549 0.645588
0.220650 0.251042 0.656189
0.428554 0.258088 0.688971
0.663787 0.264951 0.751593
0.889216 0.257843 0.726716
0.000000 0.501961 0.701961
0.218750 0.506985 0.710417
0.458824 0.515931 0.734559
0.706618 0.516544 0.773775
0.925490 0.506863 0.750980
0.062500 0.760784 0.753922
0.270527 0.761029 0.757659
0.509804 0.764338 0.764951
0.743137 0.762745 0.771875
0.968873 0.782108 0.778186
0.041176 0.956863 0.741176
0.273284 0.958333 0.741176
0.516176 0.960784 0.745098
0.735049 0.972549 0.739706
0.964706 0.988235 0.788235
0.149020 0.050980 0.823529
0.263726 0.058824 0.834314
0.439216 0.076471 0.860784
0.627451 0.102941 0.923529
0.862745 0.125490 0.976471
0.126471 0.253922 0.841176
0.251226 0.257843 0.850000
0.430882 0.259314 0.875000
0.630392 0.264951 0.931373
0.869608 0.265686 0.975490
0.072549 0.500000 0.892157
0.269118 0.509314 0.898039
0.446078 0.510784 0.919608
0.659314 0.517647 0.955392
0.901961 0.523529 0.972549
0.151961 0.749020 0.942157
0.282353 0.749265 0.942402
0.488235 0.753922 0.951471
0.713971 0.765441 0.970343
0.946078 0.769608 0.984314
0.325490 0.988235 0.976471
0.413725 0.992157 0.976471
0.600000 0.992157 0.980392
0.820588 0.996078 0.985294
1.000000 1.000000 1.000000
