luts/SG4.cube
TITLE "sample7"
LUT_3D_SIZE 9
DOMAIN_MIN 0.0 0.0 0.0
DOMAIN_MAX 1.0 1.0 1.0
0.015686 0.015686 0.015686
0.120098 0.015686 0.015686
0.227451 0.015686 0.018627
0.347059 0.017157 0.023529
0.496078 0.019608 0.021569
0.630882 0.025000 0.025000
0.752941 0.031373 0.031373
0.872059 0.039216 0.039216
0.980392 0.050980 0.050980
0.010784 0.126471 0.012255
0.122610 0.127390 0.012255
0.252328 0.115074 0.016054
0.381863 0.103125 0.018321
0.514951 0.078186 0.020098
0.641360 0.031250 0.025674
0.762010 0.031005 0.031373
0.874939 0.039216 0.039216
0.981373 0.163235 0.044118
0.000000 0.273529 0.001961
0.105515 0.276838 0.000000
0.266667 0.269608 0.000245
0.416789 0.256985 0.007843
0.555392 0.246569 0.013235
0.674387 0.234191 0.011152
0.787745 0.230392 0.012990
0.899510 0.247059 0.024510
0.989216 0.292157 0.029412
0.000000 0.410784 0.000000
0.041850 0.421078 0.000000
0.230392 0.413235 0.000000
0.396017 0.395098 0.000000
0.544363 0.378922 0.001961
0.707353 0.387255 0.027451
0.823529 0.387255 0.053554
0.925184 0.396262 0.040196
0.998529 0.421078 0.000000
0.000000 0.527451 0.000000
0.000000 0.545098 0.000000
0.191667 0.542647 0.000000
0.356618 0.536029 0.000000
0.522549 0.522549 0.000000
0.662255 0.507108 0.000000
0.820098 0.528431 0.018137
0.936520 0.549020 0.068627
1.000000 0.566667 0.050980
0.000000 0.642647 0.000000
0.000000 0.656556 0.000000
0.144853 0.658578 0.000000
0.319608 0.661275 0.000000
0.481373 0.654902 0.000000
0.641667 0.646140 0.000000
0.771201 0.637377 0.000000
0.899816 0.654718 0.000000
0.988235 0.677941 0.000000
0.000000 0.761765 0.000000
0.000000 0.768627 0.000000
0.088235 0.769608 0.000000
0.287255 0.771201 0.000000
0.443627 0.772549 0.000000
0.601471 0.770466 0.000000
0.751716 0.764461 0.000000
0.873897 0.757353 0.000000
0.953922 0.760784 0.000000
0.000000 0.880882 0.000000
0.000000 0.877880 0.000000
0.006618 0.880882 0.000000
0.256373 0.884804 0.000000
0.416422 0.883333 0.000000
0.562561 0.886581 0.000000
0.713726 0.887377 0.000000
0.852941 0.884743 0.000000
0.945588 0.857353 0.000000
0.000000 0.956863 0.000000
0.000000 0.957353 0.000000
0.083333 0.960784 0.000000
0.263235 0.964706 0.000000
0.401961 0.964706 0.000000
0.539216 0.968627 0.000000
0.678431 0.968627 0.000000
0.813726 0.972059 0.000000
0.933333 0.976471 0.054902
0.023039 0.019118 0.104902
0.116176 0.015686 0.116176
0.212745 0.015809 0.119730
0.345098 0.018137 0.119914
0.478676 0.019608 0.127941
0.605882 0.025000 0.131863
0.729534 0.028431 0.131863
0.856863 0.036213 0.131801
0.968137 0.050980 0.130882
0.020037 0.125551 0.125551
0.121691 0.126524 0.129580
0.235432 0.129841 0.129856
0.368222 0.133027 0.134643
0.496048 0.122518 0.136795
0.618321 0.103998 0.137332
0.743199 0.075873 0.139966
0.865694 0.074441 0.141238
0.974020 0.171017 0.139583
0.002696 0.272549 0.149142
0.114108 0.273361 0.140211
0.261366 0.266023 0.137377
0.403171 0.258686 0.144332
0.533456 0.251716 0.149081
0.652773 0.240686 0.149832
0.769792 0.237163 0.149540
0.889874 0.250169 0.151900
0.984681 0.292157 0.149387
0.000000 0.408333 0.146385
0.063963 0.417356 0.133716
0.225934 0.407843 0.117157
0.391176 0.391981 0.133824
0.535784 0.376716 0.129657
0.690495 0.385784 0.156196
0.811642 0.387332 0.169424
0.921078 0.399816 0.174020
0.998346 0.424816 0.165012
0.000000 0.533333 0.132843
0.000000 0.551011 0.123560
0.190196 0.546446 0.094118
0.354013 0.536765 0.112745
0.520711 0.519608 0.127328
0.660141 0.504013 0.111857
0.816422 0.528676 0.152451
0.934773 0.551195 0.174755
1.000000 0.566912 0.178431
0.000000 0.650980 0.116667
0.000000 0.667157 0.113235
0.152926 0.666253 0.074862
0.320527 0.665196 0.052642
0.482108 0.656526 0.112408
0.640135 0.644539 0.114216
0.769914 0.635126 0.071032
0.903248 0.657024 0.094830
0.986765 0.680392 0.134620
0.000000 0.767647 0.077574
0.000000 0.773851 0.071584
0.104473 0.774602 0.023009
0.287929 0.775015 0.000000
0.442157 0.773652 0.000000
0.601547 0.770680 0.086443
0.753922 0.766452 0.083732
0.876961 0.757950 0.000000
0.956863 0.764338 0.000858
0.000000 0.878860 0.007659
0.000000 0.881487 0.004404
0.024893 0.882767 0.000000
0.256863 0.885271 0.000000
0.417096 0.885509 0.000000
0.561006 0.885455 0.000000
0.713404 0.887056 0.024862
0.853424 0.884367 0.119654
0.948591 0.856924 0.012623
0.000000 0.957353 0.000000
0.000000 0.960784 0.000000
0.079534 0.960784 0.000000
0.260784 0.964400 0.000000
0.400000 0.964706 0.000000
0.537071 0.965993 0.000000
0.675858 0.966054 0.000000
0.813664 0.968627 0.078922
0.933824 0.976471 0.055392
0.027451 0.016667 0.204902
0.121078 0.016667 0.212377
0.213725 0.016667 0.224755
0.320588 0.020588 0.236275
0.451471 0.023529 0.237745
0.594118 0.024632 0.229534
0.718627 0.027696 0.229167
0.849142 0.036642 0.244118
0.960784 0.120588 0.250980
0.007598 0.126103 0.225123
0.115242 0.127282 0.229519
0.228554 0.132598 0.250735
0.337791 0.136994 0.251700
0.477512 0.125674 0.239400
0.603002 0.119210 0.234252
0.728523 0.145956 0.245558
0.858119 0.148407 0.248606
0.967525 0.194485 0.254779
0.022304 0.266667 0.265686
0.133058 0.267065 0.269853
0.250490 0.263909 0.267831
0.375950 0.259804 0.261612
0.501471 0.255760 0.257598
0.623009 0.253676 0.253922
0.751900 0.253370 0.258088
0.882874 0.267004 0.263664
0.980392 0.297794 0.266667
0.008333 0.398039 0.277451
0.129504 0.404059 0.280760
0.237868 0.399479 0.261275
0.382230 0.387071 0.260172
0.530025 0.384620 0.265257
0.670956 0.390257 0.276501
0.795741 0.394424 0.283762
0.913419 0.407981 0.284819
0.993750 0.427451 0.281373
0.000000 0.525490 0.277941
0.090993 0.539890 0.280331
0.206740 0.537990 0.246201
0.345588 0.531373 0.233640
0.515931 0.515931 0.252941
0.661336 0.507169 0.238480
0.812623 0.537745 0.283211
0.932598 0.560784 0.299816
1.000000 0.572059 0.305392
0.000000 0.650000 0.268260
0.000000 0.664737 0.269822
0.175613 0.663450 0.236305
0.312776 0.662975 0.200720
0.476225 0.654596 0.241912
0.638664 0.643137 0.249617
0.774847 0.637653 0.212224
0.907583 0.664583 0.243995
0.988235 0.689338 0.287377
0.000000 0.766912 0.246569
0.000000 0.774265 0.246201
0.132598 0.774510 0.220282
0.285233 0.775551 0.180515
0.441054 0.776471 0.176348
0.601379 0.771722 0.240043
0.751716 0.767218 0.242647
0.879871 0.760631 0.187010
0.960784 0.765686 0.226225
0.000000 0.881495 0.213480
0.000000 0.881373 0.206863
0.047335 0.882016 0.187592
0.260876 0.885218 0.152129
0.413480 0.885539 0.129596
0.559176 0.888189 0.143260
0.713205 0.887469 0.238297
0.856587 0.884635 0.292111
0.948529 0.857353 0.253554
0.000000 0.956863 0.198039
0.000000 0.957843 0.198529
0.087500 0.960784 0.187010
0.262623 0.963725 0.162255
0.394118 0.964706 0.124020
0.538603 0.968015 0.159681
0.674020 0.968627 0.237500
0.812745 0.971201 0.301593
0.937255 0.976471 0.309804
0.027451 0.019608 0.305392
0.124020 0.017279 0.309314
0.219485 0.019608 0.331863
0.325980 0.022978 0.354350
0.424265 0.026716 0.344608
0.539767 0.034375 0.350980
0.699020 0.035294 0.347672
0.849326 0.037377 0.343137
0.956863 0.050980 0.333824
0.011275 0.127757 0.327635
0.119424 0.132575 0.336497
0.224648 0.135922 0.352497
0.331487 0.134804 0.365885
0.432751 0.139124 0.356464
0.552244 0.132644 0.355683
0.713281 0.098851 0.350674
0.854741 0.038197 0.344593
0.962561 0.088113 0.345098
0.001103 0.261765 0.363113
0.116406 0.261382 0.365748
0.232966 0.261029 0.370741
0.346890 0.257093 0.379182
0.454779 0.255760 0.374632
0.595895 0.245588 0.361627
0.739737 0.237347 0.356710
0.869914 0.255162 0.362301
0.970098 0.298529 0.373162
0.021140 0.386213 0.383762
0.134490 0.392647 0.389392
0.249877 0.387623 0.388312
0.367073 0.382989 0.389706
0.496967 0.377175 0.381863
0.627941 0.378431 0.379925
0.765548 0.388404 0.387255
0.893696 0.403991 0.392226
0.979841 0.416605 0.390074
0.025245 0.515686 0.394853
0.138480 0.528431 0.405882
0.255576 0.526103 0.403615
0.357047 0.524540 0.380116
0.506005 0.513726 0.384559
0.657567 0.518842 0.390931
0.801777 0.545772 0.417953
0.917739 0.562316 0.425061
0.992892 0.575245 0.428186
0.001838 0.644608 0.400919
0.127512 0.656863 0.409804
0.242417 0.655882 0.402328
0.335807 0.657292 0.360807
0.471078 0.652175 0.359069
0.634398 0.642586 0.376325
0.775276 0.638971 0.345895
0.910486 0.675490 0.395412
0.986765 0.701532 0.431863
0.000000 0.764338 0.391667
0.026991 0.770818 0.393627
0.193873 0.771844 0.378339
0.305882 0.774678 0.334191
0.435662 0.776287 0.295711
0.597442 0.771431 0.360646
0.753493 0.766667 0.372273
0.884268 0.763174 0.316483
0.967157 0.775000 0.366544
0.000000 0.878738 0.371569
0.000000 0.880614 0.371078
0.133869 0.882613 0.355132
0.278546 0.885225 0.316483
0.409314 0.888235 0.271477
0.560669 0.889208 0.278608
0.714936 0.888235 0.375352
0.856863 0.884536 0.416582
0.951654 0.860784 0.375674
0.000000 0.956863 0.358824
0.000000 0.956863 0.361275
0.117770 0.958701 0.351348
0.274081 0.959865 0.334375
0.397304 0.963971 0.302451
0.534681 0.965625 0.305760
0.669730 0.966789 0.352083
0.813542 0.968934 0.414216
0.937255 0.976471 0.425490
0.031373 0.019608 0.419608
0.131863 0.021324 0.425245
0.226471 0.023529 0.434804
0.315931 0.027451 0.463235
0.425490 0.030392 0.473529
0.528676 0.039951 0.457598
0.651471 0.052451 0.478922
0.798775 0.064951 0.480392
0.943137 0.062745 0.466667
0.020588 0.130147 0.437010
0.123529 0.134314 0.441391
0.223713 0.135784 0.450000
0.318413 0.134651 0.472396
0.430392 0.132721 0.480270
0.533915 0.143627 0.466575
0.658150 0.130821 0.484375
0.804688 0.066422 0.482629
0.945833 0.064216 0.467157
0.000000 0.253922 0.460294
0.108640 0.257843 0.465748
0.224265 0.258946 0.469485
0.328431 0.256863 0.483701
0.442647 0.253922 0.491667
0.550429 0.261765 0.483088
0.678064 0.262010 0.496691
0.839522 0.244118 0.487745
0.963725 0.221078 0.467647
0.000000 0.381373 0.482353
0.112837 0.386612 0.489798
0.233027 0.382966 0.488235
0.343413 0.380362 0.493842
0.462010 0.376225 0.503799
0.578186 0.379933 0.506189
0.732966 0.375858 0.504351
0.883517 0.362040 0.492249
0.976716 0.357843 0.472549
0.040196 0.511765 0.504902
0.142402 0.520833 0.515686
0.255882 0.516667 0.514461
0.371324 0.513480 0.515686
0.489216 0.509804 0.518137
0.633456 0.511152 0.517647
0.767892 0.518137 0.521569
0.893627 0.533211 0.526226
0.973529 0.544118 0.524510
0.049265 0.641176 0.519363
0.150888 0.651471 0.529259
0.260172 0.648346 0.527083
0.372335 0.646538 0.525735
0.478309 0.647059 0.500123
0.627972 0.641115 0.512010
0.776961 0.652451 0.518015
0.903094 0.690931 0.564216
0.984314 0.710049 0.576226
0.004412 0.766176 0.518137
0.093750 0.768382 0.521752
0.235539 0.768627 0.520221
0.358456 0.768076 0.515257
0.460049 0.773039 0.474020
0.597794 0.770588 0.485846
0.751103 0.766544 0.506740
0.881556 0.766483 0.480760
0.972549 0.789706 0.531373
0.013235 0.877206 0.521814
0.119945 0.877451 0.525276
0.242463 0.879167 0.520282
0.352727 0.882292 0.511029
0.444363 0.886887 0.451593
0.567800 0.892249 0.417800
0.720404 0.889890 0.512255
0.858578 0.886520 0.540931
0.955147 0.866667 0.504412
0.000000 0.954902 0.492157
0.005147 0.955147 0.496078
0.189706 0.956863 0.494118
0.318382 0.956863 0.488971
0.431373 0.960784 0.467647
0.546569 0.964706 0.446569
0.676961 0.968627 0.473529
0.817647 0.970588 0.535539
0.943137 0.976471 0.545098
0.040686 0.023529 0.525980
0.135784 0.023529 0.525980
0.225123 0.025613 0.531985
0.319608 0.030453 0.543199
0.407843 0.036029 0.581618
0.536213 0.045527 0.603431
0.652206 0.062745 0.588480
0.773223 0.078922 0.604596
0.884804 0.095588 0.608333
0.032843 0.128125 0.534314
0.127474 0.130415 0.537669
0.221385 0.130392 0.543627
0.319784 0.130813 0.550980
0.410784 0.126961 0.589124
0.539231 0.126532 0.606380
0.656250 0.130591 0.594317
0.777428 0.079917 0.605591
0.888725 0.099020 0.608824
0.000000 0.251593 0.554412
0.111949 0.253615 0.557889
0.220159 0.253186 0.561428
0.319179 0.254703 0.570849
0.419669 0.255453 0.603738
0.552022 0.259084 0.619930
0.667034 0.270619 0.609069
0.792111 0.265993 0.622626
0.900000 0.249020 0.613603
0.000000 0.371630 0.575061
0.086780 0.376417 0.581319
0.215334 0.374663 0.580775
0.329902 0.377305 0.591927
0.439737 0.379688 0.616238
0.572488 0.382721 0.635922
0.691927 0.392708 0.631756
0.817333 0.387546 0.638718
0.934375 0.365748 0.608885
0.007843 0.507843 0.605147
0.118382 0.513879 0.613143
0.239032 0.511765 0.612990
0.352941 0.511765 0.615870
0.470466 0.511765 0.629044
0.600000 0.514920 0.647794
0.718321 0.515686 0.651654
0.863572 0.506066 0.640196
0.973039 0.488971 0.610539
0.065809 0.638235 0.631311
0.156740 0.643068 0.636696
0.261535 0.640518 0.636213
0.373506 0.639966 0.638090
0.495098 0.639920 0.643382
0.621163 0.641115 0.649510
0.757767 0.641912 0.648545
0.877451 0.654596 0.654527
0.968627 0.666728 0.658333
0.017525 0.762868 0.639216
0.103799 0.765809 0.642295
0.246569 0.766820 0.645711
0.372855 0.764415 0.645787
0.497181 0.765870 0.646752
0.611841 0.769577 0.629550
0.748192 0.765502 0.645496
0.880438 0.779948 0.661566
0.976838 0.812255 0.690686
0.067953 0.877451 0.647059
0.165380 0.878416 0.650146
0.278477 0.880760 0.650444
0.394807 0.881687 0.652581
0.511612 0.884406 0.654596
0.608954 0.889897 0.624755
0.727405 0.888725 0.640717
0.861075 0.886972 0.664400
0.960784 0.877757 0.640502
0.000000 0.952941 0.616176
0.110784 0.955392 0.620098
0.256373 0.955882 0.623039
0.385600 0.957782 0.628799
0.487255 0.960784 0.624265
0.582904 0.963787 0.598591
0.698039 0.968627 0.599020
0.826961 0.972549 0.653125
0.952941 0.980392 0.667157
0.050980 0.027451 0.618627
0.139706 0.030392 0.621569
0.228431 0.034314 0.629412
0.321078 0.039216 0.640686
0.423039 0.048529 0.668627
0.518995 0.060294 0.722059
0.647059 0.067647 0.737990
0.774510 0.090686 0.718015
0.877451 0.102941 0.716667
0.053922 0.121078 0.628431
0.135907 0.121967 0.630346
0.226134 0.120588 0.635907
0.321078 0.120741 0.648223
0.424816 0.118689 0.672059
0.521875 0.107598 0.724280
0.652604 0.074081 0.739185
0.780622 0.090748 0.721078
0.880882 0.105882 0.718873
0.009069 0.247549 0.645588
0.117800 0.249050 0.649357
0.220650 0.251042 0.656189
0.317310 0.254075 0.667953
0.428554 0.258088 0.688971
0.528064 0.263726 0.737286
0.663787 0.264951 0.751593
0.790441 0.274387 0.733854
0.889216 0.257843 0.726716
0.000000 0.362990 0.668015
0.075214 0.369899 0.675980
0.219975 0.374234 0.679167
0.327451 0.378202 0.691667
0.437745 0.383885 0.710846
0.545588 0.389108 0.753493
0.684896 0.392647 0.766789
0.807154 0.395726 0.749157
0.906250 0.380882 0.738726
0.000000 0.501961 0.701961
0.083395 0.508027 0.709314
0.218750 0.506985 0.710417
0.338358 0.506924 0.717708
0.458824 0.515931 0.734559
0.575735 0.519608 0.762561
0.706618 0.516544 0.773775
0.829105 0.519853 0.764400
0.925490 0.506863 0.750980
0.007721 0.637377 0.734314
0.117402 0.638726 0.736183
0.242065 0.638634 0.737469
0.364308 0.638726 0.740518
0.485172 0.639645 0.746507
0.604672 0.643260 0.760126
0.728339 0.644730 0.772365
0.847672 0.642969 0.773483
0.954534 0.634804 0.753922
0.062500 0.760784 0.753922
0.157138 0.761734 0.754933
0.270527 0.761029 0.757659
0.388388 0.760938 0.760662
0.509804 0.764338 0.764951
0.628615 0.762776 0.769332
0.743137 0.762745 0.771875
0.870956 0.768168 0.772947
0.968873 0.782108 0.778186
0.125735 0.880392 0.768137
0.198575 0.880392 0.769332
0.297273 0.880607 0.771538
0.410555 0.884084 0.775184
0.524510 0.885846 0.776042
0.637868 0.887745 0.774449
0.742678 0.888725 0.763143
0.864813 0.885555 0.776961
0.968627 0.893627 0.778799
0.041176 0.956863 0.741176
0.159314 0.956863 0.741176
0.273284 0.958333 0.741176
0.392157 0.958946 0.742157
0.516176 0.960784 0.745098
0.647917 0.966176 0.760172
0.735049 0.972549 0.739706
0.843137 0.977451 0.765686
0.964706 0.988235 0.788235
0.099020 0.035784 0.726961
0.159865 0.038787 0.727451
0.241544 0.040564 0.736152
0.331556 0.050000 0.749510
0.431373 0.061029 0.766422
0.530392 0.075980 0.804412
0.627083 0.087623 0.853431
0.766667 0.102022 0.879534
0.886765 0.117647 0.846569
0.095098 0.116605 0.730821
0.156809 0.119439 0.735187
0.240686 0.117907 0.742586
0.329841 0.113802 0.754006
0.431587 0.104994 0.769608
0.531296 0.075636 0.804887
0.630515 0.090303 0.856863
0.770152 0.099012 0.876524
0.890196 0.118076 0.849510
0.063113 0.250368 0.749020
0.141222 0.252007 0.753968
0.235631 0.254534 0.760539
0.327987 0.259635 0.771170
0.430576 0.264277 0.787929
0.537178 0.268673 0.818137
0.636642 0.273529 0.867004
0.777436 0.270297 0.883333
0.896078 0.271078 0.852451
0.009130 0.369608 0.771262
0.125391 0.376225 0.778025
0.233165 0.378431 0.781664
0.335600 0.381304 0.794914
0.436275 0.390533 0.813480
0.552880 0.394968 0.836389
0.652543 0.400414 0.879105
0.792195 0.396729 0.886926
0.904596 0.392831 0.856066
0.000000 0.501716 0.805637
0.075705 0.503891 0.809773
0.214461 0.503860 0.812132
0.352053 0.512653 0.821232
0.458701 0.517647 0.836765
0.572304 0.521569 0.852114
0.675245 0.525490 0.886091
0.815196 0.523284 0.887531
0.919853 0.517892 0.864706
0.027635 0.637255 0.838235
0.136742 0.637255 0.838503
0.250934 0.637255 0.841008
0.364093 0.638726 0.844416
0.477359 0.638726 0.850092
0.592279 0.646638 0.866789
0.712117 0.649801 0.883640
0.836642 0.648874 0.887477
0.931373 0.642647 0.868811
0.114706 0.757843 0.858333
0.186060 0.760784 0.861320
0.286550 0.761428 0.864583
0.396798 0.761137 0.864308
0.510784 0.761765 0.867647
0.623698 0.765242 0.873621
0.737929 0.765870 0.881373
0.856924 0.769501 0.892111
0.950858 0.763113 0.880882
0.226532 0.876961 0.880453
0.271086 0.880339 0.881150
0.346783 0.880392 0.883885
0.439744 0.881847 0.885478
0.540472 0.882598 0.886520
0.647511 0.882621 0.888419
0.756541 0.885110 0.889154
0.871745 0.887860 0.892593
0.973529 0.893505 0.896936
0.225980 0.964216 0.872059
0.272059 0.964216 0.872059
0.347549 0.963725 0.872426
0.441483 0.964706 0.873836
0.547794 0.968627 0.878186
0.659988 0.968811 0.880576
0.779534 0.980025 0.891789
0.897059 0.992647 0.911397
0.984314 1.000000 0.931373
0.149020 0.050980 0.823529
0.191176 0.054412 0.827451
0.263726 0.058824 0.834314
0.344608 0.066667 0.845588
0.439216 0.076471 0.860784
0.539216 0.087745 0.879902
0.627451 0.102941 0.923529
0.731373 0.118137 0.965196
0.862745 0.125490 0.976471
0.146078 0.113235 0.826961
0.188235 0.109804 0.827390
0.260784 0.106373 0.834804
0.344608 0.090686 0.845282
0.438971 0.076471 0.860539
0.541360 0.087745 0.879596
0.629044 0.102941 0.926103
0.734804 0.118076 0.965135
0.869608 0.129412 0.976471
0.126471 0.253922 0.841176
0.171936 0.254902 0.842157
0.251226 0.257843 0.850000
0.336765 0.257843 0.860294
0.430882 0.259314 0.875000
0.538235 0.261765 0.893137
0.630392 0.264951 0.931373
0.735294 0.268505 0.968995
0.869608 0.265686 0.975490
0.119608 0.376961 0.861275
0.172549 0.377267 0.865196
0.252941 0.378799 0.870956
0.343137 0.380882 0.880882
0.431863 0.382843 0.895833
0.542218 0.386275 0.912806
0.642770 0.390809 0.942770
0.745588 0.394792 0.972733
0.883333 0.397549 0.975000
0.072549 0.500000 0.892157
0.182353 0.507843 0.896078
0.269118 0.509314 0.898039
0.359069 0.508578 0.905882
0.446078 0.510784 0.919608
0.545098 0.514951 0.934069
0.659314 0.517647 0.955392
0.774510 0.521569 0.976471
0.901961 0.523529 0.972549
0.061765 0.624510 0.916667
0.147549 0.623039 0.919118
0.251471 0.624142 0.920588
0.358333 0.628431 0.927880
0.480147 0.641912 0.936765
0.560294 0.642647 0.951961
0.684191 0.644485 0.965074
0.804902 0.646262 0.977941
0.923039 0.650490 0.977941
0.151961 0.749020 0.942157
0.200368 0.746446 0.942525
0.282353 0.749265 0.942402
0.380882 0.750000 0.946078
0.488235 0.753922 0.951471
0.605515 0.757476 0.957843
0.713971 0.765441 0.970343
0.839583 0.762990 0.981250
0.946078 0.769608 0.984314
0.216176 0.880882 0.969118
0.253983 0.880882 0.965686
0.329412 0.880025 0.968260
0.427328 0.883211 0.969301
0.533088 0.883088 0.971324
0.642463 0.886091 0.974510
0.754289 0.888725 0.977328
0.876961 0.896569 0.988235
0.965686 0.904412 0.992647
0.325490 0.988235 0.976471
0.352451 0.988725 0.976471
0.413725 0.992157 0.976471
0.497549 0.989706 0.976471
0.600000 0.992157 0.980392
0.707843 0.992157 0.981863
0.820588 0.996078 0.985294
0.942647 1.000000 0.996078
1.000000 1.000000 1.000000
