luts/SG5.cube
TITLE "sample8"
LUT_3D_SIZE 5
DOMAIN_MIN 0.0 0.0 0.0
DOMAIN_MAX 1.0 1.0 1.0
0.015686 0.015686 0.015686
0.184314 0.015686 0.015686
0.474510 0.019608 0.019608
0.781373 0.031373 0.031373
1.000000 0.058824 0.058824
0.000000 0.278431 0.000000
0.263726 0.272304 0.000000
0.560294 0.241667 0.001471
0.819853 0.223529 0.017647
1.000000 0.308824 0.069608
0.000000 0.570588 0.000000
0.159804 0.599510 0.000000
0.555882 0.578431 0.000000
0.867647 0.577451 0.010784
1.000000 0.603922 0.149020
0.000000 0.819608 0.000000
0.024265 0.827696 0.000000
0.454902 0.833824 0.000000
0.774510 0.825980 0.032353
0.982353 0.801961 0.000000
0.000000 0.980392 0.000000
0.077451 0.983333 0.000000
0.433333 0.986275 0.000000
0.694118 0.992157 0.191176
0.956863 0.992157 0.188235
0.026471 0.016667 0.142157
0.183088 0.016667 0.182108
0.433824 0.022059 0.210294
0.743382 0.029412 0.212010
1.000000 0.058824 0.262745
0.005882 0.254657 0.253676
0.247243 0.247243 0.254167
0.503186 0.238113 0.242647
0.787684 0.230392 0.250245
1.000000 0.288971 0.280147
0.000000 0.563235 0.287745
0.213235 0.582843 0.252941
0.557843 0.555392 0.259069
0.872549 0.578799 0.304289
1.000000 0.595588 0.339216
0.000000 0.821324 0.281863
0.158824 0.831373 0.262316
0.476838 0.831373 0.209314
0.788726 0.821078 0.288297
0.991176 0.801961 0.276471
0.000000 0.980392 0.290196
0.174510 0.982843 0.294118
0.442647 0.985784 0.260784
0.699020 0.990686 0.341176
0.960784 0.992157 0.373529
0.047059 0.019608 0.366667
0.212745 0.021569 0.393627
0.408824 0.028431 0.433333
0.688235 0.057843 0.477941
1.000000 0.064706 0.476471
0.000000 0.230392 0.441667
0.222672 0.236397 0.455147
0.446569 0.231127 0.476225
0.721446 0.236275 0.504044
0.998529 0.190196 0.481863
0.041176 0.542157 0.529412
0.275245 0.552941 0.545833
0.533333 0.544608 0.550490
0.826471 0.564951 0.565686
1.000000 0.570588 0.554902
0.071569 0.819118 0.560784
0.308578 0.821814 0.572059
0.513971 0.825245 0.519363
0.791544 0.817402 0.571078
0.997059 0.821078 0.565686
0.019608 0.976471 0.535294
0.286765 0.976961 0.539706
0.490196 0.980392 0.526471
0.715196 0.986765 0.553922
0.978431 0.980392 0.590196
0.038235 0.027451 0.591176
0.220588 0.031373 0.605882
0.427941 0.048529 0.665686
0.702941 0.076961 0.753922
0.949020 0.114706 0.733333
0.020588 0.219853 0.635049
0.224755 0.224265 0.650674
0.445343 0.236887 0.700735
0.720037 0.247304 0.776777
0.949510 0.232843 0.743382
0.060294 0.531373 0.732843
0.264706 0.540319 0.748284
0.511029 0.558088 0.780147
0.764093 0.555882 0.808946
0.968627 0.533824 0.770588
0.076471 0.809804 0.793873
0.353676 0.813542 0.802941
0.578186 0.814706 0.811887
0.788664 0.809743 0.811765
0.992402 0.822549 0.818627
0.144118 0.980392 0.756863
0.387255 0.980392 0.770098
0.610784 0.980392 0.789706
0.787745 0.986029 0.797794
0.989216 0.989216 0.848039
0.168627 0.054902 0.843137
0.279412 0.062745 0.853922
0.462745 0.082353 0.884314
0.670588 0.114706 0.963725
0.949020 0.133333 0.976471
0.154902 0.264706 0.862745
0.276716 0.268873 0.874755
0.458333 0.277451 0.901961
0.666667 0.264706 0.968627
0.945098 0.136275 0.979412
0.198039 0.537255 0.919608
0.323039 0.544608 0.926471
0.474510 0.545098 0.948039
0.693137 0.544608 0.984804
0.954902 0.531373 0.980392
0.232353 0.775490 0.962745
0.362010 0.775735 0.962745
0.554412 0.783333 0.969608
0.762255 0.799020 0.985294
0.977451 0.801961 0.993137
0.466667 0.992157 0.972549
0.554902 0.996078 0.976471
0.703922 0.996078 0.980392
0.901961 0.997059 0.989216
1.000000 1.000000 1.000000
