luts/SG5.cube
TITLE "sample8"
LUT_3D_SIZE 33
DOMAIN_MIN 0.0 0.0 0.0
DOMAIN_MAX 1.0 1.0 1.0
0.015686 0.015686 0.015686
0.019485 0.019485 0.019485
0.026961 0.019363 0.019363
0.060907 0.016054 0.016054
0.088725 0.015686 0.015686
0.107966 0.015686 0.015686
0.131863 0.015686 0.015686
0.158211 0.019608 0.019608
0.184314 0.015686 0.015686
0.215196 0.018505 0.018505
0.246078 0.015686 0.015686
0.279534 0.015686 0.018260
0.311765 0.015686 0.019608
0.348897 0.018015 0.019608
0.391422 0.019608 0.019608
0.433946 0.019608 0.019608
0.474510 0.019608 0.019608
0.516912 0.021446 0.021446
0.553676 0.023529 0.023529
0.592279 0.021201 0.023529
0.630882 0.025000 0.025000
0.665564 0.024877 0.027451
0.708088 0.031373 0.031373
0.742770 0.031373 0.031373
0.781373 0.031373 0.031373
0.816054 0.035294 0.035294
0.853922 0.036029 0.039216
0.892647 0.039828 0.039828
0.923529 0.043627 0.043627
0.954412 0.047426 0.051348
0.981127 0.054902 0.054902
1.000000 0.055025 0.055147
1.000000 0.058824 0.058824
0.015686 0.019485 0.015686
0.015686 0.027087 0.015690
0.034076 0.026968 0.019248
0.072426 0.023652 0.016054
0.092647 0.019975 0.015686
0.111906 0.019608 0.015809
0.134949 0.015709 0.015709
0.158088 0.019485 0.019485
0.180392 0.015778 0.015778
0.210206 0.018539 0.018539
0.238320 0.015771 0.015771
0.271733 0.015809 0.018302
0.303922 0.015686 0.017111
0.344975 0.017992 0.017992
0.387500 0.019539 0.019539
0.426225 0.019608 0.019608
0.466728 0.019608 0.019608
0.511275 0.021446 0.021446
0.549824 0.023529 0.023529
0.584632 0.021274 0.021274
0.624586 0.024954 0.024954
0.661723 0.024958 0.024958
0.700283 0.031288 0.031288
0.738848 0.031284 0.031284
0.777482 0.031403 0.031403
0.816150 0.035294 0.035294
0.850835 0.036129 0.039216
0.892647 0.039828 0.039932
0.923637 0.043735 0.043735
0.950601 0.047538 0.050980
0.977566 0.051225 0.054902
1.000000 0.055025 0.055262
1.000000 0.058946 0.058946
0.008088 0.038480 0.015686
0.015449 0.049525 0.015686
0.037776 0.049755 0.015686
0.073016 0.050123 0.015686
0.092678 0.038971 0.015686
0.115234 0.034597 0.015931
0.135095 0.026808 0.015732
0.159015 0.023843 0.019363
0.181495 0.019547 0.015870
0.211275 0.018574 0.018574
0.238235 0.015855 0.015855
0.271615 0.018344 0.018344
0.306219 0.015686 0.017065
0.348652 0.017969 0.017969
0.387500 0.019470 0.019470
0.427941 0.019608 0.019608
0.468505 0.019608 0.019608
0.511152 0.021446 0.021446
0.545971 0.021921 0.023529
0.584582 0.021347 0.021347
0.623039 0.024908 0.024908
0.657881 0.023775 0.025038
0.700077 0.031204 0.031204
0.738848 0.031196 0.031196
0.777512 0.031434 0.031434
0.816000 0.035294 0.035294
0.850934 0.036229 0.039216
0.889545 0.040035 0.040035
0.919853 0.043842 0.043842
0.950467 0.047649 0.047649
0.977451 0.051225 0.054902
1.000000 0.055025 0.055139
1.000000 0.070098 0.059069
0.000000 0.065931 0.012132
0.011520 0.073296 0.015219
0.037990 0.073185 0.015464
0.069485 0.073441 0.015353
0.089093 0.069531 0.012132
0.115254 0.065254 0.015131
0.138672 0.054167 0.012868
0.161765 0.053841 0.015686
0.188143 0.049142 0.015962
0.215196 0.045324 0.016054
0.245711 0.038856 0.015939
0.278925 0.031491 0.016054
0.315181 0.021906 0.015686
0.352600 0.017946 0.017946
0.392770 0.019401 0.019401
0.430025 0.019608 0.019608
0.470404 0.019608 0.019608
0.511152 0.021446 0.021446
0.546040 0.021975 0.023529
0.582326 0.021419 0.021419
0.622901 0.024862 0.024862
0.661642 0.023897 0.025119
0.703914 0.031120 0.031120
0.742402 0.031108 0.031108
0.781373 0.031464 0.031464
0.819118 0.035294 0.035294
0.853922 0.036328 0.039216
0.889093 0.039828 0.040139
0.919930 0.043949 0.043949
0.946902 0.047760 0.047760
0.973529 0.051225 0.051225
1.000000 0.055013 0.055136
1.000000 0.111887 0.058824
0.000000 0.109314 0.011765
0.024449 0.109222 0.011673
0.048713 0.109804 0.008548
0.075536 0.109804 0.011811
0.105453 0.110233 0.011826
0.132430 0.109390 0.012255
0.165870 0.102206 0.011857
0.195695 0.100980 0.012148
0.225490 0.097549 0.014706
0.250965 0.094118 0.012255
0.286520 0.093290 0.014614
0.322381 0.086642 0.013434
0.359314 0.083701 0.014400
0.393551 0.074755 0.015885
0.428738 0.066942 0.017402
0.464078 0.053707 0.017999
0.500980 0.028186 0.019608
0.538327 0.021661 0.021661
0.572580 0.021599 0.021599
0.607276 0.023529 0.023529
0.644118 0.025674 0.026961
0.680591 0.027282 0.028631
0.715104 0.029810 0.031036
0.752589 0.030882 0.031020
0.787868 0.031005 0.034804
0.822932 0.035187 0.035187
0.857261 0.039124 0.039124
0.898483 0.042647 0.042647
0.926409 0.043566 0.046569
0.953385 0.047702 0.050812
0.980147 0.053952 0.053952
0.996615 0.060202 0.057736
1.000000 0.171569 0.054902
0.000000 0.131495 0.008456
0.003799 0.142421 0.007862
0.027941 0.142685 0.007881
0.062443 0.143260 0.008398
0.093796 0.139752 0.007920
0.127574 0.139338 0.008456
0.158464 0.135539 0.008341
0.189204 0.130882 0.011631
0.222243 0.127114 0.010938
0.257721 0.126961 0.008456
0.294799 0.126348 0.011765
0.331039 0.123775 0.011765
0.367264 0.122426 0.012148
0.401222 0.116176 0.012377
0.436006 0.110248 0.013825
0.470466 0.104044 0.015686
0.507537 0.092096 0.015993
0.546366 0.083414 0.018057
0.580515 0.072059 0.021324
0.615196 0.054550 0.021565
0.648637 0.031801 0.026838
0.685363 0.027451 0.028991
0.721936 0.029726 0.031373
0.758284 0.031373 0.031373
0.793137 0.032353 0.034835
0.827819 0.035294 0.036018
0.865074 0.039216 0.039216
0.903799 0.042620 0.046446
0.931909 0.044164 0.047135
0.958333 0.048292 0.051348
0.985049 0.057016 0.054121
1.000000 0.141969 0.054799
1.000000 0.210539 0.051593
0.000000 0.162500 0.008578
0.000000 0.173307 0.003945
0.016176 0.173575 0.000980
0.050613 0.174196 0.004588
0.085049 0.170741 0.004013
0.119355 0.173032 0.004657
0.157843 0.172794 0.004519
0.194401 0.172220 0.004496
0.225919 0.168321 0.007047
0.265074 0.165686 0.004657
0.306127 0.164951 0.004657
0.342157 0.164951 0.005752
0.379871 0.163480 0.007108
0.415686 0.159138 0.008578
0.450904 0.155316 0.009972
0.483801 0.150368 0.010271
0.520833 0.143382 0.012500
0.557330 0.138848 0.014193
0.591422 0.132843 0.017402
0.622917 0.128623 0.017716
0.659589 0.122794 0.019884
0.693857 0.119838 0.021921
0.730653 0.113266 0.026455
0.768382 0.108203 0.028186
0.802819 0.101593 0.031556
0.837416 0.099020 0.032966
0.872656 0.099755 0.036029
0.910286 0.106242 0.043137
0.938725 0.113511 0.043873
0.962255 0.133663 0.047128
0.988281 0.156464 0.047794
1.000000 0.193160 0.050904
1.000000 0.244853 0.047794
0.000000 0.188725 0.004779
0.000000 0.203240 0.000027
0.001608 0.203608 0.000054
0.032885 0.204412 0.000777
0.076838 0.207475 0.000000
0.114962 0.206997 0.000858
0.157108 0.207475 0.000000
0.195711 0.207475 0.000000
0.233027 0.206832 0.000214
0.266552 0.201352 0.000858
0.309436 0.201739 0.000000
0.349560 0.200686 0.000295
0.391468 0.202083 0.000858
0.427715 0.197813 0.000858
0.462492 0.193987 0.004779
0.496814 0.191333 0.006407
0.532476 0.184375 0.006740
0.567279 0.181652 0.010329
0.599502 0.175245 0.010417
0.632966 0.171833 0.013867
0.667770 0.169853 0.015686
0.704190 0.167965 0.018160
0.740709 0.166176 0.020466
0.779167 0.167161 0.024146
0.814185 0.166759 0.024602
0.845711 0.166544 0.027639
0.879779 0.170466 0.031373
0.915319 0.174521 0.035428
0.942647 0.176593 0.040074
0.965809 0.184681 0.040441
0.988971 0.200368 0.043995
1.000000 0.228581 0.046990
1.000000 0.275858 0.043995
0.000000 0.278431 0.000000
0.000000 0.282230 0.000000
0.000000 0.283333 0.000000
0.027022 0.284222 0.000000
0.085907 0.283333 0.000000
0.128309 0.280545 0.000000
0.178554 0.279841 0.000000
0.218260 0.274510 0.000000
0.263726 0.272304 0.000000
0.299510 0.267341 0.000000
0.334007 0.262010 0.000000
0.373315 0.254902 0.000000
0.416422 0.255515 0.000000
0.455974 0.253156 0.000000
0.492831 0.248039 0.000551
0.525000 0.243597 0.000521
0.560294 0.241667 0.001471
0.594608 0.237377 0.001961
0.628431 0.234865 0.004902
0.659314 0.229779 0.004902
0.690564 0.226348 0.008824
0.724969 0.224142 0.011734
0.753922 0.221569 0.012745
0.788726 0.222549 0.016667
0.819853 0.223529 0.017647
0.854197 0.227114 0.020466
0.885110 0.230944 0.023529
0.921446 0.240349 0.029933
0.948652 0.245466 0.031495
0.972672 0.252604 0.035386
0.992341 0.264216 0.035355
0.999050 0.280944 0.036397
1.000000 0.308824 0.069608
0.000000 0.305392 0.000000
0.000000 0.340108 0.000000
0.000000 0.347426 0.000000
0.000000 0.344872 0.000000
0.014154 0.340074 0.000000
0.092084 0.333456 0.000000
0.153922 0.331212 0.000000
0.198537 0.321936 0.000000
0.249694 0.317310 0.000000
0.291602 0.311209 0.000000
0.332230 0.305392 0.000000
0.366188 0.298173 0.000000
0.406204 0.292525 0.000000
0.450368 0.289706 0.000000
0.493252 0.289085 0.000000
0.532502 0.285198 0.000000
0.572855 0.284681 0.000000
0.609655 0.280243 0.000000
0.644493 0.280277 0.000000
0.675858 0.275245 0.000000
0.708915 0.270757 0.001517
0.739472 0.266923 0.003332
0.772082 0.264729 0.005783
0.803309 0.265074 0.009256
0.838113 0.266605 0.012868
0.869612 0.271814 0.016548
0.900980 0.274548 0.018421
0.937990 0.283751 0.023702
0.963756 0.291559 0.024770
0.985313 0.297813 0.028554
1.000000 0.308525 0.028554
1.000000 0.321657 0.029573
1.000000 0.352451 0.098652
0.000000 0.332353 0.000000
0.000000 0.370956 0.000000
0.000000 0.379335 0.000000
0.000000 0.379412 0.000000
0.000000 0.374418 0.000000
0.064407 0.368260 0.000000
0.137975 0.363725 0.000000
0.183165 0.356472 0.000000
0.231863 0.351716 0.000000
0.279289 0.345979 0.000000
0.325980 0.342892 0.000000
0.365809 0.338166 0.000000
0.404197 0.334069 0.000000
0.441422 0.324380 0.000000
0.487791 0.326026 0.000000
0.533211 0.323859 0.000000
0.579779 0.324632 0.000000
0.619156 0.322710 0.000000
0.655392 0.321523 0.000000
0.687002 0.317042 0.000000
0.721078 0.314216 0.000000
0.751034 0.312063 0.000000
0.783686 0.309911 0.000000
0.817647 0.310294 0.001570
0.849449 0.311213 0.005147
0.883065 0.314805 0.009069
0.911520 0.319363 0.010800
0.945711 0.326172 0.020029
0.968873 0.330208 0.027849
0.989223 0.336527 0.028922
1.000000 0.344363 0.026563
1.000000 0.356373 0.055025
1.000000 0.383333 0.116422
0.000000 0.359314 0.000000
0.000000 0.397959 0.000000
0.000000 0.410210 0.000000
0.000000 0.410294 0.000000
0.000000 0.405515 0.000000
0.029986 0.401314 0.000000
0.118995 0.398529 0.000000
0.170098 0.393823 0.000000
0.220343 0.392249 0.000000
0.269240 0.387243 0.000000
0.319064 0.384069 0.000000
0.364924 0.376689 0.000000
0.407828 0.376225 0.000000
0.444788 0.371504 0.000000
0.481250 0.361887 0.000000
0.525000 0.359314 0.000000
0.575184 0.362561 0.000000
0.621672 0.362603 0.000000
0.662891 0.363013 0.000000
0.699142 0.361340 0.000000
0.733104 0.359574 0.000000
0.763480 0.355270 0.000000
0.798284 0.355392 0.000000
0.832364 0.356618 0.000000
0.863971 0.358609 0.000643
0.894853 0.361102 0.012205
0.922679 0.362370 0.024625
0.953029 0.367980 0.048794
0.975092 0.369899 0.058869
0.992892 0.373893 0.056001
1.000000 0.379328 0.052612
1.000000 0.391134 0.079128
1.000000 0.414216 0.120221
0.000000 0.439216 0.000000
0.000000 0.455162 0.000000
0.000000 0.459712 0.000000
0.000000 0.457353 0.000000
0.000000 0.457047 0.000000
0.038343 0.454412 0.000000
0.125919 0.450490 0.000000
0.177099 0.447105 0.000000
0.225980 0.445466 0.000000
0.273085 0.439828 0.000000
0.319424 0.434130 0.000000
0.365441 0.428814 0.000000
0.408762 0.424510 0.000000
0.447917 0.419133 0.000000
0.486765 0.415104 0.000000
0.521201 0.406740 0.000000
0.567157 0.404412 0.000000
0.617862 0.406832 0.000000
0.662684 0.409896 0.000000
0.707491 0.411275 0.000000
0.743627 0.411275 0.000000
0.776455 0.409926 0.009038
0.807843 0.408364 0.021906
0.838725 0.409237 0.033931
0.867157 0.410294 0.045343
0.897396 0.414216 0.054458
0.925980 0.418597 0.064645
0.956250 0.423039 0.071844
0.975674 0.423529 0.076287
0.992923 0.428661 0.081112
1.000000 0.436520 0.087990
1.000000 0.445634 0.091529
1.000000 0.451961 0.089706
0.000000 0.456373 0.000000
0.000000 0.508946 0.000000
0.000000 0.526616 0.000000
0.000000 0.524851 0.000000
0.000000 0.518015 0.000000
0.000000 0.507717 0.000000
0.041521 0.503730 0.000000
0.131637 0.494627 0.000000
0.194148 0.490074 0.000000
0.245301 0.483333 0.000000
0.294968 0.477206 0.000000
0.344118 0.472361 0.000000
0.392892 0.466544 0.000000
0.439740 0.461240 0.000000
0.482315 0.456495 0.000000
0.520221 0.452696 0.000000
0.560784 0.447304 0.000000
0.605526 0.441778 0.000000
0.654412 0.447021 0.000000
0.702294 0.451367 0.000000
0.746201 0.452451 0.000000
0.783456 0.453979 0.000000
0.818260 0.454779 0.013113
0.849797 0.455434 0.040851
0.880178 0.457506 0.065686
0.908965 0.459210 0.084069
0.938603 0.465686 0.101838
0.968873 0.470830 0.117279
0.989507 0.474387 0.125781
1.000000 0.478676 0.133701
1.000000 0.479902 0.139583
1.000000 0.482403 0.139633
1.000000 0.493260 0.147426
0.000000 0.491176 0.000000
0.000000 0.537569 0.000000
0.000000 0.555423 0.000000
0.000000 0.555637 0.000000
0.000000 0.546569 0.000000
0.000000 0.538848 0.000000
0.005576 0.534635 0.000000
0.106748 0.527328 0.000000
0.177635 0.523468 0.000000
0.231978 0.519600 0.000000
0.281817 0.516912 0.000000
0.332330 0.511864 0.000000
0.382506 0.507353 0.000000
0.433088 0.502819 0.000000
0.480653 0.498269 0.000000
0.521132 0.494416 0.000000
0.562990 0.491667 0.000000
0.599632 0.483019 0.000000
0.640211 0.478447 0.000000
0.685493 0.481005 0.000000
0.731281 0.484804 0.000000
0.776325 0.488703 0.000000
0.815686 0.491866 0.005239
0.849885 0.495718 0.036535
0.882353 0.498284 0.063480
0.915441 0.503431 0.086267
0.945588 0.508088 0.105637
0.972672 0.513335 0.122526
0.993137 0.514982 0.129902
1.000000 0.518421 0.139131
1.000000 0.513097 0.139568
1.000000 0.517088 0.145695
1.000000 0.524265 0.152941
0.000000 0.522059 0.000000
0.000000 0.568447 0.000000
0.000000 0.584559 0.000000
0.000000 0.582916 0.000000
0.000000 0.577451 0.000000
0.000000 0.571488 0.000000
0.000000 0.567624 0.000000
0.073441 0.564216 0.000000
0.161642 0.561520 0.000000
0.223066 0.560198 0.000000
0.276264 0.558173 0.000000
0.324529 0.554308 0.000000
0.375858 0.550444 0.000000
0.426727 0.546580 0.000000
0.473897 0.541544 0.000000
0.520221 0.536883 0.000000
0.562745 0.531985 0.000000
0.601348 0.527202 0.000000
0.635118 0.520588 0.000000
0.670221 0.512377 0.000000
0.714461 0.514905 0.000000
0.762152 0.520853 0.000000
0.806533 0.527206 0.000000
0.847155 0.533088 0.015878
0.882813 0.538726 0.052574
0.917157 0.544206 0.078730
0.945810 0.550100 0.101348
0.974387 0.552206 0.120424
0.992662 0.552941 0.129167
1.000000 0.549510 0.133651
1.000000 0.547786 0.139338
1.000000 0.551651 0.147361
1.000000 0.557353 0.156863
0.000000 0.570588 0.000000
0.000000 0.591912 0.000000
0.000000 0.601838 0.000000
0.000000 0.605882 0.000000
0.000000 0.603676 0.000000
0.000000 0.603615 0.000000
0.011152 0.601961 0.000000
0.084069 0.601961 0.000000
0.159804 0.599510 0.000000
0.220282 0.600000 0.000000
0.271078 0.600000 0.000000
0.318076 0.596078 0.000000
0.364461 0.593627 0.000000
0.415135 0.590993 0.000000
0.462255 0.587132 0.000000
0.508578 0.582230 0.000000
0.555882 0.578431 0.000000
0.598346 0.575551 0.000000
0.635172 0.572794 0.000000
0.669118 0.566238 0.000000
0.704167 0.560049 0.000000
0.744669 0.560172 0.000000
0.789093 0.565931 0.000000
0.829044 0.573101 0.000000
0.867647 0.577451 0.010784
0.903431 0.586703 0.044179
0.932353 0.590931 0.071569
0.960662 0.596078 0.101532
0.983333 0.599755 0.118137
0.998223 0.598223 0.125858
1.000000 0.598039 0.131740
1.000000 0.600061 0.141299
1.000000 0.603922 0.149020
0.000000 0.601348 0.000000
0.000000 0.636389 0.000000
0.000000 0.650115 0.000000
0.000000 0.650490 0.000000
0.000000 0.643137 0.000000
0.000000 0.640809 0.000000
0.000000 0.637232 0.000000
0.000000 0.637289 0.000000
0.088205 0.634344 0.000000
0.173529 0.632966 0.000000
0.237500 0.632315 0.000000
0.289564 0.629044 0.000000
0.339139 0.629733 0.000000
0.389939 0.627807 0.000000
0.440127 0.626961 0.000000
0.492283 0.625008 0.000000
0.541422 0.621998 0.000000
0.590690 0.619118 0.000000
0.632215 0.617142 0.000000
0.671201 0.616433 0.000000
0.707996 0.613634 0.000000
0.740809 0.605270 0.000000
0.776838 0.603431 0.000000
0.818627 0.609042 0.000000
0.860570 0.618260 0.000000
0.899686 0.625387 0.014357
0.931863 0.629435 0.055247
0.958946 0.634724 0.094895
0.981847 0.635064 0.117295
0.996668 0.635026 0.130614
1.000000 0.636887 0.145588
1.000000 0.636945 0.153309
1.000000 0.640809 0.164951
0.000000 0.634314 0.000000
0.000000 0.665794 0.000000
0.000000 0.675597 0.000000
0.000000 0.675896 0.000000
0.000000 0.669884 0.000000
0.000000 0.667892 0.000000
0.000000 0.663971 0.000000
0.000000 0.662247 0.000000
0.059007 0.661336 0.000000
0.155400 0.661144 0.000000
0.223775 0.661075 0.000000
0.279044 0.661175 0.000000
0.329259 0.660386 0.000000
0.376961 0.660455 0.000000
0.427696 0.660524 0.000000
0.477711 0.658647 0.000000
0.526838 0.655637 0.000000
0.579113 0.652888 0.000000
0.619593 0.650965 0.000000
0.661152 0.649104 0.000000
0.698928 0.645251 0.000000
0.733678 0.641988 0.000000
0.766912 0.636029 0.000000
0.805653 0.637270 0.000000
0.844179 0.641973 0.000000
0.880254 0.648284 0.000000
0.913649 0.652206 0.004274
0.947426 0.655859 0.044998
0.970313 0.656618 0.081587
0.989415 0.658287 0.106043
1.000000 0.659942 0.123039
1.000000 0.660172 0.132230
1.000000 0.666176 0.143873
0.000000 0.665196 0.000000
0.000000 0.692992 0.000000
0.000000 0.702574 0.000000
0.000000 0.702819 0.000000
0.000000 0.695175 0.000000
0.000000 0.693011 0.000000
0.000000 0.689162 0.000000
0.000000 0.689583 0.000000
0.045864 0.689920 0.000000
0.143585 0.691992 0.000000
0.214101 0.693015 0.000000
0.271324 0.692647 0.000000
0.322917 0.693245 0.000000
0.369240 0.694539 0.000000
0.416873 0.693666 0.000000
0.464962 0.691801 0.000000
0.513297 0.687561 0.000000
0.563614 0.684804 0.000000
0.608004 0.681779 0.000000
0.649510 0.679936 0.000000
0.690165 0.678554 0.000000
0.726716 0.676961 0.000000
0.762270 0.672312 0.000000
0.796078 0.669118 0.000000
0.830362 0.667525 0.000000
0.864744 0.669279 0.000000
0.897794 0.671883 0.000000
0.931985 0.677332 0.000728
0.956740 0.679289 0.023499
0.978091 0.679289 0.059980
0.997013 0.679435 0.087377
1.000000 0.681667 0.104339
1.000000 0.687132 0.117525
0.000000 0.696078 0.000000
0.000000 0.713006 0.000000
0.000000 0.719363 0.000000
0.000000 0.721078 0.000000
0.000000 0.717953 0.000000
0.000000 0.720358 0.000000
0.000000 0.719332 0.000000
0.013787 0.721293 0.000000
0.070956 0.724632 0.000000
0.155699 0.724311 0.000000
0.218321 0.727175 0.000000
0.272442 0.727941 0.000000
0.320159 0.728493 0.000000
0.366927 0.727957 0.000000
0.410049 0.729504 0.000000
0.456419 0.728431 0.000000
0.503676 0.726226 0.000000
0.551915 0.724219 0.000000
0.596170 0.722151 0.003217
0.639828 0.720481 0.020634
0.678431 0.718137 0.011581
0.715548 0.714338 0.000000
0.749265 0.709528 0.000000
0.783946 0.706648 0.000000
0.817279 0.704167 0.000000
0.844286 0.699188 0.000000
0.876471 0.698775 0.000000
0.910662 0.701731 0.000000
0.937745 0.704718 0.000000
0.960539 0.706863 0.000827
0.980055 0.710692 0.017831
0.997626 0.710907 0.026654
1.000000 0.718627 0.038235
0.000000 0.740074 0.000000
0.000000 0.754209 0.024510
0.000000 0.758333 0.028883
0.000000 0.758575 0.020228
0.000000 0.757154 0.005070
0.000000 0.754412 0.000000
0.000000 0.754412 0.000000
0.000000 0.756985 0.000000
0.000000 0.756985 0.000000
0.100479 0.756985 0.000000
0.183701 0.760103 0.000000
0.245343 0.760907 0.000000
0.304197 0.763021 0.000000
0.353799 0.764828 0.000000
0.399364 0.765418 0.000000
0.445098 0.768118 0.000000
0.495956 0.768076 0.000000
0.543034 0.767402 0.000000
0.586374 0.765686 0.000000
0.629044 0.762435 0.005227
0.669976 0.758088 0.028125
0.709463 0.754753 0.000000
0.747181 0.751716 0.000000
0.781139 0.747070 0.000000
0.814982 0.742953 0.000000
0.845221 0.738431 0.000000
0.875620 0.736895 0.000000
0.906775 0.733858 0.000000
0.933134 0.733456 0.000000
0.956250 0.734919 0.000000
0.975613 0.734881 0.000000
0.994895 0.739951 0.000402
1.000000 0.741299 0.028309
0.000000 0.769608 0.001225
0.000000 0.781250 0.031043
0.000000 0.784069 0.035371
0.000000 0.786880 0.023154
0.000000 0.782996 0.004167
0.000000 0.780147 0.000000
0.000000 0.776961 0.000000
0.000000 0.778922 0.000000
0.000000 0.781863 0.000000
0.085509 0.779802 0.000000
0.172059 0.783226 0.000000
0.233824 0.782843 0.000000
0.292586 0.786213 0.000000
0.342157 0.785669 0.000000
0.388971 0.787301 0.000000
0.430882 0.787416 0.000000
0.477328 0.787990 0.000000
0.522304 0.785332 0.000000
0.564507 0.785049 0.000000
0.605515 0.781748 0.000000
0.646814 0.778676 0.000000
0.689338 0.774877 0.007077
0.728784 0.772304 0.000000
0.767011 0.772304 0.000000
0.800123 0.767279 0.000000
0.834436 0.765418 0.000000
0.867877 0.761259 0.000000
0.900299 0.757652 0.000000
0.922886 0.756281 0.000000
0.944975 0.756503 0.000000
0.965288 0.752696 0.000000
0.986068 0.755392 0.000000
1.000000 0.759314 0.000000
0.000000 0.792647 0.000000
0.000000 0.802118 0.012167
0.000000 0.804917 0.018084
0.000000 0.802574 0.006166
0.000000 0.802344 0.000000
0.000000 0.797009 0.000000
0.000000 0.796201 0.000000
0.000000 0.799387 0.000000
0.000000 0.799387 0.000000
0.064828 0.799387 0.000000
0.160294 0.802428 0.000000
0.223407 0.803309 0.000000
0.280561 0.805484 0.000000
0.330515 0.806576 0.000000
0.376218 0.806610 0.000000
0.418654 0.806713 0.000000
0.460539 0.806127 0.000000
0.502941 0.803309 0.000000
0.545213 0.802076 0.000000
0.586600 0.802164 0.000000
0.628676 0.800077 0.000000
0.669351 0.800111 0.000000
0.713726 0.799387 0.005254
0.752639 0.796569 0.000000
0.789645 0.796293 0.000000
0.826474 0.792647 0.000000
0.860662 0.791912 0.000000
0.895293 0.784632 0.000000
0.917662 0.779427 0.000000
0.937990 0.775490 0.000000
0.956250 0.771867 0.000000
0.975647 0.771936 0.000000
0.994975 0.775858 0.000000
0.000000 0.819608 0.000000
0.000000 0.823499 0.000000
0.000000 0.825551 0.000000
0.000000 0.826471 0.000000
0.000000 0.823897 0.000000
0.000000 0.821048 0.000000
0.000000 0.821936 0.000000
0.001532 0.825276 0.000000
0.024265 0.827696 0.000000
0.082230 0.826195 0.000000
0.169669 0.827451 0.000000
0.230086 0.830362 0.000000
0.279289 0.831985 0.000000
0.327482 0.831955 0.000000
0.372365 0.832904 0.000000
0.412500 0.832874 0.000000
0.454902 0.833824 0.000000
0.493903 0.832230 0.000000
0.533517 0.832047 0.000000
0.575613 0.830392 0.000797
0.615196 0.830392 0.006985
0.656740 0.830392 0.013756
0.697304 0.829412 0.019547
0.735907 0.828431 0.027849
0.774510 0.825980 0.032353
0.809743 0.824295 0.023009
0.845527 0.822978 0.006373
0.878768 0.818995 0.000000
0.905392 0.811275 0.000000
0.928278 0.806495 0.000000
0.944792 0.802880 0.000000
0.965931 0.801930 0.000000
0.982353 0.801961 0.000000
0.000000 0.857475 0.039706
0.000000 0.861275 0.058115
0.000000 0.863657 0.057897
0.000000 0.860620 0.039871
0.000000 0.857858 0.017540
0.000000 0.856752 0.000957
0.000000 0.856618 0.000000
0.000000 0.857475 0.000000
0.000000 0.857598 0.000000
0.034792 0.859436 0.000000
0.144041 0.860539 0.000000
0.211887 0.863408 0.000000
0.268873 0.864461 0.000000
0.320466 0.864970 0.000000
0.368382 0.868382 0.000000
0.412412 0.870010 0.000000
0.455576 0.870772 0.000000
0.497672 0.873740 0.000000
0.533693 0.872304 0.000000
0.574020 0.874123 0.000000
0.612944 0.872304 0.000000
0.651030 0.871251 0.008234
0.688871 0.868382 0.032207
0.727570 0.867521 0.080867
0.767034 0.865104 0.121722
0.803244 0.862067 0.115441
0.837255 0.861972 0.076540
0.876103 0.857721 0.011661
0.906495 0.850000 0.005898
0.932514 0.842279 0.000777
0.949510 0.833701 0.000000
0.965047 0.829998 0.000000
0.984314 0.830025 0.000000
0.000000 0.879902 0.006373
0.000000 0.880614 0.018919
0.000000 0.879948 0.016131
0.000000 0.879902 0.000896
0.000000 0.877114 0.000000
0.000000 0.876095 0.000000
0.000000 0.876578 0.000000
0.000000 0.876716 0.000000
0.000000 0.877512 0.000000
0.018145 0.879902 0.000000
0.133578 0.879136 0.000000
0.203554 0.880637 0.000000
0.260018 0.884283 0.000000
0.309681 0.884260 0.000000
0.357598 0.884559 0.000000
0.401693 0.886252 0.000000
0.443137 0.886887 0.000000
0.482966 0.888090 0.000000
0.517647 0.888480 0.000000
0.555515 0.890372 0.000000
0.596048 0.889675 0.000000
0.633456 0.888480 0.000000
0.672059 0.888480 0.000000
0.712423 0.887056 0.043635
0.752451 0.888297 0.107659
0.787868 0.885133 0.144807
0.825735 0.885156 0.148039
0.864576 0.884061 0.117517
