luts/SG5.cube
TITLE "sample8"
LUT_3D_SIZE 9
DOMAIN_MIN 0.0 0.0 0.0
DOMAIN_MAX 1.0 1.0 1.0
0.015686 0.015686 0.015686
0.088725 0.015686 0.015686
0.184314 0.015686 0.015686
0.311765 0.015686 0.019608
0.474510 0.019608 0.019608
0.630882 0.025000 0.025000
0.781373 0.031373 0.031373
0.923529 0.043627 0.043627
1.000000 0.058824 0.058824
0.000000 0.109314 0.011765
0.105453 0.110233 0.011826
0.225490 0.097549 0.014706
0.359314 0.083701 0.014400
0.500980 0.028186 0.019608
0.644118 0.025674 0.026961
0.787868 0.031005 0.034804
0.926409 0.043566 0.046569
1.000000 0.171569 0.054902
0.000000 0.278431 0.000000
0.085907 0.283333 0.000000
0.263726 0.272304 0.000000
0.416422 0.255515 0.000000
0.560294 0.241667 0.001471
0.690564 0.226348 0.008824
0.819853 0.223529 0.017647
0.948652 0.245466 0.031495
1.000000 0.308824 0.069608
0.000000 0.439216 0.000000
0.000000 0.457047 0.000000
0.225980 0.445466 0.000000
0.408762 0.424510 0.000000
0.567157 0.404412 0.000000
0.743627 0.411275 0.000000
0.867157 0.410294 0.045343
0.975674 0.423529 0.076287
1.000000 0.451961 0.089706
0.000000 0.570588 0.000000
0.000000 0.603676 0.000000
0.159804 0.599510 0.000000
0.364461 0.593627 0.000000
0.555882 0.578431 0.000000
0.704167 0.560049 0.000000
0.867647 0.577451 0.010784
0.983333 0.599755 0.118137
1.000000 0.603922 0.149020
0.000000 0.696078 0.000000
0.000000 0.717953 0.000000
0.070956 0.724632 0.000000
0.320159 0.728493 0.000000
0.503676 0.726226 0.000000
0.678431 0.718137 0.011581
0.817279 0.704167 0.000000
0.937745 0.704718 0.000000
1.000000 0.718627 0.038235
0.000000 0.819608 0.000000
0.000000 0.823897 0.000000
0.024265 0.827696 0.000000
0.279289 0.831985 0.000000
0.454902 0.833824 0.000000
0.615196 0.830392 0.006985
0.774510 0.825980 0.032353
0.905392 0.811275 0.000000
0.982353 0.801961 0.000000
0.000000 0.924510 0.019118
0.009007 0.921569 0.019608
0.025490 0.921936 0.018260
0.257414 0.928738 0.013419
0.428186 0.929167 0.015931
0.572672 0.932843 0.020956
0.730270 0.934926 0.142402
0.872426 0.932353 0.173284
0.973039 0.894118 0.025000
0.000000 0.980392 0.000000
0.000000 0.980392 0.000000
0.077451 0.983333 0.000000
0.296078 0.984314 0.000000
0.433333 0.986275 0.000000
0.562745 0.988235 0.010294
0.694118 0.992157 0.191176
0.829412 0.992157 0.247059
0.956863 0.992157 0.188235
0.019118 0.019608 0.057353
0.084804 0.015686 0.081801
0.177451 0.015809 0.096569
0.308824 0.018137 0.102635
0.451471 0.019608 0.108578
0.595588 0.025000 0.112255
0.747426 0.028799 0.111765
0.908333 0.043627 0.115135
1.000000 0.058824 0.138725
0.014216 0.101409 0.104412
0.105132 0.105070 0.108509
0.210784 0.105453 0.109268
0.345833 0.104902 0.115640
0.477941 0.079013 0.115931
0.613396 0.023690 0.118114
0.762010 0.031694 0.121078
0.915755 0.045657 0.125666
0.998529 0.123100 0.145833
0.000000 0.266667 0.141912
0.106541 0.269118 0.131373
0.261060 0.256893 0.124571
0.403171 0.246063 0.128646
0.535601 0.233333 0.131127
0.663480 0.216850 0.131832
0.800153 0.207904 0.135355
0.937270 0.224341 0.147963
1.000000 0.280882 0.165809
0.000000 0.429228 0.143627
0.032583 0.444868 0.131595
0.231373 0.426654 0.107353
0.410179 0.404902 0.121706
0.564614 0.388971 0.120251
0.727083 0.394118 0.147549
0.856679 0.393536 0.166115
0.972388 0.409643 0.186933
1.000000 0.436091 0.193750
0.000000 0.574755 0.132843
0.000000 0.604197 0.128952
0.192034 0.596140 0.084988
0.379259 0.583824 0.100306
0.561887 0.564828 0.120098
0.711857 0.545098 0.104013
0.875061 0.570098 0.160784
0.985049 0.589951 0.210539
1.000000 0.594118 0.227941
0.000000 0.706373 0.136949
0.000000 0.731457 0.142953
0.150781 0.730392 0.099939
0.346078 0.729351 0.067157
0.520833 0.721324 0.121507
0.689331 0.708578 0.132292
0.824341 0.692034 0.074709
0.946484 0.701777 0.131886
1.000000 0.712255 0.191360
0.000000 0.824510 0.141789
0.000000 0.833655 0.146201
0.098928 0.834406 0.110907
0.309390 0.835478 0.052328
0.470956 0.831373 0.036887
0.630959 0.826777 0.125092
0.787898 0.824081 0.151011
0.914078 0.803370 0.072993
0.987745 0.798039 0.105515
0.020527 0.922488 0.163787
0.024326 0.928171 0.166299
0.060248 0.928814 0.123683
0.288848 0.932085 0.042165
0.448284 0.931127 0.027022
0.586803 0.932843 0.042456
0.741835 0.932353 0.230653
0.881373 0.928539 0.259980
0.973529 0.888235 0.189890
0.000000 0.980392 0.146569
0.000000 0.980882 0.182353
0.160417 0.983333 0.162255
0.315380 0.984314 0.143321
0.445098 0.986275 0.128676
0.567953 0.985907 0.177451
0.695588 0.989583 0.254289
0.833272 0.992157 0.297059
0.960784 0.992157 0.276961
0.026471 0.016667 0.142157
0.100490 0.016667 0.162255
0.183088 0.016667 0.182108
0.293137 0.019608 0.205515
0.433824 0.022059 0.210294
0.584436 0.024632 0.207843
0.743382 0.029412 0.212010
0.904044 0.043260 0.240196
1.000000 0.058824 0.262745
0.009314 0.101103 0.189828
0.106051 0.101915 0.196507
0.207108 0.104534 0.215962
0.318811 0.098943 0.222595
0.460539 0.076716 0.216789
0.598775 0.028707 0.212638
0.753799 0.036795 0.232813
0.909681 0.043827 0.244976
0.998039 0.147549 0.266176
0.005882 0.254657 0.253676
0.125490 0.255913 0.256495
0.247243 0.247243 0.254167
0.375582 0.242402 0.247028
0.503186 0.238113 0.242647
0.636244 0.232230 0.242157
0.787684 0.230392 0.250245
0.933946 0.246201 0.265748
1.000000 0.288971 0.280147
0.000000 0.410784 0.278064
0.119730 0.420542 0.286642
0.244148 0.411887 0.260539
0.400061 0.394485 0.254197
0.557292 0.391850 0.263113
0.705453 0.394669 0.276149
0.843566 0.399663 0.286428
0.964752 0.416728 0.299525
1.000000 0.435417 0.302083
0.000000 0.563235 0.287745
0.047733 0.588787 0.298591
0.213235 0.582843 0.252941
0.370833 0.574203 0.238113
0.557843 0.555392 0.259069
0.714522 0.545527 0.245833
0.872549 0.578799 0.304289
0.979841 0.597978 0.339400
1.000000 0.595588 0.339216
0.000000 0.702941 0.289216
0.022289 0.725536 0.299050
0.194455 0.725214 0.264246
0.345741 0.724678 0.219838
0.519608 0.715625 0.262806
0.688894 0.702451 0.275368
0.829259 0.691667 0.226869
0.948529 0.707215 0.283150
1.000000 0.720098 0.325613
0.000000 0.821324 0.281863
0.014798 0.833701 0.292310
0.158824 0.831373 0.262316
0.320129 0.832966 0.219485
0.476838 0.831373 0.209314
0.634712 0.826379 0.265839
0.788726 0.821078 0.288297
0.916054 0.805944 0.244332
0.991176 0.801961 0.276471
0.026348 0.925123 0.304534
0.028891 0.925000 0.307353
0.153370 0.926287 0.280790
0.308686 0.929458 0.229887
0.449510 0.929657 0.196998
0.591360 0.934130 0.207292
0.748652 0.934283 0.344577
0.885080 0.928753 0.366682
0.976471 0.887377 0.314216
0.000000 0.980392 0.290196
0.000000 0.980392 0.303309
0.174510 0.982843 0.294118
0.322549 0.983701 0.279902
0.442647 0.985784 0.260784
0.570588 0.988235 0.289828
0.699020 0.990686 0.341176
0.833333 0.992157 0.380515
0.960784 0.992157 0.373529
0.043137 0.018137 0.250490
0.112561 0.017279 0.258333
0.197059 0.018505 0.286642
0.302451 0.022059 0.314216
0.405882 0.024265 0.317157
0.540257 0.033824 0.327451
0.741667 0.031985 0.336275
0.909620 0.043627 0.343137
1.000000 0.058824 0.339216
0.020098 0.096752 0.285784
0.114415 0.098177 0.297281
0.211137 0.094072 0.317770
0.316552 0.091544 0.331082
0.421232 0.083732 0.330239
0.552620 0.033127 0.332843
0.752819 0.034482 0.340732
0.911458 0.045244 0.346063
0.998346 0.060478 0.352267
0.000000 0.240319 0.343627
0.110478 0.241851 0.351471
0.227696 0.241115 0.355637
0.344179 0.237653 0.363925
0.455392 0.234559 0.361029
0.613802 0.221936 0.350919
0.779259 0.211520 0.354504
0.924816 0.230683 0.366835
0.999387 0.296569 0.393260
0.005821 0.391605 0.383762
0.124992 0.401570 0.397419
0.257230 0.394102 0.393367
0.382498 0.388151 0.394347
0.522426 0.379963 0.384804
0.664790 0.383762 0.386190
0.816529 0.399510 0.401042
0.949089 0.419616 0.414706
1.000000 0.428860 0.411152
0.019363 0.550980 0.411029
0.121324 0.573284 0.431464
0.269730 0.564890 0.426777
0.385539 0.563021 0.398346
0.548407 0.548407 0.401471
0.711244 0.557139 0.414001
0.860294 0.588909 0.453186
0.963143 0.603431 0.470343
1.000000 0.596814 0.457598
0.050368 0.697549 0.428431
0.136780 0.718444 0.448522
0.277175 0.713664 0.440916
0.378163 0.715280 0.395182
0.521078 0.710049 0.395558
0.688519 0.698323 0.411297
0.829412 0.691131 0.372672
0.949686 0.720213 0.445703
1.000000 0.731311 0.464706
0.042279 0.820588 0.428922
0.073346 0.829642 0.437745
0.240564 0.828707 0.422243
0.354213 0.828600 0.374816
0.481924 0.828002 0.334926
0.637224 0.825123 0.395818
0.791636 0.820343 0.430637
0.920481 0.808165 0.382307
0.994118 0.808333 0.411642
0.031985 0.921078 0.436275
0.069715 0.924203 0.445136
0.246155 0.924740 0.435095
0.355882 0.928048 0.396676
0.457751 0.932016 0.323652
0.598836 0.933709 0.333387
0.752957 0.932353 0.463051
0.887071 0.928631 0.477711
0.977267 0.890380 0.427145
0.000000 0.977941 0.409804
0.004289 0.977941 0.419424
0.206863 0.979412 0.411642
0.336826 0.980944 0.401042
0.448284 0.984314 0.380392
0.575429 0.985233 0.397978
0.699020 0.988235 0.435539
0.835784 0.991973 0.472549
0.968627 0.989706 0.470098
0.047059 0.019608 0.366667
0.124020 0.019608 0.376471
0.212745 0.021569 0.393627
0.300245 0.024755 0.424755
0.408824 0.028431 0.433333
0.528922 0.036765 0.439461
0.688235 0.057843 0.477941
0.878922 0.068627 0.486029
1.000000 0.064706 0.476471
0.040441 0.087745 0.395098
0.124755 0.085263 0.402206
0.218015 0.084988 0.412500
0.309589 0.080147 0.441850
0.421324 0.061887 0.445098
0.539706 0.039461 0.449203
0.695098 0.058824 0.484559
0.878217 0.071538 0.488726
0.998039 0.067647 0.481127
0.000000 0.230392 0.441667
0.112255 0.236458 0.450061
0.222672 0.236397 0.455147
0.327267 0.234620 0.472794
0.446569 0.231127 0.476225
0.568382 0.236949 0.481311
0.721446 0.236275 0.504044
0.902574 0.218015 0.500306
0.998529 0.190196 0.481863
0.000000 0.382843 0.484804
0.104688 0.391023 0.498866
0.240074 0.385723 0.497426
0.356342 0.382108 0.503401
0.484436 0.379167 0.512010
0.614461 0.384804 0.524755
0.792157 0.386949 0.528125
0.943229 0.379259 0.519884
1.000000 0.370343 0.493873
0.041176 0.542157 0.529412
0.133578 0.559926 0.550000
0.275245 0.552941 0.545833
0.402328 0.546814 0.547059
0.533333 0.544608 0.550490
0.687010 0.550735 0.554044
0.826471 0.564951 0.565686
0.939338 0.574142 0.568137
1.000000 0.570588 0.554902
0.075000 0.695588 0.556618
0.176532 0.711734 0.576042
0.306863 0.706495 0.574632
0.427237 0.702451 0.572549
0.536765 0.701226 0.547181
0.683333 0.693903 0.555882
0.825429 0.704902 0.567279
0.943444 0.736428 0.609467
1.000000 0.739951 0.607353
0.071569 0.819118 0.560784
0.176593 0.824877 0.573897
0.308578 0.821814 0.572059
0.421998 0.821078 0.565748
0.513971 0.825245 0.519363
0.646630 0.823836 0.533517
0.791544 0.817402 0.571078
0.916850 0.811336 0.540380
0.997059 0.821078 0.565686
0.040931 0.920833 0.566422
0.213419 0.921293 0.575429
0.320527 0.921507 0.573897
0.425766 0.924357 0.569945
0.513113 0.927941 0.527451
0.626624 0.933640 0.507751
0.760968 0.933824 0.580331
0.889951 0.928646 0.596140
0.979167 0.895833 0.555147
0.019608 0.976471 0.535294
0.197304 0.976716 0.543627
0.286765 0.976961 0.539706
0.385784 0.979167 0.534804
0.490196 0.980392 0.526471
0.600000 0.984314 0.526226
0.715196 0.986765 0.553922
0.842892 0.990196 0.586275
0.978431 0.980392 0.590196
0.050980 0.021078 0.484314
0.128125 0.023223 0.488235
0.214828 0.024142 0.496691
0.308395 0.028370 0.511826
0.401961 0.034069 0.557353
0.548529 0.046078 0.586213
0.687868 0.067647 0.595711
0.839890 0.090686 0.624203
0.963235 0.105882 0.621569
0.056495 0.068505 0.498223
0.133441 0.063220 0.503699
0.222549 0.052696 0.511014
0.316062 0.031189 0.523284
0.413082 0.035938 0.569118
0.555951 0.047442 0.593451
0.693827 0.069562 0.602405
0.841031 0.091153 0.626532
0.962255 0.106863 0.624020
0.009926 0.225490 0.537132
0.115839 0.228202 0.544240
0.221262 0.227604 0.549357
0.324939 0.228431 0.560493
0.428431 0.229963 0.603186
0.578692 0.237148 0.621262
0.713511 0.250551 0.626409
0.853922 0.244424 0.642601
0.965564 0.222549 0.625490
0.000000 0.370711 0.579044
0.085241 0.377765 0.591176
0.228493 0.375123 0.591176
0.343566 0.378776 0.604963
0.463021 0.381832 0.638480
0.614177 0.393505 0.658502
0.749969 0.408333 0.666437
0.880561 0.406978 0.669730
0.987684 0.376532 0.625184
0.060294 0.534559 0.631863
0.133578 0.545251 0.646477
0.269485 0.542218 0.645711
0.392616 0.543597 0.651164
0.516912 0.548039 0.670466
0.656587 0.556097 0.689890
0.780882 0.558272 0.696569
0.917739 0.541422 0.673284
1.000000 0.515686 0.635294
0.088787 0.692647 0.676900
0.194616 0.699931 0.687186
0.315564 0.696308 0.685463
0.432759 0.693482 0.688641
0.554381 0.692126 0.692647
0.677742 0.692793 0.697465
0.804626 0.694194 0.696952
0.922618 0.700682 0.696684
0.997549 0.701042 0.689216
0.078431 0.815686 0.682353
0.196569 0.819730 0.692923
0.327420 0.818260 0.693750
0.446293 0.814645 0.696768
0.561581 0.815686 0.697610
0.669087 0.819194 0.687469
0.790165 0.814859 0.698928
0.920267 0.822855 0.698698
1.000000 0.845588 0.726961
0.058272 0.919792 0.684007
0.245205 0.922472 0.691812
0.353646 0.923009 0.693719
0.464706 0.924701 0.697495
0.574602 0.928033 0.700888
0.661405 0.933525 0.673966
0.771477 0.933456 0.686397
0.896285 0.928761 0.709988
0.982169 0.905699 0.690502
0.012255 0.976471 0.639706
0.229105 0.976471 0.650000
0.352574 0.976471 0.658333
0.478186 0.977941 0.675306
0.563235 0.980392 0.675245
0.645650 0.980944 0.662868
0.742647 0.986765 0.672426
0.854412 0.989706 0.702635
0.984314 0.984314 0.719608
0.038235 0.027451 0.591176
0.131005 0.027451 0.595098
0.220588 0.031373 0.605882
0.317157 0.037132 0.622059
0.427941 0.048529 0.665686
0.544608 0.063113 0.732353
0.702941 0.076961 0.753922
0.841176 0.102451 0.738603
0.949020 0.114706 0.733333
0.064093 0.027328 0.600000
0.139813 0.027880 0.605745
0.229167 0.032108 0.614583
0.324571 0.037653 0.633027
0.434375 0.050245 0.674020
0.549632 0.063848 0.740319
0.707353 0.078431 0.757322
0.842433 0.105025 0.743704
0.948162 0.117157 0.738848
0.020588 0.219853 0.635049
0.120067 0.222886 0.641452
0.224755 0.224265 0.650674
0.328248 0.228738 0.666697
0.445343 0.236887 0.700735
0.561887 0.244332 0.761275
0.720037 0.247304 0.776777
0.852696 0.258241 0.759896
0.949510 0.232843 0.743382
0.000000 0.360662 0.676348
0.101256 0.374020 0.688771
0.236183 0.375827 0.692279
0.346002 0.383395 0.711106
0.469914 0.394792 0.737806
0.588557 0.405806 0.791360
0.746661 0.412990 0.803493
0.864108 0.410110 0.777512
0.955882 0.393505 0.754779
0.060294 0.531373 0.732843
0.135417 0.540993 0.745895
0.264706 0.540319 0.748284
0.387623 0.543750 0.758150
0.511029 0.558088 0.780147
0.632966 0.563664 0.811091
0.764093 0.555882 0.808946
0.883333 0.552512 0.796630
0.968627 0.533824 0.770588
0.086397 0.685294 0.777941
0.205683 0.692188 0.785064
0.315809 0.689461 0.785263
0.430453 0.690058 0.788128
0.545772 0.690564 0.793076
0.661826 0.692050 0.803431
0.778738 0.689216 0.807445
0.895849 0.683824 0.806801
0.989216 0.669118 0.776103
0.076471 0.809804 0.793873
0.246415 0.814737 0.803002
0.353676 0.813542 0.802941
0.465319 0.813450 0.806495
0.578186 0.814706 0.811887
0.682935 0.812469 0.812776
0.788664 0.809743 0.811765
0.914001 0.815656 0.813450
0.992402 0.822549 0.818627
0.173039 0.924387 0.802819
0.292264 0.927834 0.809681
0.389063 0.927083 0.811826
0.492800 0.930407 0.818413
0.596507 0.930086 0.819669
0.694547 0.933088 0.818934
0.787040 0.929933 0.803707
0.901256 0.928217 0.817678
0.985662 0.925490 0.823529
0.144118 0.980392 0.756863
0.281373 0.979534 0.764706
0.387255 0.980392 0.770098
0.499510 0.978554 0.777451
0.610784 0.980392 0.789706
0.722426 0.984314 0.808333
0.787745 0.986029 0.797794
0.886275 0.989583 0.820956
0.989216 0.989216 0.848039
0.087745 0.035784 0.724020
0.152022 0.038787 0.727022
0.242034 0.040931 0.736642
0.339706 0.053922 0.757659
0.449020 0.064951 0.782108
0.559314 0.080392 0.833640
0.683333 0.099387 0.892770
0.852512 0.114216 0.907414
0.946078 0.125980 0.842157
0.098958 0.038725 0.729412
0.164047 0.036972 0.735562
0.251900 0.043566 0.745328
0.343260 0.053883 0.763886
0.452420 0.064951 0.786550
0.561259 0.081296 0.838710
0.687745 0.101578 0.894884
0.848690 0.114154 0.907407
0.947488 0.129412 0.847120
0.063235 0.235172 0.755270
0.150843 0.240564 0.762669
0.247120 0.243137 0.772059
0.343995 0.250506 0.789185
0.457047 0.258395 0.810662
0.570757 0.267770 0.855377
0.692555 0.271906 0.907292
0.849050 0.245481 0.910892
0.948529 0.235049 0.854657
0.062500 0.383333 0.794792
0.157070 0.391644 0.804228
0.263542 0.394746 0.810601
0.364453 0.404519 0.827382
0.474510 0.416422 0.849602
0.597174 0.425490 0.880208
0.705316 0.422381 0.915610
0.857881 0.409475 0.913886
0.953309 0.401348 0.865074
0.083088 0.541176 0.846569
0.184007 0.547089 0.854197
0.286029 0.546385 0.856495
0.412592 0.559467 0.864767
0.505882 0.561765 0.879657
0.620680 0.561857 0.892157
0.731740 0.559314 0.918689
0.871844 0.553156 0.914522
0.962745 0.544853 0.877941
0.134436 0.683333 0.876471
0.242502 0.685945 0.881104
0.332506 0.687209 0.881694
0.429282 0.687063 0.885585
0.530821 0.685968 0.890686
0.636213 0.691851 0.904795
0.760953 0.691115 0.916161
0.886949 0.688542 0.916850
0.969118 0.679412 0.888051
0.173652 0.805882 0.895588
0.288955 0.808869 0.901471
0.377819 0.810325 0.904902
0.473070 0.807169 0.902681
0.571814 0.809130 0.904718
0.673575 0.808609 0.907276
0.781464 0.811734 0.914400
0.900061 0.810677 0.924571
0.978431 0.806985 0.904289
0.254963 0.927512 0.916238
0.347741 0.928202 0.920044
0.427681 0.929856 0.923146
0.516950 0.929105 0.921714
0.608425 0.926930 0.922120
0.699165 0.926739 0.922204
0.801471 0.926547 0.924510
0.912377 0.928324 0.927566
0.993137 0.936213 0.936213
0.324020 0.984314 0.887745
0.408333 0.984314 0.891667
0.480760 0.984681 0.895956
0.562745 0.986091 0.900980
0.649510 0.986520 0.905147
0.738419 0.986949 0.907537
0.843627 0.992157 0.926593
0.951409 0.999571 0.954902
1.000000 1.000000 0.981373
0.168627 0.054902 0.843137
0.206863 0.058333 0.846569
0.279412 0.062745 0.853922
0.360294 0.070588 0.866667
0.462745 0.082353 0.884314
0.573039 0.095588 0.911275
0.670588 0.114706 0.963725
0.802941 0.129902 0.996569
0.949020 0.133333 0.976471
0.174020 0.078922 0.842647
0.212745 0.079350 0.846569
0.279779 0.076838 0.853922
0.363909 0.070588 0.866176
0.466422 0.082108 0.886029
0.576164 0.095282 0.910478
0.670711 0.114216 0.964338
0.801900 0.128922 0.999020
0.950490 0.136765 0.981373
0.154902 0.264706 0.862745
0.201348 0.264093 0.864706
0.276716 0.268873 0.874755
0.359314 0.273529 0.886765
0.458333 0.277451 0.901961
0.573162 0.277083 0.923897
0.666667 0.264706 0.968627
0.798775 0.223039 0.998039
0.945098 0.136275 0.979412
0.172549 0.402451 0.889706
0.222059 0.406373 0.893627
0.290196 0.405392 0.899387
0.370037 0.407843 0.910784
0.456618 0.408578 0.925735
0.573039 0.411765 0.942708
0.672672 0.409926 0.979044
0.807353 0.396262 0.996078
0.944608 0.378431 0.980882
0.198039 0.537255 0.919608
0.263725 0.546814 0.925245
0.323039 0.544608 0.926471
0.397794 0.543873 0.933333
0.474510 0.545098 0.948039
0.576471 0.547059 0.963480
0.693137 0.544608 0.984804
0.827696 0.538971 0.997794
0.954902 0.531373 0.980392
0.163235 0.653922 0.939216
0.239706 0.656189 0.941973
0.318627 0.656373 0.945221
0.413297 0.661213 0.949510
0.522059 0.678431 0.961765
0.595098 0.678431 0.976409
0.729779 0.675245 0.984681
0.850490 0.671569 0.997549
0.967157 0.672549 0.987745
0.232353 0.775490 0.962745
0.289338 0.775980 0.962745
0.362010 0.775735 0.962745
0.451961 0.779412 0.966667
0.554412 0.783333 0.969608
0.664216 0.791176 0.975613
0.762255 0.799020 0.985294
0.878922 0.798039 0.994363
0.977451 0.801961 0.993137
0.306373 0.908824 0.980882
0.358885 0.905392 0.980882
0.432598 0.905392 0.980882
0.518015 0.907721 0.983211
0.610294 0.907598 0.984804
0.708640 0.910600 0.988419
0.812500 0.916667 0.988725
0.918566 0.928431 0.992218
0.989706 0.936275 0.995588
0.466667 0.992157 0.972549
0.501471 0.992647 0.972549
0.554902 0.996078 0.976471
0.624510 0.993627 0.977941
0.703922 0.996078 0.980392
0.798039 0.996078 0.984314
0.901961 0.997059 0.989216
0.985294 1.000000 0.996569
1.000000 1.000000 1.000000
