luts/SG6.cube
TITLE "sample9"
LUT_3D_SIZE 5
DOMAIN_MIN 0.0 0.0 0.0
DOMAIN_MAX 1.0 1.0 1.0
0.015686 0.015686 0.015686
0.203922 0.015686 0.015686
0.531373 0.021569 0.021569
0.839216 0.035294 0.036275
1.000000 0.184314 0.160784
0.000000 0.314706 0.000000
0.293382 0.305882 0.000000
0.624510 0.278922 0.046078
0.882598 0.272794 0.119118
1.000000 0.358824 0.185294
0.000000 0.631373 0.074510
0.173529 0.658333 0.004902
0.600980 0.637255 0.053922
0.907843 0.630392 0.134804
1.000000 0.649020 0.258824
0.000000 0.858824 0.184314
0.074510 0.867647 0.158824
0.483333 0.874020 0.110294
0.801716 0.866667 0.243382
0.993137 0.829412 0.193137
0.000000 0.980392 0.235294
0.186275 0.984314 0.231373
0.454902 0.988235 0.225490
0.698039 0.992157 0.328431
0.972549 0.984314 0.384314
0.026471 0.016667 0.172549
0.208824 0.016667 0.223529
0.476961 0.025490 0.257353
0.808824 0.033333 0.262010
1.000000 0.150980 0.314706
0.000000 0.290196 0.304657
0.273284 0.280760 0.308027
0.556495 0.267034 0.293382
0.846324 0.275919 0.311213
1.000000 0.343873 0.342157
0.000000 0.623529 0.356373
0.259804 0.639338 0.338235
0.605147 0.614216 0.328431
0.908578 0.634681 0.385172
1.000000 0.648039 0.423529
0.049265 0.859559 0.376961
0.258701 0.869608 0.364706
0.515196 0.871446 0.297549
0.818382 0.860846 0.413664
0.997059 0.829412 0.373529
0.032353 0.980392 0.386275
0.280882 0.983578 0.385539
0.475980 0.985784 0.361275
0.709804 0.990686 0.434559
0.972549 0.984314 0.480392
0.031373 0.019608 0.439216
0.237745 0.025000 0.469608
0.458824 0.035294 0.530392
0.746569 0.071569 0.555882
1.000000 0.082353 0.533333
0.000000 0.265686 0.520588
0.249142 0.269976 0.536642
0.494608 0.262255 0.577451
0.775245 0.290196 0.591176
1.000000 0.288235 0.547549
0.064706 0.600980 0.616667
0.312990 0.610539 0.633333
0.580882 0.601961 0.639706
0.856373 0.610784 0.641912
1.000000 0.621569 0.624510
0.224020 0.857843 0.647549
0.407230 0.860049 0.659436
0.594608 0.859804 0.640441
0.821446 0.856005 0.668260
1.000000 0.854902 0.654412
0.352941 0.978431 0.613726
0.438235 0.979902 0.618137
0.565686 0.981373 0.605882
0.748529 0.986765 0.629902
0.978431 0.988235 0.684314
0.091176 0.031373 0.668627
0.247304 0.038971 0.681127
0.462745 0.060294 0.736275
0.733333 0.091912 0.847059
0.967647 0.122549 0.787255
0.084314 0.262010 0.711275
0.259498 0.272243 0.728002
0.483333 0.297426 0.775490
0.748284 0.318873 0.865135
0.967647 0.314216 0.799265
0.181863 0.583333 0.808824
0.356863 0.597181 0.823162
0.568627 0.618137 0.851961
0.795466 0.615319 0.874142
0.982353 0.586765 0.823039
0.317892 0.844118 0.861765
0.456127 0.845833 0.867892
0.637010 0.849510 0.873652
0.824265 0.848591 0.873529
0.989951 0.859314 0.867892
0.378431 0.980392 0.803922
0.514461 0.981863 0.815686
0.694608 0.980882 0.836765
0.867402 0.989951 0.876225
0.993137 0.996078 0.912745
0.219608 0.058824 0.858824
0.303922 0.066667 0.870588
0.466667 0.135294 0.900000
0.665686 0.180392 0.966667
0.929412 0.137255 1.000000
0.232353 0.320588 0.887255
0.312745 0.327696 0.898284
0.466176 0.341667 0.925490
0.665931 0.366667 0.980392
0.922549 0.383333 0.997059
0.380392 0.601961 0.945098
0.425980 0.601471 0.948529
0.516667 0.600000 0.967647
0.712745 0.604412 0.990686
0.939216 0.619608 0.998039
0.441176 0.795098 0.972549
0.510784 0.799020 0.972794
0.656373 0.815686 0.978922
0.811275 0.837990 0.988971
0.969608 0.852941 0.999020
0.619608 0.996078 0.988235
0.677451 0.996078 0.992157
0.790196 0.996078 0.992157
0.948039 1.000000 0.997059
1.000000 1.000000 1.000000
