luts/SG6.cube
TITLE "sample9"
LUT_3D_SIZE 33
DOMAIN_MIN 0.0 0.0 0.0
DOMAIN_MAX 1.0 1.0 1.0
0.015686 0.015686 0.015686
0.019485 0.019485 0.019485
0.030637 0.019363 0.019363
0.068382 0.016054 0.016054
0.092647 0.015686 0.015686
0.119118 0.015686 0.018995
0.146814 0.015686 0.015686
0.176961 0.019608 0.019608
0.203922 0.015686 0.015686
0.241544 0.018505 0.018505
0.276226 0.015686 0.015686
0.314828 0.018260 0.018260
0.350980 0.017157 0.019608
0.394363 0.019608 0.019608
0.440686 0.019608 0.019608
0.484926 0.019608 0.023529
0.531373 0.021569 0.021569
0.575735 0.023529 0.025368
0.618137 0.023529 0.023529
0.658946 0.025123 0.025123
0.701471 0.028922 0.028922
0.736152 0.028799 0.028799
0.774755 0.035294 0.035294
0.808333 0.035294 0.035294
0.839216 0.035294 0.036275
0.874020 0.040074 0.048775
0.908824 0.043137 0.064216
0.943015 0.047059 0.083578
0.966176 0.050980 0.095098
0.989338 0.055270 0.102696
1.000000 0.058824 0.118137
1.000000 0.069240 0.130025
1.000000 0.184314 0.160784
0.015686 0.019485 0.015686
0.015568 0.027087 0.015690
0.037998 0.030767 0.019248
0.076827 0.027562 0.016054
0.100383 0.023300 0.015686
0.122955 0.019608 0.015809
0.146837 0.015709 0.015709
0.173870 0.019485 0.019485
0.200092 0.015778 0.015778
0.237623 0.018539 0.018539
0.269692 0.015771 0.015771
0.307027 0.018302 0.018302
0.341713 0.017111 0.019485
0.386569 0.019608 0.019608
0.432843 0.019539 0.019608
0.477206 0.019608 0.019665
0.523529 0.021507 0.021507
0.571879 0.023529 0.023529
0.612554 0.023529 0.023529
0.651226 0.025195 0.025195
0.695129 0.028876 0.028876
0.732311 0.027574 0.028879
0.770833 0.035210 0.035210
0.804412 0.035206 0.035294
0.839246 0.035325 0.036275
0.874020 0.040047 0.040074
0.905737 0.043137 0.052574
0.939809 0.047078 0.071936
0.966299 0.050980 0.083548
0.989338 0.055258 0.094964
1.000000 0.058824 0.106733
1.000000 0.088117 0.126218
1.000000 0.192034 0.156985
0.004412 0.046078 0.015686
0.015449 0.053562 0.015686
0.045358 0.057353 0.015686
0.077328 0.054044 0.015686
0.100521 0.042892 0.015686
0.123690 0.038519 0.015931
0.150536 0.027696 0.015732
0.177574 0.023843 0.019363
0.203860 0.019547 0.015870
0.237623 0.018574 0.018574
0.269531 0.015855 0.015855
0.306824 0.018344 0.018344
0.345343 0.017065 0.017065
0.390296 0.019608 0.019608
0.436520 0.019470 0.019608
0.479036 0.019608 0.019723
0.523529 0.019608 0.021446
0.569976 0.021576 0.023529
0.608686 0.023529 0.023529
0.648920 0.025268 0.025268
0.691238 0.028830 0.028830
0.728470 0.027696 0.028960
0.770665 0.035126 0.035126
0.808088 0.035118 0.035294
0.839277 0.035355 0.036275
0.874020 0.040020 0.040878
0.905836 0.043137 0.056373
0.939913 0.047097 0.075123
0.966176 0.047763 0.086305
0.989338 0.054902 0.091131
1.000000 0.058824 0.102466
1.000000 0.106870 0.122411
1.000000 0.196078 0.156863
0.000000 0.073407 0.012132
0.014962 0.077217 0.015219
0.045810 0.081005 0.015441
0.073441 0.081250 0.015353
0.096936 0.073897 0.012132
0.123709 0.069543 0.015131
0.150804 0.061711 0.012132
0.184069 0.061317 0.015686
0.211673 0.056618 0.015962
0.245201 0.050245 0.016054
0.276968 0.042410 0.015939
0.314220 0.031491 0.016054
0.352926 0.018352 0.017019
0.398066 0.019608 0.019608
0.440479 0.019608 0.019401
0.481005 0.019608 0.019780
0.525306 0.021385 0.021385
0.569976 0.023529 0.023529
0.608578 0.023529 0.023529
0.648993 0.025341 0.025341
0.691039 0.028784 0.028784
0.732104 0.027819 0.029040
0.771691 0.035041 0.035041
0.808069 0.035030 0.035294
0.840196 0.035386 0.036275
0.875084 0.039993 0.045630
0.908824 0.043137 0.060593
0.940016 0.047116 0.075490
0.962623 0.047871 0.083532
0.986083 0.054902 0.087343
1.000000 0.058479 0.095565
1.000000 0.129668 0.115173
1.000000 0.203554 0.153309
0.000000 0.120098 0.011765
0.024923 0.123912 0.011673
0.052911 0.121293 0.008548
0.083379 0.124188 0.008333
0.117157 0.124510 0.008762
0.147135 0.120665 0.011719
0.184896 0.116268 0.011857
0.221308 0.112255 0.011765
0.255882 0.108824 0.012132
0.284314 0.105040 0.012255
0.323683 0.104412 0.012255
0.363358 0.097595 0.012255
0.404105 0.094485 0.014400
0.442448 0.086795 0.016176
0.481158 0.079167 0.019608
0.518750 0.071078 0.025092
0.557353 0.059069 0.028186
0.598759 0.041115 0.032215
0.636826 0.025031 0.035325
0.675337 0.025414 0.037745
0.714400 0.029596 0.041176
0.747748 0.031204 0.047289
0.784620 0.033395 0.056618
0.816176 0.034804 0.066789
0.847181 0.038725 0.074877
0.879075 0.039966 0.088756
0.912653 0.043045 0.099326
0.946446 0.051149 0.112377
0.970037 0.094669 0.116605
0.992126 0.131189 0.123361
0.998131 0.155637 0.127175
1.000000 0.199632 0.137086
1.000000 0.238725 0.157353
0.000000 0.146569 0.007843
0.000000 0.158107 0.007740
0.027489 0.159153 0.004534
0.066054 0.158946 0.004534
0.104534 0.158747 0.004948
0.142647 0.157816 0.007326
0.181258 0.153914 0.007843
0.215319 0.147292 0.007843
0.252788 0.146109 0.007996
0.291912 0.142647 0.008456
0.333824 0.142034 0.007843
0.372426 0.139461 0.009593
0.411642 0.137730 0.010907
0.450245 0.131863 0.012377
0.486987 0.127796 0.013825
0.526838 0.121488 0.015686
0.566054 0.117586 0.018260
0.607027 0.113277 0.021978
0.645320 0.107675 0.025245
0.682227 0.098146 0.027700
0.719225 0.091912 0.032843
0.755549 0.087623 0.038392
0.789216 0.084314 0.051593
0.823407 0.083996 0.063235
0.854442 0.082598 0.076011
0.886508 0.093015 0.091299
0.919975 0.106740 0.107238
0.954167 0.134915 0.121569
0.974556 0.154657 0.126517
0.996446 0.175433 0.133146
1.000000 0.198323 0.140602
1.000000 0.230044 0.152612
1.000000 0.265441 0.176471
0.000000 0.182108 0.004657
0.000000 0.196124 0.000735
0.002757 0.197059 0.000046
0.047059 0.197059 0.000735
0.092402 0.193627 0.000735
0.134429 0.193137 0.003424
0.179305 0.192402 0.001333
0.217930 0.192525 0.000735
0.256311 0.189277 0.003125
0.299472 0.186190 0.001264
0.344347 0.187745 0.003922
0.387868 0.187745 0.003922
0.428922 0.184559 0.004381
0.466368 0.181932 0.005951
0.505484 0.178110 0.008257
0.542279 0.175590 0.010271
0.581250 0.170466 0.014461
0.621569 0.166644 0.019953
0.656296 0.165610 0.024923
0.693206 0.163917 0.028745
0.730178 0.162010 0.036029
0.763350 0.160041 0.046676
0.798514 0.162255 0.062500
0.831127 0.163480 0.078064
0.862194 0.167034 0.089890
0.896239 0.172181 0.102367
0.926961 0.180040 0.114323
0.957966 0.195581 0.128056
0.978585 0.205790 0.133732
1.000000 0.220657 0.137921
1.000000 0.236075 0.144654
1.000000 0.261029 0.157230
1.000000 0.292647 0.180392
0.000000 0.215319 0.000858
0.000000 0.229833 0.000000
0.000000 0.231005 0.000000
0.024674 0.234559 0.000000
0.077206 0.234069 0.000000
0.122806 0.234926 0.000000
0.175980 0.234069 0.000000
0.219240 0.234069 0.000000
0.263419 0.234283 0.000000
0.300368 0.227945 0.000000
0.347695 0.229190 0.000000
0.394975 0.228136 0.000000
0.440441 0.228998 0.000000
0.480515 0.226225 0.000509
0.520458 0.224502 0.001340
0.555637 0.220412 0.006863
0.594792 0.215319 0.013725
0.633088 0.212623 0.020010
0.667885 0.210539 0.026585
0.703045 0.207127 0.033862
0.737822 0.206618 0.043750
0.774215 0.207181 0.058356
0.810072 0.210539 0.075245
0.842528 0.214220 0.091303
0.873009 0.215441 0.102298
0.904534 0.219240 0.113055
0.934681 0.227658 0.122143
0.964350 0.238737 0.133088
0.982613 0.247181 0.137745
1.000000 0.256127 0.141544
1.000000 0.266843 0.148215
1.000000 0.291081 0.161056
1.000000 0.318995 0.185172
0.000000 0.314706 0.000000
0.000000 0.318505 0.000000
0.000000 0.317831 0.000000
0.010662 0.317647 0.000000
0.084926 0.318015 0.000000
0.138021 0.317647 0.000000
0.194853 0.314706 0.000000
0.244853 0.308701 0.000000
0.293382 0.305882 0.000000
0.336642 0.303064 0.000000
0.375245 0.295343 0.000000
0.418382 0.289216 0.000000
0.468627 0.289216 0.001838
0.511428 0.287469 0.012316
0.549939 0.285294 0.022610
0.585907 0.280852 0.035478
0.624510 0.278922 0.046078
0.662653 0.275613 0.055300
0.698468 0.272549 0.062071
0.729902 0.269608 0.069240
0.762990 0.267892 0.077328
0.794210 0.266299 0.086979
0.823591 0.267647 0.097610
0.854565 0.268627 0.109375
0.882598 0.272794 0.119118
0.913235 0.277328 0.128952
0.939461 0.285049 0.136581
0.969853 0.298192 0.149173
0.989828 0.307353 0.154289
0.997243 0.315074 0.160784
1.000000 0.323836 0.163787
1.000000 0.336612 0.172733
1.000000 0.358824 0.185294
0.000000 0.343505 0.000000
0.000000 0.382142 0.000000
0.000000 0.390564 0.000000
0.000000 0.390564 0.000000
0.001930 0.382246 0.000000
0.091349 0.375490 0.000000
0.166054 0.371163 0.000000
0.219730 0.363971 0.000000
0.274877 0.357230 0.000000
0.325793 0.350425 0.000000
0.370221 0.345144 0.000000
0.409325 0.336286 0.000000
0.455714 0.329565 0.000000
0.502003 0.327819 0.000000
0.550360 0.327819 0.011504
0.594730 0.327233 0.026375
0.638664 0.326716 0.045098
0.680243 0.324877 0.059559
0.716797 0.322794 0.073055
0.748775 0.319527 0.082843
0.780561 0.317816 0.094485
0.810061 0.313603 0.102206
0.837868 0.311788 0.113848
0.868080 0.315261 0.123905
0.896936 0.316759 0.133211
0.927577 0.324514 0.144612
0.954044 0.328554 0.152574
0.980687 0.342574 0.166594
0.999035 0.350521 0.170619
1.000000 0.356637 0.176631
1.000000 0.363358 0.180568
1.000000 0.376348 0.187588
1.000000 0.399510 0.209559
0.000000 0.374265 0.002696
0.000000 0.414093 0.006495
0.000000 0.426394 0.000337
0.000000 0.425245 0.000000
0.000000 0.420251 0.000000
0.055951 0.413672 0.000000
0.146078 0.409559 0.000000
0.200368 0.402305 0.000000
0.256740 0.397549 0.000000
0.309559 0.390173 0.000000
0.361275 0.384804 0.000000
0.408019 0.380499 0.000000
0.450245 0.376746 0.000000
0.493130 0.366291 0.000000
0.544210 0.367938 0.005637
0.594118 0.369692 0.023162
0.644485 0.371691 0.045098
0.689744 0.372465 0.061926
0.728385 0.370098 0.076225
0.760784 0.367525 0.087868
0.791667 0.364185 0.099755
0.821201 0.359926 0.109926
0.850352 0.360892 0.122411
0.879634 0.363212 0.135149
0.908272 0.365196 0.144853
0.937377 0.369118 0.156817
0.961765 0.374770 0.164216
0.987814 0.384804 0.177520
1.000000 0.389032 0.182016
1.000000 0.394125 0.187010
1.000000 0.399265 0.190931
1.000000 0.410049 0.197955
1.000000 0.434314 0.218382
0.000000 0.405025 0.010417
0.000000 0.448775 0.018057
0.000000 0.461190 0.010662
0.000000 0.461275 0.002941
0.000000 0.456495 0.000000
0.009099 0.452696 0.000000
0.121216 0.450253 0.000000
0.184926 0.443750 0.000000
0.242892 0.441881 0.000000
0.297660 0.436152 0.000000
0.354481 0.431932 0.000000
0.405829 0.426321 0.000000
0.456495 0.424249 0.000000
0.498097 0.418807 0.000000
0.538726 0.409314 0.000758
0.586397 0.408946 0.012152
0.641238 0.412868 0.034069
0.692260 0.416157 0.056005
0.733479 0.416199 0.074020
0.769730 0.413848 0.088415
0.801118 0.410555 0.104902
0.831836 0.409287 0.117647
0.861956 0.409329 0.131441
0.891188 0.411520 0.144853
0.919240 0.413174 0.156495
0.946324 0.416004 0.168137
0.966912 0.419616 0.177206
0.992034 0.424632 0.186887
1.000000 0.428722 0.189798
1.000000 0.432475 0.194972
1.000000 0.436642 0.198813
1.000000 0.446036 0.206943
1.000000 0.465196 0.227451
0.000000 0.493627 0.042157
0.000000 0.511045 0.042678
0.000000 0.516973 0.036428
0.000000 0.517157 0.024877
0.000000 0.514400 0.017770
0.031020 0.510524 0.005668
0.127543 0.508303 0.000460
0.192693 0.504458 0.000000
0.248529 0.502819 0.000000
0.300123 0.497181 0.000000
0.353493 0.490472 0.005821
0.407230 0.484819 0.016314
0.457353 0.477941 0.013174
0.501226 0.471691 0.001991
0.542310 0.467065 0.000000
0.580025 0.457399 0.005055
0.630637 0.456618 0.021814
0.684528 0.460953 0.045512
0.730821 0.464154 0.067341
0.772580 0.464721 0.090456
0.807843 0.466176 0.109375
0.838863 0.463863 0.123422
0.866912 0.464951 0.138266
0.895098 0.464828 0.152696
0.922181 0.467647 0.165319
0.945389 0.469654 0.176563
0.971048 0.475490 0.188971
0.991866 0.478554 0.198912
0.998713 0.482353 0.205392
1.000000 0.487485 0.211642
1.000000 0.492892 0.220741
1.000000 0.500536 0.227007
1.000000 0.505882 0.226961
0.000000 0.515196 0.052574
0.000000 0.571641 0.070343
0.000000 0.587868 0.070734
0.000000 0.586152 0.057081
0.000000 0.580760 0.038894
0.000000 0.570462 0.013603
0.029473 0.562990 0.000000
0.138113 0.555779 0.000000
0.210049 0.549877 0.000000
0.268382 0.543830 0.000000
0.325115 0.539453 0.000000
0.381185 0.531185 0.000000
0.436029 0.524372 0.008885
0.487745 0.519118 0.006250
0.534191 0.513726 0.000000
0.579890 0.509681 0.000000
0.622733 0.503370 0.004350
0.667034 0.497917 0.023897
0.718750 0.502819 0.051555
0.763657 0.504377 0.077171
0.806020 0.507353 0.101716
0.840931 0.508881 0.121936
0.873162 0.511275 0.141299
0.902451 0.511929 0.157395
0.929412 0.514583 0.170588
0.955515 0.518034 0.186029
0.977083 0.522480 0.199877
1.000000 0.528309 0.215319
1.000000 0.533211 0.228232
1.000000 0.537132 0.237990
1.000000 0.537132 0.241544
1.000000 0.538848 0.245515
1.000000 0.544240 0.250980
0.000000 0.550000 0.054902
0.000000 0.600314 0.072549
0.000000 0.618030 0.074648
0.000000 0.616383 0.065479
0.000000 0.609314 0.046599
0.000000 0.601325 0.023384
0.000000 0.597381 0.001149
0.106855 0.590074 0.000000
0.190135 0.586213 0.000000
0.252198 0.582345 0.000000
0.309268 0.576961 0.000000
0.364660 0.573483 0.000000
0.421967 0.567647 0.007047
0.478554 0.563848 0.029052
0.528676 0.558058 0.017892
0.576034 0.553240 0.002068
0.621569 0.550490 0.000000
0.660172 0.540005 0.003447
0.700000 0.534314 0.025490
0.744317 0.535210 0.054657
0.787255 0.539063 0.081618
0.828431 0.543605 0.108678
0.865441 0.547304 0.131373
0.900245 0.552826 0.150123
0.929412 0.556556 0.168382
0.955515 0.560532 0.186512
0.978355 0.566176 0.207598
1.000000 0.570711 0.225513
1.000000 0.573315 0.239491
1.000000 0.573323 0.247059
1.000000 0.569608 0.245588
1.000000 0.571867 0.251578
1.000000 0.575245 0.254902
0.000000 0.584804 0.060907
0.000000 0.629174 0.080212
0.000000 0.645106 0.084452
0.000000 0.645466 0.076961
0.000000 0.638097 0.060049
0.000000 0.631863 0.039135
0.000000 0.628676 0.014216
0.080216 0.624475 0.000456
0.172426 0.624265 0.000000
0.241571 0.620860 0.000000
0.300406 0.618911 0.000000
0.353818 0.617053 0.000000
0.410371 0.612500 0.000000
0.467034 0.608088 0.028175
0.518873 0.601279 0.053339
0.568256 0.595707 0.033701
0.615564 0.591851 0.006250
0.656250 0.585049 0.000000
0.692770 0.576294 0.005162
0.727451 0.567279 0.027574
0.769363 0.569118 0.057675
0.814338 0.573671 0.087274
0.856863 0.582108 0.115074
0.893110 0.587814 0.138304
0.925429 0.593627 0.159559
0.953029 0.597024 0.183176
0.974755 0.603309 0.206127
0.996691 0.608659 0.228676
1.000000 0.609681 0.243153
1.000000 0.606078 0.248897
1.000000 0.600490 0.247304
1.000000 0.602688 0.257043
1.000000 0.606250 0.258824
0.000000 0.631373 0.074510
0.000000 0.650735 0.082292
0.000000 0.660662 0.086152
0.000000 0.662745 0.080760
0.000000 0.660784 0.069363
0.000000 0.662439 0.055821
0.012745 0.660784 0.031618
0.091054 0.661213 0.013480
0.173529 0.658333 0.004902
0.237684 0.658824 0.000551
0.295343 0.658824 0.000000
0.344853 0.656863 0.000000
0.395588 0.653676 0.000000
0.448836 0.650980 0.014032
0.500613 0.644853 0.051103
0.550797 0.641054 0.070588
0.600980 0.637255 0.053922
0.647365 0.630453 0.033578
0.687010 0.628554 0.018995
0.720895 0.620772 0.012929
0.756373 0.614951 0.032598
0.794976 0.613726 0.057659
0.835539 0.618873 0.086029
0.873591 0.626042 0.109743
0.907843 0.630392 0.134804
0.939400 0.637255 0.159865
0.962990 0.639951 0.188848
0.985233 0.647059 0.217218
1.000000 0.650735 0.236029
1.000000 0.649203 0.245282
1.000000 0.647059 0.249020
1.000000 0.649020 0.253064
1.000000 0.649020 0.258824
0.000000 0.660172 0.097794
0.000000 0.693195 0.119175
0.000000 0.705147 0.123277
0.000000 0.705392 0.117942
0.000000 0.699862 0.106357
0.000000 0.699632 0.094811
0.000000 0.695711 0.072549
0.000000 0.692647 0.052083
0.101348 0.691789 0.021201
0.185294 0.691203 0.001034
0.255882 0.691138 0.000000
0.312377 0.687868 0.000000
0.366422 0.686566 0.000000
0.418627 0.685884 0.000000
0.473706 0.684980 0.032721
0.527577 0.680886 0.072315
0.582598 0.677941 0.102757
0.634804 0.676965 0.090813
0.677436 0.673215 0.060907
0.718015 0.669252 0.034547
0.755836 0.664614 0.026088
0.789216 0.657617 0.046710
0.823897 0.654986 0.066667
0.860662 0.660022 0.089679
0.898805 0.665319 0.118137
0.930603 0.671010 0.145362
0.958923 0.678531 0.184168
0.981863 0.681782 0.217689
0.998392 0.683946 0.236520
1.000000 0.681913 0.247476
1.000000 0.682108 0.253194
1.000000 0.680082 0.257108
1.000000 0.683946 0.266912
0.000000 0.693137 0.111029
0.000000 0.720695 0.130936
0.000000 0.730392 0.136765
0.000000 0.730798 0.133211
0.000000 0.723284 0.121569
0.000000 0.722794 0.110271
0.000000 0.718873 0.092570
0.000000 0.717149 0.074387
0.083701 0.716238 0.050858
0.173284 0.716046 0.022066
0.241468 0.715977 0.007399
0.301984 0.716077 0.004021
0.354167 0.716667 0.002359
0.404412 0.716667 0.002734
0.459069 0.716667 0.032567
0.509995 0.713549 0.069133
0.563235 0.709681 0.101103
0.617417 0.707790 0.128845
0.661979 0.704151 0.111244
0.703271 0.702290 0.080147
0.744271 0.699326 0.052941
0.780737 0.694095 0.039331
0.813281 0.688526 0.053431
0.848790 0.687630 0.072802
0.883395 0.691973 0.095404
0.915066 0.693245 0.116896
0.943873 0.697871 0.152282
0.970343 0.701471 0.194631
0.987500 0.703186 0.217433
1.000000 0.701471 0.234390
1.000000 0.703079 0.243627
1.000000 0.701524 0.245412
1.000000 0.705392 0.251471
0.000000 0.720098 0.124755
0.000000 0.745638 0.146373
0.000000 0.753554 0.150467
0.000000 0.753948 0.147208
0.000000 0.747840 0.134972
0.000000 0.745956 0.125368
0.000000 0.743627 0.111834
0.000000 0.743627 0.097040
0.077083 0.743627 0.080699
0.169363 0.744773 0.063480
0.233831 0.746821 0.042287
0.293505 0.747549 0.033824
0.348039 0.747549 0.029044
0.398583 0.746902 0.029255
0.446239 0.746852 0.039262
0.495588 0.745611 0.070979
0.545833 0.739706 0.098836
0.597315 0.738614 0.126237
0.644317 0.733778 0.148499
0.687780 0.731863 0.129324
0.730254 0.730990 0.097518
0.768807 0.727141 0.071389
0.806135 0.723292 0.056717
0.838768 0.717976 0.064503
0.869577 0.714583 0.076808
0.899529 0.714583 0.092808
0.928431 0.716912 0.118015
0.955515 0.720833 0.164706
0.976348 0.721032 0.196691
0.993559 0.720833 0.215345
1.000000 0.720833 0.226838
1.000000 0.720883 0.232158
1.000000 0.724755 0.239951
0.000000 0.747059 0.133333
0.000000 0.764032 0.147809
0.000000 0.770343 0.150337
0.000000 0.772059 0.148407
0.000000 0.768934 0.141176
0.000000 0.771339 0.137408
0.000000 0.769118 0.125705
0.034697 0.771124 0.115610
0.109681 0.775613 0.104167
0.183839 0.774877 0.087010
0.243076 0.777451 0.075521
0.297442 0.777451 0.065426
0.347610 0.778922 0.060723
0.394378 0.777466 0.056878
0.439951 0.779013 0.060539
0.484559 0.778722 0.076180
0.533578 0.776961 0.101716
0.584589 0.775031 0.126792
0.628922 0.771661 0.149694
0.674249 0.768995 0.168428
0.715257 0.765196 0.153922
0.753937 0.762240 0.120711
0.789706 0.756893 0.088021
0.824142 0.753707 0.068781
0.855025 0.750123 0.069240
0.882353 0.745098 0.072151
0.911029 0.743627 0.086121
0.937883 0.745695 0.128814
0.959314 0.746078 0.163848
0.978676 0.746078 0.187500
0.994026 0.748529 0.202849
1.000000 0.748529 0.212791
1.000000 0.752451 0.218137
0.000000 0.787132 0.163480
0.000000 0.799962 0.177616
0.000000 0.803883 0.181579
0.000000 0.804412 0.178313
0.000000 0.804213 0.174066
0.000000 0.801471 0.164093
0.000000 0.800375 0.155277
0.000000 0.802696 0.147304
0.048989 0.803707 0.136305
0.148407 0.804044 0.122170
0.214951 0.807161 0.105339
0.270684 0.807502 0.092008
0.328569 0.810080 0.091085
0.381250 0.811887 0.091046
0.429289 0.811887 0.090686
0.475264 0.813254 0.099020
0.523407 0.814461 0.117586
0.571691 0.813094 0.137500
0.616299 0.812745 0.157598
0.660417 0.809494 0.176961
0.702313 0.805147 0.195358
0.743873 0.801811 0.185662
0.782476 0.797970 0.153431
0.817157 0.794129 0.123273
0.849939 0.788021 0.101746
0.882525 0.781568 0.097867
0.910179 0.778202 0.102076
0.933613 0.776383 0.142471
0.953922 0.772672 0.169930
0.973526 0.772672 0.191785
0.988802 0.772587 0.206656
1.000000 0.771324 0.216912
1.000000 0.772672 0.220833
0.000000 0.813971 0.175000
0.000000 0.826999 0.189254
0.000000 0.829733 0.193382
0.000000 0.830017 0.188718
0.000000 0.826134 0.181036
0.000000 0.823284 0.171500
0.000000 0.822289 0.162745
0.000000 0.822649 0.154657
0.045221 0.825674 0.146998
0.146546 0.825980 0.134781
0.211029 0.827206 0.118627
0.263848 0.828975 0.103186
0.320037 0.829351 0.101409
0.369608 0.831127 0.099763
0.417647 0.831127 0.099801
0.461029 0.832560 0.097350
0.505392 0.832476 0.108578
0.549755 0.830476 0.125207
0.593137 0.828722 0.144899
0.636160 0.827206 0.162017
0.678186 0.824969 0.178186
0.720711 0.821936 0.197549
0.759697 0.818980 0.189461
0.799142 0.815441 0.159268
0.834743 0.812439 0.127941
0.867915 0.807966 0.122549
0.901440 0.804167 0.124740
0.927137 0.799563 0.145695
0.946078 0.795343 0.166912
0.965326 0.791797 0.184681
0.980806 0.787914 0.195021
0.998813 0.786765 0.201509
1.000000 0.787990 0.202696
0.000000 0.838603 0.181495
0.000000 0.845255 0.192069
0.000000 0.845343 0.191123
0.000000 0.845607 0.187603
0.000000 0.842877 0.180882
0.000000 0.839706 0.171274
0.000000 0.839131 0.163358
0.000000 0.841422 0.158824
0.034007 0.842249 0.151103
0.140809 0.842525 0.139461
0.206227 0.845565 0.128922
0.260049 0.845343 0.116176
0.310585 0.848208 0.107813
0.359639 0.849265 0.106330
0.406005 0.849747 0.104779
0.448012 0.849265 0.101961
0.489093 0.849265 0.099449
0.530392 0.846446 0.110294
0.573146 0.848032 0.129404
0.614051 0.845301 0.148284
0.656127 0.843214 0.166544
0.699621 0.843248 0.186876
0.742057 0.842525 0.212699
0.783701 0.840939 0.208644
0.819914 0.839430 0.189920
0.856369 0.835543 0.165824
0.890403 0.831127 0.162377
0.922132 0.823675 0.169558
0.941192 0.818153 0.175107
0.957598 0.810784 0.181759
0.972970 0.806985 0.184490
0.991211 0.806039 0.191054
1.000000 0.803309 0.191054
0.000000 0.858824 0.184314
0.000000 0.865564 0.191054
0.000000 0.864767 0.190257
0.000000 0.865870 0.187531
0.000000 0.865686 0.181740
0.000000 0.862745 0.175123
0.013113 0.863542 0.169179
0.030852 0.865135 0.166330
0.074510 0.867647 0.158824
0.160938 0.868352 0.150674
0.218873 0.868627 0.139461
0.269638 0.869608 0.129779
0.315564 0.872059 0.123652
0.358088 0.871170 0.116268
0.401225 0.871569 0.115012
0.442310 0.873131 0.113725
0.483333 0.874020 0.110294
0.523438 0.872549 0.110018
0.561520 0.872549 0.127941
0.603064 0.872151 0.147120
0.644485 0.872549 0.168015
0.684191 0.872212 0.186366
0.724755 0.871262 0.211458
0.765594 0.869761 0.239308
0.801716 0.866667 0.243382
0.838725 0.866452 0.232935
0.871998 0.862010 0.212071
0.904412 0.854749 0.205729
0.927941 0.846446 0.203431
0.950827 0.840809 0.199295
0.963419 0.833272 0.200919
0.981495 0.832230 0.198928
0.993137 0.829412 0.193137
0.000000 0.894975 0.217402
0.000000 0.896569 0.228826
0.000000 0.898951 0.228554
0.000000 0.895833 0.220833
0.000000 0.893153 0.207368
0.000000 0.891912 0.201850
0.000000 0.891912 0.197794
0.000000 0.892770 0.190809
0.035570 0.892892 0.182445
0.144727 0.895592 0.177328
0.209214 0.897940 0.168306
0.261152 0.898702 0.159069
0.309881 0.901670 0.149954
0.355760 0.902083 0.144240
0.400613 0.903676 0.146446
0.444642 0.905304 0.150245
0.486949 0.906066 0.152941
0.527014 0.909034 0.155549
0.563350 0.908938 0.159061
0.601471 0.910662 0.176574
0.640395 0.907598 0.207874
0.679534 0.907598 0.226788
0.716322 0.903676 0.250146
0.755021 0.902815 0.275237
0.793719 0.902696 0.294669
0.826773 0.900425 0.299085
0.860784 0.897266 0.295259
0.896435 0.893015 0.277574
0.926103 0.885187 0.269118
0.948977 0.873284 0.257885
0.968068 0.864216 0.245412
0.980610 0.856618 0.236983
0.992157 0.853554 0.233088
0.000000 0.911275 0.236765
0.000000 0.911987 0.241276
0.000000 0.911520 0.240242
0.000000 0.911275 0.233211
0.000000 0.911275 0.225490
0.000000 0.907468 0.217034
0.000000 0.910539 0.212638
0.000000 0.910578 0.204818
0.064522 0.908885 0.197794
0.159643 0.911275 0.193467
0.211994 0.914200 0.175965
0.261887 0.914583 0.165694
0.306832 0.917647 0.153156
0.347304 0.918260 0.141912
0.393214 0.919531 0.143704
0.435294 0.921201 0.147181
0.474510 0.919853 0.147794
0.514338 0.921347 0.149364
0.548698 0.923039 0.151149
0.583402 0.923039 0.159452
0.623499 0.923039 0.189951
0.664828 0.923039 0.232996
0.701700 0.922044 0.256863
0.740403 0.921615 0.284605
0.778922 0.922243 0.302267
0.811236 0.919692 0.313404
0.849265 0.919118 0.319853
0.887990 0.919240 0.315441
