luts/SG6.cube
TITLE "sample9"
LUT_3D_SIZE 9
DOMAIN_MIN 0.0 0.0 0.0
DOMAIN_MAX 1.0 1.0 1.0
0.015686 0.015686 0.015686
0.092647 0.015686 0.015686
0.203922 0.015686 0.015686
0.350980 0.017157 0.019608
0.531373 0.021569 0.021569
0.701471 0.028922 0.028922
0.839216 0.035294 0.036275
0.966176 0.050980 0.095098
1.000000 0.184314 0.160784
0.000000 0.120098 0.011765
0.117157 0.124510 0.008762
0.255882 0.108824 0.012132
0.404105 0.094485 0.014400
0.557353 0.059069 0.028186
0.714400 0.029596 0.041176
0.847181 0.038725 0.074877
0.970037 0.094669 0.116605
1.000000 0.238725 0.157353
0.000000 0.314706 0.000000
0.084926 0.318015 0.000000
0.293382 0.305882 0.000000
0.468627 0.289216 0.001838
0.624510 0.278922 0.046078
0.762990 0.267892 0.077328
0.882598 0.272794 0.119118
0.989828 0.307353 0.154289
1.000000 0.358824 0.185294
0.000000 0.493627 0.042157
0.000000 0.514400 0.017770
0.248529 0.502819 0.000000
0.457353 0.477941 0.013174
0.630637 0.456618 0.021814
0.807843 0.466176 0.109375
0.922181 0.467647 0.165319
0.998713 0.482353 0.205392
1.000000 0.505882 0.226961
0.000000 0.631373 0.074510
0.000000 0.660784 0.069363
0.173529 0.658333 0.004902
0.395588 0.653676 0.000000
0.600980 0.637255 0.053922
0.756373 0.614951 0.032598
0.907843 0.630392 0.134804
1.000000 0.650735 0.236029
1.000000 0.649020 0.258824
0.000000 0.747059 0.133333
0.000000 0.768934 0.141176
0.109681 0.775613 0.104167
0.347610 0.778922 0.060723
0.533578 0.776961 0.101716
0.715257 0.765196 0.153922
0.855025 0.750123 0.069240
0.959314 0.746078 0.163848
1.000000 0.752451 0.218137
0.000000 0.858824 0.184314
0.000000 0.865686 0.181740
0.074510 0.867647 0.158824
0.315564 0.872059 0.123652
0.483333 0.874020 0.110294
0.644485 0.872549 0.168015
0.801716 0.866667 0.243382
0.927941 0.846446 0.203431
0.993137 0.829412 0.193137
0.026471 0.947059 0.270098
0.029902 0.947120 0.256863
0.168873 0.948407 0.243137
0.335478 0.953615 0.221078
0.476716 0.953431 0.215441
0.609620 0.956863 0.245404
0.755882 0.958824 0.336397
0.890625 0.958333 0.350000
0.980392 0.913235 0.298529
0.000000 0.980392 0.235294
0.000000 0.980882 0.243627
0.186275 0.984314 0.231373
0.335294 0.988235 0.227451
0.454902 0.988235 0.225490
0.574510 0.992157 0.265686
0.698039 0.992157 0.328431
0.828922 0.995588 0.376961
0.972549 0.984314 0.384314
0.019608 0.019608 0.069118
0.092647 0.015686 0.096078
0.197059 0.015809 0.112255
0.347855 0.018137 0.122059
0.505882 0.019608 0.135784
0.658517 0.027451 0.147243
0.809314 0.032721 0.156373
0.951409 0.047978 0.175919
1.000000 0.069608 0.209804
0.004779 0.115257 0.122610
0.116728 0.116667 0.130568
0.239997 0.116284 0.131801
0.386765 0.119830 0.143505
0.530852 0.101838 0.149816
0.679756 0.044225 0.156104
0.823958 0.035723 0.169010
0.959873 0.050061 0.190150
1.000000 0.205392 0.216115
0.000000 0.302941 0.177206
0.122411 0.303631 0.170006
0.291115 0.290533 0.158456
0.450536 0.279718 0.168367
0.594547 0.268934 0.173284
0.732797 0.254764 0.179917
0.862163 0.256771 0.193689
0.978937 0.285355 0.216667
1.000000 0.330760 0.237255
0.000000 0.482169 0.197855
0.046599 0.498591 0.187209
0.255836 0.482322 0.145175
0.457353 0.457782 0.168635
0.630484 0.441759 0.167310
0.792157 0.445404 0.207667
0.910876 0.450812 0.237240
0.995795 0.468735 0.264974
1.000000 0.488542 0.279044
0.000000 0.635049 0.203676
0.000000 0.661275 0.202420
0.212132 0.654963 0.149387
0.411857 0.642800 0.157690
0.609069 0.621814 0.185294
0.764951 0.600000 0.163082
0.915686 0.624510 0.231679
0.998284 0.644639 0.306618
1.000000 0.641176 0.314461
0.000000 0.758333 0.229105
0.000000 0.780699 0.238687
0.194853 0.779412 0.199418
0.374640 0.778860 0.168444
0.553431 0.770833 0.207292
0.729220 0.758157 0.229902
0.864844 0.739047 0.171569
0.966176 0.743444 0.249349
1.000000 0.748529 0.287745
0.000000 0.862745 0.256005
0.026363 0.871890 0.260631
0.188143 0.873284 0.234007
0.347426 0.873713 0.195404
0.504596 0.872549 0.186703
0.661290 0.868627 0.244439
0.815441 0.862500 0.303217
0.937377 0.838542 0.263955
0.996691 0.828064 0.266789
0.036703 0.948039 0.323529
0.086642 0.951095 0.330017
0.253079 0.951348 0.315411
0.370443 0.954672 0.283617
0.497273 0.955392 0.273039
0.624671 0.955553 0.296607
0.768306 0.957537 0.381924
0.900054 0.954956 0.388840
0.980882 0.903860 0.340257
0.000000 0.980882 0.300980
0.122549 0.980882 0.312745
0.246569 0.984314 0.303554
0.356066 0.985784 0.288235
0.468382 0.988235 0.281373
0.583640 0.989522 0.311581
0.703309 0.989583 0.366176
0.833272 0.992157 0.407782
0.972549 0.984804 0.415196
0.026471 0.016667 0.172549
0.112255 0.016667 0.196569
0.208824 0.016667 0.223529
0.328064 0.020588 0.246569
0.476961 0.025490 0.257353
0.650490 0.027451 0.256373
0.808824 0.033333 0.262010
0.946691 0.047549 0.291667
1.000000 0.150980 0.314706
0.001593 0.111887 0.227941
0.115089 0.112699 0.236994
0.234712 0.115594 0.262010
0.353079 0.117877 0.268275
0.504596 0.096875 0.266728
0.664997 0.032154 0.263649
0.816054 0.051011 0.275123
0.953048 0.139691 0.302543
1.000000 0.226348 0.324020
0.000000 0.290196 0.304657
0.137224 0.290564 0.308824
0.273284 0.280760 0.308027
0.417402 0.270343 0.298621
0.556495 0.267034 0.293382
0.700368 0.267371 0.295925
0.846324 0.275919 0.311213
0.971783 0.304351 0.328431
1.000000 0.343873 0.342157
0.000000 0.461887 0.338235
0.138327 0.474617 0.350934
0.278983 0.463695 0.328094
0.445006 0.446676 0.317816
0.620711 0.447426 0.329044
0.765748 0.446170 0.341728
0.893903 0.456556 0.358946
0.990763 0.477635 0.375996
1.000000 0.486397 0.379044
0.000000 0.623529 0.356373
0.103370 0.647549 0.373775
0.259804 0.639338 0.338235
0.409375 0.633701 0.302757
0.605147 0.614216 0.328431
0.766176 0.600735 0.314706
0.908578 0.634681 0.385172
0.994853 0.656127 0.436091
1.000000 0.648039 0.423529
0.041176 0.753064 0.370588
0.108578 0.773438 0.386489
0.258824 0.772181 0.356005
0.384620 0.773269 0.297963
0.555270 0.765441 0.332537
0.726639 0.751961 0.359344
0.868352 0.739645 0.297763
0.970098 0.750934 0.383150
1.000000 0.757843 0.408701
0.049265 0.859559 0.376961
0.118444 0.871569 0.394240
0.258701 0.869608 0.364706
0.374265 0.871201 0.315104
0.515196 0.871446 0.297549
0.667065 0.867708 0.362255
0.818382 0.860846 0.413664
0.938603 0.841667 0.373223
0.997059 0.829412 0.373529
0.042034 0.947549 0.421201
0.204458 0.947549 0.424127
0.305025 0.948836 0.412255
0.402007 0.952007 0.382828
0.509743 0.952206 0.355637
0.636887 0.956679 0.377865
0.775705 0.956924 0.464920
0.904136 0.955116 0.471707
0.980882 0.903431 0.420956
0.032353 0.980392 0.386275
0.189216 0.980515 0.397181
0.280882 0.983578 0.385539
0.378309 0.984314 0.374387
0.475980 0.985784 0.361275
0.593750 0.988235 0.386765
0.709804 0.990686 0.434559
0.835907 0.992157 0.471691
0.972549 0.984314 0.480392
0.035294 0.019608 0.300000
0.124020 0.017279 0.309130
0.223039 0.019608 0.342157
0.339216 0.024510 0.383333
0.452941 0.029412 0.376471
0.592218 0.042218 0.395588
0.787377 0.045588 0.404412
0.952267 0.051287 0.402267
1.000000 0.062745 0.394118
0.005392 0.106740 0.341360
0.125751 0.107874 0.355369
0.237377 0.106863 0.375613
0.354105 0.102451 0.401961
0.469118 0.106679 0.391667
0.602129 0.048208 0.403056
0.794531 0.049203 0.409865
0.955538 0.050758 0.408785
1.000000 0.062255 0.401777
0.000000 0.273652 0.411275
0.115074 0.275230 0.417387
0.254534 0.273621 0.422794
0.383165 0.269608 0.438925
0.503186 0.269424 0.430147
0.660064 0.260861 0.427129
0.839093 0.253922 0.429871
0.967203 0.261964 0.426731
1.000000 0.343873 0.451348
0.000000 0.443566 0.459314
0.125237 0.455193 0.474686
0.283931 0.446584 0.470144
0.423246 0.439154 0.472610
0.576379 0.425919 0.463940
0.723958 0.423552 0.457927
0.861994 0.450689 0.478002
0.970358 0.476471 0.494118
1.000000 0.487684 0.486213
0.043137 0.611765 0.490196
0.152053 0.631710 0.512990
0.310417 0.623713 0.510172
0.438971 0.619118 0.494148
0.594240 0.606863 0.488358
0.757108 0.615962 0.507567
0.887439 0.648775 0.550490
0.977359 0.661121 0.564308
1.000000 0.649020 0.541912
0.086213 0.749510 0.508333
0.228493 0.768022 0.531748
0.348116 0.762485 0.529213
0.450084 0.760869 0.504412
0.570558 0.758364 0.488971
0.725345 0.747488 0.508050
0.860646 0.740257 0.483946
0.966176 0.768076 0.552030
1.000000 0.772059 0.550429
0.145711 0.857843 0.524142
0.286504 0.866544 0.542923
0.363511 0.863297 0.534099
0.443306 0.865855 0.496140
0.542586 0.865564 0.452941
0.681036 0.863664 0.503294
0.822028 0.859283 0.547641
0.941621 0.846400 0.504718
1.000000 0.839093 0.505760
0.203493 0.943627 0.526961
0.294769 0.947059 0.536987
0.374494 0.947289 0.536749
0.456794 0.950483 0.517394
0.538572 0.953339 0.472672
0.658326 0.955453 0.495780
0.786642 0.956510 0.564231
0.908372 0.952796 0.572649
0.983027 0.905576 0.528615
0.208333 0.980392 0.493627
0.285110 0.980392 0.503922
0.344485 0.980392 0.496078
0.419179 0.981863 0.484314
0.503676 0.984314 0.469853
0.610172 0.985233 0.482782
0.721569 0.988235 0.522059
0.843627 0.991973 0.558824
0.976471 0.984314 0.575980
0.031373 0.019608 0.439216
0.135539 0.021324 0.452696
0.237745 0.025000 0.469608
0.336765 0.030147 0.502451
0.458824 0.035294 0.530392
0.590931 0.050490 0.521078
0.746569 0.071569 0.555882
0.898529 0.088235 0.558578
1.000000 0.082353 0.533333
0.027696 0.095098 0.470098
0.137806 0.097028 0.479657
0.244118 0.095772 0.489583
0.346078 0.087500 0.519301
0.471201 0.055515 0.541667
0.601624 0.056005 0.530729
0.752328 0.073162 0.562377
0.898560 0.091146 0.563266
0.999265 0.094363 0.537010
0.000000 0.265686 0.520588
0.123468 0.270343 0.530147
0.249142 0.269976 0.536642
0.364890 0.267953 0.552512
0.494608 0.262255 0.577451
0.628738 0.274877 0.564951
0.775245 0.290196 0.591176
0.926042 0.297549 0.580760
1.000000 0.288235 0.547549
0.000000 0.430882 0.569608
0.119638 0.440686 0.585141
0.269056 0.436213 0.583517
0.397457 0.435110 0.591667
0.533211 0.431127 0.615319
0.670558 0.440196 0.611765
0.820282 0.453370 0.622672
0.963113 0.450919 0.603370
1.000000 0.433333 0.563971
0.064706 0.600980 0.616667
0.165196 0.616912 0.637377
0.312990 0.610539 0.633333
0.450613 0.604044 0.633701
0.580882 0.601961 0.639706
0.725000 0.603309 0.642770
0.856373 0.610784 0.641912
0.956740 0.621569 0.641667
1.000000 0.621569 0.624510
0.107353 0.747549 0.639706
0.251838 0.762316 0.658088
0.370772 0.755208 0.657476
0.487837 0.751226 0.658824
0.595711 0.746814 0.647304
0.721078 0.742371 0.651501
0.852696 0.756740 0.670098
0.964767 0.784712 0.694761
1.000000 0.783578 0.687010
0.224020 0.857843 0.647549
0.322304 0.863542 0.659191
0.407230 0.860049 0.659436
0.505025 0.858395 0.659069
0.594608 0.859804 0.640441
0.699816 0.858824 0.643505
0.821446 0.856005 0.668260
0.939583 0.850980 0.640441
1.000000 0.854902 0.654412
0.274020 0.943627 0.638235
0.351501 0.947273 0.647335
0.426348 0.945527 0.648468
0.513021 0.947549 0.650092
0.593873 0.950490 0.634069
0.687224 0.956281 0.625061
0.798346 0.956556 0.665686
0.914461 0.954902 0.680423
0.982598 0.913235 0.651226
0.352941 0.978431 0.613726
0.401961 0.978676 0.622059
0.438235 0.979902 0.618137
0.495098 0.979167 0.612500
0.565686 0.981373 0.605882
0.651471 0.984314 0.607353
0.748529 0.986765 0.629902
0.866667 0.990196 0.666912
0.978431 0.988235 0.684314
0.050000 0.025000 0.566667
0.143627 0.027145 0.569118
0.238358 0.029534 0.578064
0.340686 0.035294 0.592647
0.441176 0.045098 0.641667
0.594056 0.058762 0.690257
0.752328 0.083333 0.685784
0.882537 0.102451 0.694301
0.972549 0.115196 0.676471
0.067647 0.088725 0.578799
0.149127 0.089177 0.585731
0.244838 0.089216 0.593045
0.350069 0.070205 0.604105
0.449418 0.046477 0.654014
0.600919 0.060608 0.697074
0.755714 0.085248 0.691988
0.883333 0.102956 0.697587
0.973223 0.116850 0.679412
0.046324 0.261765 0.617279
0.143199 0.265319 0.625551
0.249847 0.265778 0.630882
0.356541 0.268689 0.643919
0.466789 0.272365 0.685784
0.622442 0.281403 0.725291
0.771783 0.299173 0.717800
0.895052 0.312561 0.717724
0.976348 0.318505 0.688113
0.058211 0.417218 0.662316
0.144072 0.426287 0.674525
0.275046 0.427298 0.676302
0.388235 0.434252 0.691582
0.511581 0.442188 0.721293
0.657085 0.451409 0.757575
0.800138 0.465686 0.750980
0.912745 0.468321 0.743612
0.988787 0.447120 0.694240
0.117157 0.586275 0.714216
0.231036 0.597549 0.729167
0.337071 0.596630 0.727941
0.451716 0.600000 0.733824
0.569853 0.607230 0.749265
0.697580 0.614920 0.775276
0.817953 0.614951 0.771078
0.930637 0.602788 0.752298
1.000000 0.578431 0.700000
0.184007 0.737684 0.755392
0.297005 0.745519 0.765196
0.391360 0.741345 0.764645
0.494753 0.739070 0.763519
0.606832 0.739400 0.766881
0.716521 0.741176 0.772204
0.831771 0.738113 0.768015
0.945703 0.733785 0.756020
1.000000 0.744179 0.750490
0.222059 0.853922 0.762377
0.320466 0.859804 0.771201
0.410202 0.857322 0.771201
0.511841 0.856572 0.772365
0.617831 0.855821 0.773775
0.721216 0.856740 0.770358
0.823805 0.853248 0.774724
0.946247 0.863404 0.778968
1.000000 0.881495 0.801103
0.294792 0.947549 0.747549
0.369324 0.948675 0.754228
0.446645 0.949479 0.756832
0.540571 0.949640 0.762270
0.640931 0.952696 0.769608
0.726785 0.956304 0.762079
0.810738 0.958824 0.755147
0.921040 0.955392 0.782560
0.984314 0.932353 0.776777
0.338235 0.976471 0.693137
0.407843 0.976471 0.704902
0.486887 0.977574 0.717157
0.587745 0.980392 0.740196
0.660784 0.982353 0.747304
0.720159 0.983395 0.739767
0.799877 0.987132 0.752328
0.896752 0.991850 0.782353
0.984314 0.992157 0.801961
0.091176 0.031373 0.668627
0.155392 0.034314 0.672181
0.247304 0.038971 0.681127
0.347059 0.047059 0.699877
0.462745 0.060294 0.736275
0.573775 0.076961 0.809191
0.733333 0.091912 0.847059
0.884314 0.115074 0.820343
0.967647 0.122549 0.787255
0.102574 0.082843 0.677574
0.167387 0.083012 0.683624
0.254044 0.080944 0.692525
0.355086 0.084804 0.710049
0.469914 0.103186 0.746017
0.579963 0.097335 0.814200
0.735907 0.093382 0.850551
0.887010 0.117479 0.823820
0.968627 0.125123 0.790441
0.084314 0.262010 0.711275
0.165441 0.266942 0.717892
0.259498 0.272243 0.728002
0.359804 0.281526 0.745588
0.483333 0.297426 0.775490
0.593260 0.314553 0.836765
0.748284 0.318873 0.865135
0.892279 0.323070 0.838664
0.967647 0.314216 0.799265
0.095956 0.418995 0.757230
0.196308 0.430270 0.769041
0.296691 0.433732 0.774387
0.397181 0.446339 0.793229
0.516422 0.462561 0.817708
0.630331 0.476440 0.860907
0.775490 0.480208 0.877696
0.898300 0.471308 0.850996
0.975980 0.455270 0.812990
0.181863 0.583333 0.808824
0.274510 0.595895 0.820098
0.356863 0.597181 0.823162
0.462194 0.604412 0.830699
0.568627 0.618137 0.851961
0.681127 0.622672 0.870037
0.795466 0.615319 0.874142
0.910968 0.607782 0.861091
0.982353 0.586765 0.823039
0.281740 0.728064 0.844240
0.348024 0.734314 0.850398
0.417647 0.732384 0.850123
0.507353 0.735555 0.853814
0.604412 0.738174 0.857414
0.707414 0.741176 0.866176
0.811949 0.738726 0.873560
0.922503 0.731449 0.868076
0.986887 0.718260 0.832843
0.317892 0.844118 0.861765
0.385907 0.848039 0.868597
0.456127 0.845833 0.867892
0.541942 0.848376 0.871293
0.637010 0.849510 0.873652
0.729626 0.850551 0.873529
0.824265 0.848591 0.873529
0.934130 0.847028 0.869945
0.989951 0.859314 0.867892
0.328554 0.950858 0.863725
0.397488 0.951302 0.867907
0.471170 0.953125 0.870588
0.559957 0.954626 0.874877
0.653431 0.956189 0.876593
0.746017 0.958594 0.876593
0.835202 0.956311 0.872335
0.928094 0.955055 0.875965
0.989706 0.955392 0.895711
0.378431 0.980392 0.803922
0.445098 0.980392 0.810907
0.514461 0.981863 0.815686
0.599020 0.981373 0.823529
0.694608 0.980882 0.836765
0.803799 0.988235 0.870098
0.867402 0.989951 0.876225
0.928431 0.996078 0.890686
0.993137 0.996078 0.912745
0.158824 0.047059 0.786275
0.203493 0.047549 0.789767
0.278309 0.052328 0.798897
0.371078 0.063051 0.819608
0.476716 0.076471 0.840441
0.589216 0.092157 0.886458
0.698529 0.110784 0.944118
0.859865 0.125551 0.965257
0.972549 0.133333 0.912255
0.162745 0.137377 0.795588
0.205109 0.147135 0.801363
0.281526 0.158594 0.811382
0.370933 0.174364 0.829634
0.479657 0.195006 0.852022
0.591176 0.214078 0.893390
0.699985 0.227436 0.949617
0.853362 0.169072 0.962623
0.970466 0.133762 0.916054
0.169118 0.293995 0.822426
0.217570 0.300858 0.828738
0.294240 0.309835 0.838266
0.382491 0.325674 0.856985
0.491360 0.342647 0.877390
0.607843 0.361275 0.912791
0.708027 0.372365 0.957935
0.859421 0.357154 0.962132
0.970956 0.341789 0.924387
0.217157 0.445098 0.862255
0.269508 0.456112 0.870672
0.340426 0.463787 0.878048
0.422488 0.476287 0.894547
0.518873 0.492402 0.913327
0.633333 0.501471 0.931916
0.730009 0.502512 0.962439
0.869646 0.492050 0.960187
0.970588 0.476838 0.925184
0.281863 0.594363 0.901225
0.331587 0.602175 0.908793
0.397610 0.607659 0.912316
0.478094 0.618536 0.920006
0.549510 0.622549 0.933333
0.651563 0.624418 0.943045
0.761581 0.624020 0.959436
0.886826 0.621078 0.961520
0.978186 0.606373 0.929412
0.346078 0.722549 0.925490
0.385700 0.728431 0.927918
0.438741 0.729243 0.930407
0.507897 0.732345 0.931863
0.591115 0.733241 0.937316
0.683647 0.739828 0.948215
0.795129 0.742188 0.956495
0.901325 0.741690 0.961642
0.980576 0.729412 0.930882
0.403799 0.833211 0.940196
0.453232 0.836259 0.944102
0.506403 0.839491 0.946691
0.572059 0.837485 0.944424
0.647243 0.840870 0.946385
0.731189 0.845634 0.948943
0.820680 0.850092 0.955882
0.919393 0.853692 0.965870
0.982353 0.850000 0.939583
0.439277 0.942708 0.958824
0.491621 0.946086 0.962577
0.545650 0.946461 0.964874
0.610769 0.945021 0.963871
0.682169 0.945619 0.964246
0.758479 0.948836 0.963174
0.845466 0.951471 0.963542
0.939338 0.954910 0.966559
1.000000 0.959252 0.963174
0.500490 0.984314 0.919118
0.554412 0.987745 0.923039
0.603922 0.987255 0.926838
0.669118 0.986091 0.932169
0.736275 0.990196 0.936520
0.812929 0.992341 0.944118
0.905392 0.999632 0.962745
0.980944 0.999571 0.984865
1.000000 1.000000 0.996569
0.219608 0.058824 0.858824
0.246078 0.062255 0.862745
0.303922 0.066667 0.870588
0.377451 0.083333 0.882353
0.466667 0.135294 0.900000
0.570588 0.166176 0.920588
0.665686 0.180392 0.966667
0.786765 0.129412 1.000000
0.929412 0.137255 1.000000
0.212745 0.191176 0.866176
0.241667 0.191667 0.870098
0.299510 0.199020 0.877451
0.372243 0.213419 0.889706
0.464951 0.226716 0.907353
0.570098 0.243627 0.929902
0.663358 0.259314 0.972181
0.781863 0.256373 1.000000
0.924020 0.271569 1.000000
0.232353 0.320588 0.887255
0.258578 0.321691 0.889583
0.312745 0.327696 0.898284
0.380025 0.332230 0.910294
0.466176 0.341667 0.925490
0.575000 0.353309 0.944608
0.665931 0.366667 0.980392
0.782108 0.375490 1.000000
0.922549 0.383333 0.997059
0.285294 0.459804 0.917157
0.311581 0.461275 0.921078
0.350613 0.461275 0.925000
0.408333 0.463664 0.935233
0.478186 0.467402 0.946814
0.582414 0.475980 0.962316
0.678676 0.485907 0.991299
0.799203 0.490686 1.000000
0.930392 0.500980 0.997549
0.380392 0.601961 0.945098
0.397794 0.605882 0.947059
0.425980 0.601471 0.948529
0.465931 0.600735 0.956863
0.516667 0.600000 0.967647
0.598039 0.601226 0.980392
0.712745 0.604412 0.990686
0.825490 0.611765 1.000000
0.939216 0.619608 0.998039
0.383824 0.693137 0.957353
0.413725 0.697855 0.959620
0.456985 0.701961 0.963358
0.524020 0.713726 0.967647
0.599755 0.725490 0.975245
0.655392 0.724020 0.984314
0.760784 0.722917 0.988235
0.856373 0.730392 1.000000
0.952941 0.740686 0.998529
0.441176 0.795098 0.972549
0.468505 0.795466 0.972672
0.510784 0.799020 0.972794
0.574510 0.805882 0.974632
0.656373 0.815686 0.978922
0.746201 0.831495 0.982475
0.811275 0.837990 0.988971
0.894485 0.841176 0.996936
0.969608 0.852941 0.999020
0.523529 0.908333 0.984804
0.548101 0.908762 0.984804
0.587868 0.908701 0.984804
0.643321 0.912439 0.986949
0.709804 0.914951 0.987010
0.786887 0.921875 0.990012
0.873407 0.935784 0.989093
0.952451 0.955392 0.996078
0.989706 0.966667 0.996078
0.619608 0.996078 0.988235
0.639216 0.996078 0.992157
0.677451 0.996078 0.992157
0.726471 0.996078 0.992157
0.790196 0.996078 0.992157
0.867157 1.000000 0.996078
0.948039 1.000000 0.997059
1.000000 1.000000 1.000000
1.000000 1.000000 1.000000
