luts/SG7.cube
TITLE "sample10"
LUT_3D_SIZE 33
DOMAIN_MIN 0.0 0.0 0.0
DOMAIN_MAX 1.0 1.0 1.0
0.015686 0.015686 0.015686
0.019485 0.019485 0.019485
0.026961 0.019363 0.019363
0.064828 0.016054 0.016054
0.092647 0.015686 0.015686
0.115809 0.015686 0.015686
0.142157 0.015686 0.015686
0.169975 0.019608 0.019608
0.196078 0.015686 0.015686
0.229779 0.018505 0.018505
0.264461 0.015686 0.015686
0.299142 0.018260 0.018260
0.335294 0.017157 0.017157
0.376348 0.018015 0.019608
0.422794 0.019608 0.019608
0.465319 0.019608 0.019608
0.509804 0.019608 0.019608
0.554289 0.021446 0.021446
0.592892 0.023529 0.023529
0.633088 0.023529 0.023529
0.675490 0.027451 0.028922
0.711275 0.027451 0.027451
0.751226 0.032598 0.032598
0.788726 0.035294 0.035294
0.819608 0.035294 0.035294
0.855270 0.036152 0.039216
0.889216 0.039951 0.039951
0.927328 0.043750 0.043750
0.954412 0.047549 0.047549
0.977941 0.051348 0.051348
1.000000 0.055147 0.055147
1.000000 0.058946 0.058946
1.000000 0.149020 0.058824
0.015686 0.019485 0.015686
0.015568 0.027087 0.019370
0.034199 0.027206 0.015686
0.076348 0.027206 0.016042
0.096569 0.019975 0.015686
0.119730 0.019608 0.015809
0.142892 0.015709 0.015709
0.169853 0.019485 0.019485
0.192249 0.015778 0.015778
0.225892 0.018539 0.018539
0.257927 0.015771 0.015771
0.291464 0.018302 0.018302
0.327528 0.015686 0.017111
0.370883 0.017992 0.018064
0.414951 0.019539 0.019539
0.457598 0.019608 0.019608
0.502022 0.019608 0.019608
0.548349 0.021511 0.021511
0.588971 0.023529 0.023529
0.627696 0.023602 0.023602
0.667724 0.027451 0.028876
0.704982 0.027531 0.027531
0.747304 0.031288 0.032475
0.784716 0.035172 0.035206
0.816697 0.035202 0.035325
0.854412 0.036248 0.039216
0.889216 0.040051 0.040051
0.924142 0.043853 0.043853
0.951088 0.047656 0.047656
0.977574 0.051459 0.051459
1.000000 0.055147 0.055147
1.000000 0.059666 0.058942
1.000000 0.156863 0.058824
0.004412 0.042402 0.015686
0.015449 0.053562 0.015686
0.041682 0.053906 0.015686
0.076961 0.054044 0.015686
0.096814 0.042862 0.015686
0.119769 0.035417 0.015931
0.142938 0.027497 0.015732
0.169730 0.023843 0.019363
0.196017 0.019547 0.015870
0.226961 0.018574 0.018574
0.257843 0.015855 0.015855
0.291383 0.018344 0.018344
0.329810 0.015686 0.017065
0.374609 0.017969 0.019608
0.418627 0.019470 0.019470
0.461267 0.019608 0.019608
0.501838 0.019608 0.019608
0.548284 0.021576 0.021576
0.585187 0.023529 0.023529
0.623897 0.023529 0.023675
0.667555 0.027451 0.027451
0.704940 0.027612 0.027612
0.747135 0.031204 0.032353
0.784628 0.035049 0.035118
0.816667 0.035110 0.035355
0.854412 0.036343 0.039216
0.889216 0.040150 0.040150
0.924226 0.043750 0.043957
0.950735 0.047763 0.047763
0.974242 0.051348 0.051570
1.000000 0.055147 0.055147
1.000000 0.060386 0.058938
1.000000 0.164461 0.055147
0.000000 0.069853 0.012132
0.011520 0.077217 0.015219
0.041912 0.077106 0.015441
0.073407 0.077328 0.015353
0.096569 0.073453 0.012132
0.120098 0.069175 0.015131
0.146883 0.060677 0.012799
0.176306 0.057475 0.015686
0.200888 0.052972 0.015962
0.233437 0.049142 0.016054
0.265319 0.038856 0.015939
0.298901 0.031491 0.016054
0.340931 0.018352 0.015686
0.382012 0.018164 0.019608
0.422426 0.019401 0.019401
0.461397 0.019608 0.019608
0.505699 0.019608 0.019608
0.548284 0.021641 0.021641
0.585049 0.023529 0.023529
0.623870 0.023529 0.023748
0.667509 0.027313 0.027451
0.705021 0.027692 0.027692
0.747051 0.032230 0.032230
0.785803 0.034926 0.035030
0.820588 0.035294 0.035386
0.855189 0.036439 0.039216
0.889216 0.040250 0.040250
0.924020 0.043750 0.044060
0.950812 0.047426 0.047871
0.973985 0.051314 0.051681
0.996324 0.055147 0.055147
1.000000 0.061229 0.058824
1.000000 0.175735 0.055270
0.000000 0.116667 0.011765
0.024923 0.116575 0.011673
0.049203 0.117157 0.008548
0.079458 0.117203 0.008379
0.113297 0.117647 0.011765
0.143214 0.116743 0.011719
0.177145 0.109559 0.011857
0.210892 0.108441 0.011765
0.244240 0.105270 0.012132
0.272549 0.099004 0.012255
0.309559 0.098284 0.012255
0.347840 0.093995 0.013434
0.386275 0.087316 0.014400
0.423039 0.079933 0.016176
0.461765 0.070374 0.017402
0.499142 0.060570 0.019608
0.536029 0.036765 0.019608
0.575230 0.023529 0.023529
0.613297 0.025031 0.025031
0.650123 0.024923 0.024923
0.690686 0.027267 0.027267
0.723729 0.028952 0.028952
0.761091 0.031036 0.033395
0.796078 0.034804 0.034804
0.827451 0.034926 0.034926
0.859467 0.038725 0.039108
0.893045 0.042647 0.043045
0.930346 0.046569 0.046569
0.954412 0.047488 0.050490
0.977849 0.052865 0.051302
0.996661 0.114063 0.054228
0.999525 0.158701 0.054795
1.000000 0.212255 0.092647
0.000000 0.139338 0.008456
0.003799 0.150387 0.007759
0.031005 0.151310 0.004741
0.066364 0.151103 0.005090
0.100613 0.150980 0.007843
0.138208 0.150490 0.007939
0.173415 0.146071 0.007843
0.204890 0.139449 0.007843
0.241850 0.138266 0.010478
0.280147 0.135907 0.008456
0.318137 0.135225 0.010731
0.356951 0.133789 0.009593
0.395956 0.130270 0.010907
0.432230 0.124020 0.012377
0.470688 0.118091 0.013825
0.507230 0.111887 0.015686
0.544792 0.105821 0.016299
0.585581 0.098568 0.019895
0.621791 0.089269 0.021668
0.658333 0.078435 0.021814
0.695695 0.066743 0.027451
0.732020 0.048951 0.029201
0.765686 0.033647 0.033647
0.800490 0.035294 0.035294
0.832353 0.035447 0.035447
0.866900 0.038737 0.039216
0.900866 0.043137 0.043137
0.938480 0.059570 0.049851
0.962255 0.098958 0.047672
0.985417 0.131660 0.048039
1.000000 0.162048 0.050980
1.000000 0.202122 0.051697
1.000000 0.245833 0.105270
0.000000 0.174265 0.004657
0.000000 0.185072 0.003822
0.012454 0.186229 0.000735
0.051279 0.186029 0.000735
0.089614 0.185692 0.001134
0.129887 0.184796 0.003539
0.172197 0.184559 0.003922
0.210087 0.183984 0.003922
0.245527 0.180637 0.004105
0.287500 0.177451 0.002367
0.330392 0.179902 0.003922
0.369608 0.177328 0.004174
0.409589 0.176440 0.006648
0.447495 0.172794 0.006388
0.485876 0.168061 0.008578
0.522281 0.163825 0.010271
0.559681 0.158701 0.012500
0.598384 0.154534 0.014193
0.632767 0.149923 0.017402
0.669677 0.148231 0.017716
0.706373 0.143873 0.019884
0.739821 0.141529 0.022174
0.776210 0.141912 0.026455
0.811313 0.142034 0.028186
0.842034 0.142586 0.031556
0.876631 0.143260 0.032805
0.908088 0.151716 0.036029
0.942279 0.163473 0.042517
0.966176 0.176563 0.043873
0.989338 0.189583 0.044240
1.000000 0.208624 0.047059
1.000000 0.236910 0.048483
1.000000 0.273039 0.117647
0.000000 0.204412 0.000858
0.000000 0.219022 0.000000
0.000000 0.219240 0.000000
0.032518 0.223081 0.000000
0.080377 0.223162 0.000000
0.122806 0.223162 0.000000
0.169570 0.223162 0.000000
0.211397 0.223162 0.000000
0.251654 0.222518 0.000000
0.288603 0.217038 0.000000
0.333234 0.218382 0.000000
0.379289 0.216372 0.000000
0.421691 0.217233 0.000536
0.462500 0.212990 0.000858
0.497786 0.211014 0.002681
0.534191 0.206618 0.004377
0.571691 0.203125 0.006740
0.609559 0.199422 0.008701
0.643015 0.194853 0.010041
0.677696 0.191441 0.012623
0.714292 0.189782 0.015686
0.750686 0.188921 0.018160
0.787500 0.190931 0.020466
0.822304 0.194612 0.024146
0.853401 0.194424 0.024602
0.884926 0.198104 0.028309
0.915809 0.202696 0.032230
0.948797 0.213737 0.038013
0.970098 0.219730 0.037393
0.989338 0.228676 0.040441
1.000000 0.243313 0.043137
1.000000 0.267674 0.044975
1.000000 0.303309 0.122426
0.000000 0.300980 0.000000
0.000000 0.303799 0.000000
0.000000 0.303125 0.000000
0.029320 0.302941 0.000000
0.092279 0.303309 0.000000
0.138634 0.302941 0.000000
0.190319 0.300000 0.000000
0.237010 0.293781 0.000000
0.282598 0.293382 0.000000
0.322763 0.288358 0.000000
0.360233 0.280637 0.000000
0.402696 0.275521 0.000000
0.449632 0.275613 0.000000
0.493015 0.272181 0.000000
0.530331 0.270588 0.000000
0.564216 0.265686 0.000000
0.601471 0.262745 0.000980
0.637745 0.258364 0.000980
0.672855 0.257414 0.002696
0.706373 0.252727 0.004902
0.737623 0.248897 0.006985
0.768750 0.247028 0.009804
0.800980 0.248039 0.012745
0.831740 0.249724 0.016667
0.862990 0.250980 0.017647
0.893627 0.257721 0.026991
0.920404 0.262316 0.042831
0.953339 0.272181 0.066299
0.977451 0.280760 0.076225
0.993413 0.291544 0.082629
0.998162 0.299571 0.091360
1.000000 0.316146 0.101256
1.000000 0.338235 0.118627
0.000000 0.327819 0.000000
0.000000 0.363725 0.000000
0.000000 0.371990 0.000000
0.000000 0.371059 0.000000
0.014154 0.366559 0.000000
0.099314 0.359804 0.000000
0.165686 0.355270 0.000000
0.215809 0.348284 0.000000
0.266912 0.340839 0.000000
0.314338 0.334739 0.000000
0.358456 0.328922 0.000000
0.393639 0.320600 0.000000
0.436106 0.313879 0.000000
0.484517 0.312132 0.000000
0.530132 0.312132 0.000000
0.573215 0.311546 0.000000
0.614583 0.309620 0.000000
0.654630 0.306591 0.000000
0.690931 0.303807 0.000000
0.722917 0.301593 0.000000
0.755974 0.298208 0.000414
0.786531 0.294374 0.001103
0.815219 0.292180 0.005025
0.846446 0.294550 0.008946
0.877328 0.296446 0.017096
0.907970 0.300984 0.036275
0.936275 0.308211 0.060746
0.968750 0.319045 0.090491
0.988251 0.324525 0.103202
1.000000 0.333372 0.111784
1.000000 0.341108 0.115686
1.000000 0.355672 0.127608
1.000000 0.379902 0.154657
0.000000 0.355882 0.000000
0.000000 0.398407 0.000000
0.000000 0.406786 0.000000
0.000000 0.406863 0.000000
0.000000 0.401134 0.000000
0.071216 0.394485 0.000000
0.149004 0.390181 0.000000
0.197304 0.382966 0.000000
0.250797 0.379167 0.000000
0.301716 0.372204 0.000000
0.350352 0.367264 0.000000
0.392333 0.361696 0.000000
0.434099 0.357598 0.000000
0.474617 0.350605 0.000000
0.523085 0.349556 0.000000
0.573859 0.350735 0.000000
0.620956 0.352083 0.000000
0.666215 0.352857 0.000000
0.702451 0.348974 0.000000
0.736160 0.346316 0.000000
0.768137 0.344577 0.000000
0.797672 0.340319 0.000000
0.826823 0.340441 0.005224
0.859145 0.340786 0.025513
0.888664 0.342341 0.051716
0.919585 0.346178 0.075567
0.946308 0.351471 0.092142
0.975015 0.360853 0.111466
0.994424 0.365502 0.119271
1.000000 0.371821 0.124265
1.000000 0.378431 0.128355
1.000000 0.390357 0.136481
1.000000 0.414706 0.163480
0.000000 0.386765 0.000000
0.000000 0.429209 0.000000
0.000000 0.441422 0.000000
0.000000 0.440445 0.000000
0.000000 0.435708 0.000000
0.036604 0.432686 0.000000
0.129182 0.428554 0.000000
0.184926 0.421569 0.000000
0.237960 0.420343 0.000000
0.289817 0.416544 0.000000
0.344485 0.411520 0.000000
0.392375 0.406713 0.000000
0.439200 0.404642 0.000000
0.476961 0.399200 0.000000
0.516544 0.390464 0.000000
0.564216 0.389338 0.000000
0.617708 0.392586 0.000000
0.666648 0.393260 0.000000
0.709949 0.393796 0.000000
0.746201 0.392712 0.000000
0.780162 0.389599 0.000000
0.809655 0.386642 0.003117
0.841422 0.387569 0.031809
0.871580 0.390219 0.061041
0.900276 0.391912 0.082261
0.930342 0.395538 0.100686
0.955147 0.396086 0.113113
0.980270 0.403274 0.124353
0.998820 0.405193 0.128554
1.000000 0.408946 0.132227
1.000000 0.413113 0.136152
1.000000 0.425000 0.144240
1.000000 0.445588 0.171201
0.000000 0.471569 0.000000
0.000000 0.488940 0.000000
0.000000 0.493536 0.000000
0.000000 0.491406 0.000000
0.000000 0.491054 0.000000
0.049004 0.488465 0.000000
0.136213 0.484773 0.000000
0.193551 0.480928 0.000000
0.245588 0.477451 0.000000
0.294439 0.473652 0.000000
0.345650 0.467953 0.000000
0.394501 0.461795 0.000000
0.441667 0.455882 0.000000
0.482613 0.449632 0.000000
0.522702 0.445006 0.000000
0.559115 0.436642 0.000000
0.608333 0.435049 0.000000
0.660999 0.438894 0.000000
0.708670 0.441268 0.000000
0.751501 0.444516 0.004979
0.787316 0.443199 0.025735
0.819256 0.441299 0.040901
0.848070 0.442647 0.053922
0.875490 0.441299 0.074602
0.903554 0.445588 0.093015
0.930239 0.446124 0.110708
0.958088 0.452420 0.125000
0.981250 0.456265 0.136060
0.994669 0.458824 0.142157
1.000000 0.463955 0.152191
1.000000 0.469363 0.157598
1.000000 0.477007 0.163771
1.000000 0.482353 0.166176
0.000000 0.491667 0.000000
0.000000 0.545784 0.000000
0.000000 0.564239 0.000000
0.000000 0.562255 0.000000
0.000000 0.553600 0.000000
0.000000 0.545588 0.000000
0.050483 0.539461 0.000000
0.146814 0.531740 0.000000
0.211612 0.525950 0.000000
0.264909 0.520301 0.000000
0.318497 0.514828 0.000000
0.370768 0.507656 0.000000
0.424265 0.500843 0.000000
0.472059 0.495588 0.000000
0.518505 0.491789 0.000000
0.559436 0.487243 0.000000
0.600000 0.480637 0.000000
0.646680 0.476225 0.000000
0.696530 0.481618 0.000000
0.744049 0.484769 0.000000
0.786412 0.486152 0.007200
0.822672 0.487197 0.041544
0.854282 0.488473 0.069608
0.884643 0.490074 0.090728
0.913725 0.491054 0.107843
0.940338 0.494504 0.123284
0.965755 0.500245 0.141054
0.992038 0.504779 0.155882
1.000000 0.509681 0.165487
1.000000 0.513603 0.179167
1.000000 0.513603 0.182820
1.000000 0.517574 0.186814
1.000000 0.523039 0.194485
0.000000 0.526471 0.000000
0.000000 0.576785 0.000000
0.000000 0.594501 0.000000
0.000000 0.593298 0.000000
0.000000 0.585784 0.000000
0.000000 0.577796 0.000000
0.006970 0.570343 0.000000
0.120718 0.566169 0.000000
0.195159 0.560601 0.000000
0.252819 0.555515 0.000000
0.305346 0.552895 0.000000
0.357575 0.547917 0.000000
0.411029 0.542647 0.000000
0.465771 0.539423 0.000000
0.513955 0.534528 0.000000
0.557598 0.530882 0.000000
0.601103 0.526103 0.000000
0.638848 0.518313 0.000000
0.680392 0.513741 0.000000
0.726716 0.515602 0.000000
0.771569 0.518627 0.000000
0.811619 0.521423 0.014193
0.849755 0.525291 0.052650
0.885179 0.529779 0.079665
0.913725 0.533578 0.102696
0.944233 0.537002 0.123284
0.969118 0.542647 0.143137
0.993382 0.547181 0.160294
1.000000 0.550061 0.173315
1.000000 0.550000 0.184475
1.000000 0.546078 0.186627
1.000000 0.548392 0.190617
1.000000 0.555637 0.200000
0.000000 0.561275 0.000000
0.000000 0.607663 0.000000
0.000000 0.621707 0.000000
0.000000 0.621936 0.000000
0.000000 0.614828 0.000000
0.000000 0.608659 0.000000
0.000000 0.606840 0.000000
0.096638 0.600946 0.000000
0.180270 0.600735 0.000000
0.242674 0.596814 0.000000
0.299142 0.595381 0.000000
0.349265 0.593524 0.000000
0.403309 0.588971 0.000000
0.456116 0.584559 0.000000
0.507108 0.577750 0.000000
0.554408 0.573039 0.000000
0.598039 0.568321 0.000000
0.637619 0.562496 0.000000
0.672128 0.554971 0.000000
0.708590 0.547672 0.000000
0.752895 0.548361 0.000000
0.797446 0.554063 0.000000
0.841176 0.561275 0.019815
0.879262 0.566299 0.059409
0.911642 0.572181 0.089430
0.942122 0.577417 0.116054
0.966912 0.581472 0.139461
0.991625 0.586887 0.162010
1.000000 0.586412 0.176486
1.000000 0.584609 0.182598
1.000000 0.579159 0.188480
1.000000 0.583023 0.194420
1.000000 0.586642 0.201838
0.000000 0.607843 0.000000
0.000000 0.629167 0.000000
0.000000 0.638971 0.000000
0.000000 0.641176 0.000000
0.000000 0.639216 0.000000
0.000000 0.638909 0.000000
0.020711 0.637623 0.000000
0.104534 0.639216 0.000000
0.179902 0.637255 0.000000
0.239338 0.635294 0.000000
0.293995 0.635294 0.000000
0.339645 0.634007 0.000000
0.390441 0.630147 0.000000
0.441789 0.628248 0.000000
0.490809 0.623529 0.000000
0.539951 0.618566 0.000000
0.589216 0.613726 0.000000
0.631679 0.610846 0.000000
0.672426 0.606985 0.000000
0.705208 0.599203 0.000000
0.740686 0.594118 0.000000
0.779289 0.592831 0.000000
0.819853 0.598652 0.000000
0.858456 0.605025 0.011397
0.894608 0.610784 0.050000
0.928064 0.616115 0.085355
0.953186 0.620343 0.116667
0.978002 0.627145 0.146630
0.996569 0.629167 0.165441
1.000000 0.627635 0.175061
1.000000 0.627451 0.182598
1.000000 0.627512 0.190319
1.000000 0.631373 0.196078
0.000000 0.638726 0.000000
0.000000 0.671749 0.005580
0.000000 0.683571 0.011520
0.000000 0.684118 0.002183
0.000000 0.678431 0.000000
0.000000 0.676103 0.000000
0.000000 0.672526 0.000000
0.000000 0.672584 0.000000
0.110172 0.668781 0.000000
0.193137 0.668260 0.000000
0.256457 0.667609 0.000000
0.312377 0.665054 0.000000
0.361198 0.665028 0.000000
0.413469 0.663101 0.000000
0.467578 0.662255 0.000000
0.519734 0.660302 0.000000
0.571875 0.654412 0.000000
0.623039 0.654412 0.000000
0.665671 0.652436 0.000000
0.705404 0.649644 0.000000
0.741207 0.645006 0.000000
0.773529 0.638009 0.000000
0.808211 0.635378 0.000000
0.847400 0.640414 0.000000
0.887040 0.649173 0.015901
0.921324 0.654465 0.061363
0.951471 0.658923 0.105982
0.974307 0.662500 0.143505
0.994960 0.664338 0.168015
1.000000 0.662305 0.179339
1.000000 0.660547 0.188725
1.000000 0.662255 0.196446
1.000000 0.666422 0.206250
0.000000 0.669608 0.000000
0.000000 0.698951 0.022603
0.000000 0.710784 0.028676
0.000000 0.711029 0.019646
0.000000 0.703676 0.002145
0.000000 0.701471 0.000000
0.000000 0.696078 0.000000
0.000000 0.695718 0.000000
0.092096 0.695343 0.000000
0.175973 0.693137 0.000000
0.243382 0.695833 0.000000
0.300858 0.693137 0.000000
0.350245 0.693781 0.000000
0.399793 0.695052 0.000000
0.453906 0.695067 0.000000
0.503186 0.693030 0.000000
0.554289 0.688113 0.000000
0.607598 0.686206 0.000000
0.650965 0.683303 0.000000
0.691506 0.680476 0.000000
0.730300 0.677696 0.000000
0.765051 0.672771 0.000000
0.799801 0.667402 0.000000
0.835172 0.668643 0.000000
0.871630 0.672365 0.000000
0.903784 0.675735 0.009513
0.936029 0.679657 0.050980
0.962500 0.683310 0.110907
0.983578 0.683578 0.139920
0.998445 0.683578 0.160294
1.000000 0.683578 0.171569
1.000000 0.683647 0.181005
1.000000 0.689706 0.187010
0.000000 0.700490 0.005515
0.000000 0.726030 0.040296
0.000000 0.733946 0.050000
0.000000 0.734341 0.038997
0.000000 0.728232 0.017525
0.000000 0.726348 0.002091
0.000000 0.724020 0.000000
0.000000 0.724020 0.000000
0.079994 0.724020 0.000000
0.169811 0.724510 0.000000
0.236527 0.727214 0.000000
0.294853 0.727394 0.000000
0.346446 0.726486 0.000000
0.392770 0.725911 0.000000
0.441422 0.727244 0.000000
0.489729 0.723173 0.000000
0.539583 0.720098 0.000000
0.590219 0.718260 0.004021
0.635455 0.714170 0.022695
0.678343 0.712255 0.002838
0.719485 0.711382 0.000000
0.757043 0.707533 0.000000
0.792042 0.703684 0.000000
0.824674 0.698369 0.000000
0.857414 0.696752 0.000000
0.887764 0.696729 0.000000
0.920588 0.699334 0.002183
0.949636 0.701226 0.055159
0.971936 0.703110 0.106327
0.989637 0.704929 0.133728
1.000000 0.705147 0.149242
1.000000 0.705147 0.160049
1.000000 0.709069 0.167770
0.000000 0.727451 0.010294
0.000000 0.744424 0.034421
0.000000 0.750827 0.039706
0.000000 0.752451 0.035172
0.000000 0.749326 0.022488
0.000000 0.751731 0.010463
0.000000 0.753156 0.000276
0.031756 0.754580 0.000000
0.107598 0.756005 0.000000
0.182368 0.755683 0.000000
0.242616 0.760539 0.000000
0.293520 0.758808 0.000000
0.343689 0.759865 0.000000
0.390457 0.759329 0.000000
0.434957 0.761428 0.000000
0.479948 0.759115 0.000000
0.528431 0.757353 0.003676
0.576746 0.756204 0.018842
0.621078 0.752880 0.035631
0.666406 0.749985 0.052282
0.704963 0.745588 0.039338
0.743137 0.744240 0.017509
0.777941 0.738756 0.000000
0.811673 0.735861 0.000000
0.843260 0.731618 0.000000
0.870588 0.726639 0.000000
0.899540 0.725490 0.000000
0.930040 0.727941 0.004779
0.951961 0.728248 0.031005
0.972304 0.730392 0.076823
0.990196 0.732843 0.104320
1.000000 0.732889 0.118306
1.000000 0.736765 0.131373
0.000000 0.767525 0.065441
0.000000 0.781740 0.084846
0.000000 0.788197 0.088971
0.000000 0.788484 0.084195
0.000000 0.788358 0.072763
0.000000 0.785784 0.058824
0.000000 0.784436 0.040196
0.000000 0.784999 0.022966
0.036213 0.788021 0.003952
0.140185 0.787010 0.000000
0.209804 0.788358 0.000000
0.270221 0.790047 0.000000
0.326118 0.792279 0.000000
0.377328 0.792279 0.000000
0.422894 0.795443 0.000000
0.468627 0.796936 0.000000
0.519485 0.797488 0.000000
0.567770 0.795485 0.014442
0.610493 0.793727 0.049977
0.652574 0.790686 0.082288
0.695956 0.786887 0.105346
0.736029 0.783973 0.072277
0.773407 0.780093 0.009184
0.808590 0.775490 0.000000
0.841085 0.769761 0.000000
0.870761 0.763971 0.000000
0.898897 0.760424 0.000000
0.925770 0.757387 0.000804
0.946400 0.756985 0.035585
0.968015 0.756985 0.081985
0.984881 0.756901 0.106166
1.000000 0.759478 0.118995
1.000000 0.760907 0.135784
0.000000 0.797059 0.076961
0.000000 0.807514 0.099020
0.000000 0.811520 0.102037
0.000000 0.814331 0.094600
0.000000 0.810447 0.083333
0.000000 0.807598 0.068926
0.000000 0.806602 0.050260
0.000000 0.806373 0.033946
0.025735 0.809988 0.014400
0.134436 0.809949 0.000000
0.204657 0.810677 0.000000
0.261696 0.810294 0.000000
0.316115 0.813205 0.000000
0.365686 0.813120 0.000000
0.411320 0.814752 0.000000
0.453761 0.814867 0.000000
0.500858 0.814828 0.000000
0.545833 0.812783 0.000000
0.588036 0.812500 0.015931
0.629044 0.809926 0.047802
0.670343 0.806127 0.078952
0.712868 0.803255 0.101616
0.752696 0.801608 0.066207
0.791299 0.799755 0.007927
0.823652 0.793505 0.000000
0.859804 0.791322 0.000000
0.891406 0.786979 0.000000
0.919294 0.781181 0.000000
0.938235 0.779657 0.005484
0.957851 0.776226 0.043398
0.975735 0.772304 0.067570
0.995014 0.775000 0.073943
1.000000 0.776226 0.092157
0.000000 0.820098 0.079534
0.000000 0.829569 0.093995
0.000000 0.829657 0.095902
0.000000 0.830025 0.089725
0.000000 0.827191 0.075490
0.000000 0.824020 0.061152
0.000000 0.822917 0.045711
0.000000 0.823533 0.030886
0.006710 0.826563 0.012714
0.122917 0.826838 0.000310
0.194118 0.827941 0.000000
0.252206 0.829657 0.000000
0.305974 0.832521 0.000000
0.354044 0.832433 0.000000
0.399747 0.832476 0.000000
0.441667 0.833578 0.000000
0.484069 0.833578 0.000000
0.526471 0.830760 0.000000
0.567157 0.829044 0.000000
0.609681 0.827941 0.010336
0.650444 0.827528 0.047871
0.692881 0.826838 0.083689
0.736497 0.823675 0.111481
0.775858 0.822917 0.084386
0.812347 0.820803 0.024908
0.848526 0.819240 0.002585
0.882560 0.814545 0.000000
0.914288 0.807989 0.000172
0.933349 0.800000 0.006495
0.950019 0.795362 0.021220
0.968015 0.791475 0.016559
0.987289 0.790441 0.000000
1.000000 0.791544 0.000000
0.000000 0.843137 0.078431
0.000000 0.849877 0.088113
0.000000 0.849081 0.087500
0.000000 0.850276 0.084589
0.000000 0.850000 0.073284
0.000000 0.847059 0.063358
0.001593 0.847855 0.048713
0.023560 0.849449 0.039522
0.045098 0.851961 0.026225
0.143321 0.852665 0.014706
0.204779 0.853922 0.012377
0.258885 0.854565 0.011765
0.306740 0.856740 0.011397
0.353186 0.855484 0.012347
0.396324 0.855882 0.013297
0.436029 0.857966 0.013725
0.478431 0.858333 0.015196
0.515074 0.856863 0.016146
0.556618 0.856863 0.020343
0.595221 0.856863 0.025705
0.637745 0.855760 0.034559
0.677359 0.856863 0.071415
0.717831 0.854657 0.106801
0.758456 0.851961 0.141452
0.794608 0.848775 0.127206
0.830882 0.850123 0.090288
0.865135 0.846324 0.041238
0.897396 0.839063 0.037102
0.923529 0.830760 0.042034
0.942984 0.825214 0.039828
0.959314 0.821324 0.032292
0.974724 0.819516 0.029350
0.990196 0.817647 0.027451
0.000000 0.880147 0.124632
0.000000 0.884777 0.132353
0.000000 0.884122 0.134735
0.000000 0.881292 0.124142
0.000000 0.881388 0.113741
0.000000 0.879668 0.101716
0.000000 0.879573 0.093995
0.000000 0.880147 0.086275
0.000000 0.880147 0.072457
0.112871 0.882966 0.062132
0.191445 0.883111 0.044141
0.245466 0.884069 0.024510
0.297794 0.887669 0.010340
0.346098 0.887642 0.011010
0.392770 0.890196 0.018865
0.437780 0.891701 0.026103
0.477574 0.891912 0.030331
0.518716 0.893750 0.039461
0.555507 0.894975 0.049740
0.593627 0.894975 0.078412
0.633088 0.893597 0.099663
0.671691 0.891912 0.117574
0.708479 0.890686 0.142915
0.747178 0.887129 0.177688
0.785876 0.887224 0.206005
0.818930 0.884739 0.208023
0.856702 0.884069 0.195259
0.891789 0.877328 0.167969
0.918260 0.869501 0.164476
0.945056 0.860742 0.154860
0.961275 0.849387 0.143206
0.976689 0.844853 0.123039
0.992157 0.844853 0.107598
0.000000 0.899510 0.126961
0.000000 0.900222 0.138480
0.000000 0.899755 0.134360
0.000000 0.899510 0.123039
0.000000 0.896722 0.108732
0.000000 0.895703 0.096699
0.000000 0.898775 0.088343
0.000000 0.896324 0.077696
0.000000 0.897120 0.066238
0.109681 0.899510 0.060455
0.185769 0.899740 0.040426
0.241544 0.902336 0.019118
0.289216 0.903891 0.003401
0.337132 0.903868 0.000000
0.383257 0.905959 0.004335
0.427060 0.905859 0.009926
0.466667 0.908088 0.011765
0.506495 0.909191 0.013258
0.540855 0.909482 0.020588
0.577014 0.911275 0.037707
0.615656 0.909283 0.074510
0.656985 0.908088 0.122319
0.693857 0.907858 0.144363
0.732560 0.906664 0.182560
0.771262 0.907353 0.209681
0.807315 0.904741 0.233701
0.842616 0.904764 0.234176
0.880262 0.903669 0.220948
