luts/SG7.cube
TITLE "sample10"
LUT_3D_SIZE 5
DOMAIN_MIN 0.0 0.0 0.0
DOMAIN_MAX 1.0 1.0 1.0
0.015686 0.015686 0.015686
0.196078 0.015686 0.015686
0.509804 0.019608 0.019608
0.819608 0.035294 0.035294
1.000000 0.149020 0.058824
0.000000 0.300980 0.000000
0.282598 0.293382 0.000000
0.601471 0.262745 0.000980
0.862990 0.250980 0.017647
1.000000 0.338235 0.118627
0.000000 0.607843 0.000000
0.179902 0.637255 0.000000
0.589216 0.613726 0.000000
0.894608 0.610784 0.050000
1.000000 0.631373 0.196078
0.000000 0.843137 0.078431
0.045098 0.851961 0.026225
0.478431 0.858333 0.015196
0.794608 0.848775 0.127206
0.990196 0.817647 0.027451
0.000000 0.980392 0.133333
0.156863 0.984314 0.129412
0.450980 0.988235 0.129412
0.701961 0.992157 0.265686
0.976471 0.980392 0.305882
0.027451 0.016667 0.153922
0.197059 0.016667 0.197059
0.467647 0.022059 0.225980
0.785539 0.031618 0.231618
1.000000 0.058824 0.282353
0.008824 0.273284 0.272304
0.267708 0.267034 0.273529
0.539951 0.257476 0.261642
0.828186 0.256863 0.272978
1.000000 0.319608 0.302941
0.000000 0.600490 0.311275
0.235172 0.619730 0.273529
0.591422 0.590686 0.280147
0.898897 0.610784 0.329167
1.000000 0.625000 0.370588
0.025000 0.847059 0.314216
0.214216 0.857108 0.293137
0.502819 0.856127 0.242034
0.810907 0.844424 0.339461
0.997059 0.817402 0.314706
0.000000 0.980392 0.338235
0.239216 0.983578 0.338480
0.462255 0.985784 0.306863
0.709069 0.991422 0.383578
0.976471 0.980392 0.420588
0.050980 0.019608 0.390196
0.226471 0.023039 0.419118
0.438235 0.031373 0.465686
0.725490 0.064216 0.508824
1.000000 0.070588 0.490196
0.000000 0.249020 0.471569
0.240196 0.255637 0.486887
0.477451 0.250490 0.510049
0.762623 0.266299 0.535172
1.000000 0.250000 0.501961
0.060784 0.579412 0.562745
0.302941 0.588235 0.581618
0.568627 0.578431 0.584804
0.849755 0.600490 0.600245
1.000000 0.601961 0.586275
0.140196 0.842647 0.597549
0.371814 0.845098 0.609436
0.553922 0.848039 0.561275
0.812377 0.840441 0.611397
1.000000 0.838235 0.596569
0.243137 0.978431 0.568627
0.366176 0.979902 0.574020
0.524510 0.981373 0.554902
0.728922 0.986765 0.579902
0.980392 0.980392 0.633333
0.078431 0.027451 0.618627
0.236275 0.034314 0.633333
0.447549 0.054902 0.697059
0.734069 0.084804 0.788235
0.963725 0.117647 0.748039
0.055882 0.242402 0.664216
0.244363 0.249265 0.680944
0.468873 0.267157 0.732476
0.750674 0.283395 0.809804
0.963725 0.289461 0.760049
0.101961 0.562745 0.764216
0.315686 0.574020 0.778922
0.546324 0.591667 0.809069
0.791544 0.590809 0.832353
0.978431 0.567647 0.788235
0.239706 0.833333 0.820343
0.412990 0.836520 0.828860
0.613971 0.838235 0.836520
0.812561 0.833088 0.835294
0.992892 0.846078 0.842157
0.300980 0.980392 0.772549
0.461765 0.980392 0.787990
0.651961 0.980392 0.809314
0.825245 0.988971 0.829167
0.992157 0.992157 0.874510
0.196078 0.058824 0.850980
0.295098 0.065686 0.862745
0.474510 0.084314 0.892157
0.678431 0.115686 0.971569
0.956863 0.137255 0.980392
0.193137 0.292157 0.874510
0.296324 0.299265 0.886520
0.471569 0.313235 0.915686
0.675245 0.316912 0.980392
0.950000 0.281373 0.983333
0.286275 0.570588 0.933333
0.375000 0.576471 0.939216
0.500000 0.576471 0.960784
0.713235 0.576961 0.990686
0.960784 0.574510 0.984314
0.335294 0.791176 0.969608
0.432843 0.795098 0.969853
0.603922 0.804412 0.976471
0.791912 0.822304 0.988971
0.980392 0.829412 0.993137
0.549020 0.992157 0.972549
0.621569 0.996078 0.980392
0.750980 0.996078 0.980392
0.928431 0.997059 0.993137
1.000000 1.000000 1.000000
