luts/SG7.cube
TITLE "sample10"
LUT_3D_SIZE 9
DOMAIN_MIN 0.0 0.0 0.0
DOMAIN_MAX 1.0 1.0 1.0
0.015686 0.015686 0.015686
0.092647 0.015686 0.015686
0.196078 0.015686 0.015686
0.335294 0.017157 0.017157
0.509804 0.019608 0.019608
0.675490 0.027451 0.028922
0.819608 0.035294 0.035294
0.954412 0.047549 0.047549
1.000000 0.149020 0.058824
0.000000 0.116667 0.011765
0.113297 0.117647 0.011765
0.244240 0.105270 0.012132
0.386275 0.087316 0.014400
0.536029 0.036765 0.019608
0.690686 0.027267 0.027267
0.827451 0.034926 0.034926
0.954412 0.047488 0.050490
1.000000 0.212255 0.092647
0.000000 0.300980 0.000000
0.092279 0.303309 0.000000
0.282598 0.293382 0.000000
0.449632 0.275613 0.000000
0.601471 0.262745 0.000980
0.737623 0.248897 0.006985
0.862990 0.250980 0.017647
0.977451 0.280760 0.076225
1.000000 0.338235 0.118627
0.000000 0.471569 0.000000
0.000000 0.491054 0.000000
0.245588 0.477451 0.000000
0.441667 0.455882 0.000000
0.608333 0.435049 0.000000
0.787316 0.443199 0.025735
0.903554 0.445588 0.093015
0.994669 0.458824 0.142157
1.000000 0.482353 0.166176
0.000000 0.607843 0.000000
0.000000 0.639216 0.000000
0.179902 0.637255 0.000000
0.390441 0.630147 0.000000
0.589216 0.613726 0.000000
0.740686 0.594118 0.000000
0.894608 0.610784 0.050000
0.996569 0.629167 0.165441
1.000000 0.631373 0.196078
0.000000 0.727451 0.010294
0.000000 0.749326 0.022488
0.107598 0.756005 0.000000
0.343689 0.759865 0.000000
0.528431 0.757353 0.003676
0.704963 0.745588 0.039338
0.843260 0.731618 0.000000
0.951961 0.728248 0.031005
1.000000 0.736765 0.131373
0.000000 0.843137 0.078431
0.000000 0.850000 0.073284
0.045098 0.851961 0.026225
0.306740 0.856740 0.011397
0.478431 0.858333 0.015196
0.637745 0.855760 0.034559
0.794608 0.848775 0.127206
0.923529 0.830760 0.042034
0.990196 0.817647 0.027451
0.019118 0.939216 0.164216
0.023958 0.936703 0.144975
0.069975 0.937132 0.114093
0.305760 0.943627 0.069424
0.459314 0.944118 0.073284
0.598162 0.948039 0.118076
0.748529 0.950123 0.249020
0.887194 0.947549 0.265257
0.976961 0.901961 0.192647
0.000000 0.980392 0.133333
0.000000 0.980882 0.146078
0.156863 0.984314 0.129412
0.322059 0.988235 0.125490
0.450980 0.988235 0.129412
0.574510 0.992157 0.187255
0.701961 0.992157 0.265686
0.833333 0.995588 0.309804
0.976471 0.980392 0.305882
0.019608 0.019118 0.061275
0.088725 0.015686 0.085662
0.189216 0.015809 0.100613
0.332353 0.018137 0.106863
0.486520 0.019608 0.118137
0.634988 0.027145 0.123713
0.789706 0.032353 0.124510
0.939216 0.047549 0.135784
1.000000 0.062255 0.166667
0.011642 0.108762 0.111336
0.112485 0.112423 0.115916
0.229151 0.113128 0.116728
0.371546 0.112439 0.124839
0.512745 0.089308 0.126991
0.654351 0.025567 0.129412
0.803983 0.034804 0.134084
0.944608 0.049579 0.147258
1.000000 0.171569 0.174571
0.000000 0.288235 0.152696
0.113297 0.289032 0.138787
0.280637 0.275827 0.133333
0.434176 0.265380 0.140288
0.574755 0.253738 0.144179
0.709406 0.239170 0.145466
0.842279 0.235233 0.154289
0.967203 0.261826 0.172595
1.000000 0.312868 0.195956
0.000000 0.461581 0.157843
0.044922 0.478653 0.143359
0.252528 0.459804 0.118566
0.441552 0.435723 0.134812
0.606955 0.419700 0.133088
0.771078 0.425008 0.166674
0.894730 0.428431 0.190640
0.991383 0.444937 0.215303
1.000000 0.467463 0.228738
0.000000 0.612010 0.150490
0.000000 0.640993 0.145313
0.212071 0.631434 0.098652
0.405974 0.620343 0.116422
0.595221 0.600980 0.136765
0.746661 0.579167 0.119210
0.902267 0.603125 0.181924
0.996324 0.621324 0.247978
1.000000 0.621569 0.261520
0.000000 0.740196 0.162255
0.000000 0.762669 0.170588
0.182996 0.761765 0.128569
0.369608 0.759252 0.100437
0.545833 0.751961 0.150766
0.718934 0.738549 0.163848
0.851394 0.720098 0.104105
0.961535 0.725896 0.179818
1.000000 0.734130 0.227941
0.000000 0.847917 0.182353
0.008150 0.859436 0.186979
0.160294 0.857843 0.156832
0.337270 0.858349 0.115502
0.494547 0.856434 0.104902
0.654412 0.852053 0.172013
0.809804 0.846814 0.214093
0.929642 0.825230 0.170818
0.994118 0.813726 0.184069
0.030821 0.937684 0.244118
0.033272 0.940257 0.249625
0.192800 0.941697 0.221293
0.338335 0.945404 0.180430
0.479412 0.946048 0.171109
0.610761 0.947771 0.197442
0.760953 0.947549 0.305821
0.896193 0.943735 0.315633
0.980453 0.895588 0.259314
0.000000 0.980882 0.238235
0.019730 0.984314 0.254351
0.217279 0.984314 0.241667
0.340686 0.985784 0.223529
0.460784 0.988235 0.216176
0.579718 0.989522 0.248836
0.705882 0.989583 0.308211
0.837194 0.992157 0.348039
0.976471 0.980392 0.348039
0.027451 0.016667 0.153922
0.104902 0.016667 0.173039
0.197059 0.016667 0.197059
0.316299 0.020221 0.221201
0.467647 0.022059 0.225980
0.626961 0.025000 0.224632
0.785539 0.031618 0.231618
0.934926 0.047181 0.258946
1.000000 0.058824 0.282353
0.008946 0.108456 0.205025
0.111596 0.108946 0.211275
0.222304 0.112255 0.232108
0.341850 0.109069 0.240778
0.494056 0.086581 0.232843
0.641468 0.038802 0.230101
0.793229 0.084130 0.250153
0.938113 0.090426 0.264905
1.000000 0.194975 0.286152
0.008824 0.273284 0.272304
0.136612 0.274939 0.275214
0.267708 0.267034 0.273529
0.403309 0.261275 0.265931
0.539951 0.257476 0.261642
0.680760 0.252237 0.261152
0.828186 0.256863 0.272978
0.960294 0.280729 0.289185
1.000000 0.319608 0.302941
0.000000 0.441299 0.299020
0.134452 0.452237 0.310876
0.264216 0.442616 0.279933
0.430653 0.424617 0.275735
0.598468 0.424265 0.285233
0.748591 0.425490 0.300061
0.880055 0.434498 0.314890
0.985677 0.452099 0.329427
1.000000 0.466176 0.332353
0.000000 0.600490 0.311275
0.080331 0.624265 0.322304
0.235172 0.619730 0.273529
0.399203 0.610723 0.258456
0.591422 0.590686 0.280147
0.749265 0.578799 0.265257
0.898897 0.610784 0.329167
0.993076 0.630882 0.377696
1.000000 0.625000 0.370588
0.009926 0.734926 0.314216
0.048989 0.756449 0.326425
0.229657 0.756495 0.289063
0.374020 0.755132 0.244838
0.547059 0.746385 0.288542
0.717647 0.733180 0.302129
0.856434 0.722243 0.248223
0.963955 0.732966 0.320818
1.000000 0.741544 0.355270
0.025000 0.847059 0.314216
0.041299 0.858915 0.323499
0.214216 0.857108 0.293137
0.351746 0.856863 0.250276
0.502819 0.856127 0.242034
0.658241 0.851011 0.303186
0.810907 0.844424 0.339461
0.930760 0.825980 0.301379
0.997059 0.817402 0.314706
0.036152 0.937255 0.355882
0.093275 0.939874 0.361504
0.247702 0.940472 0.340074
0.360386 0.943903 0.297855
0.484988 0.944792 0.273529
0.618398 0.947917 0.297120
0.767953 0.947549 0.400490
0.899203 0.943949 0.410570
0.980882 0.894730 0.357843
0.000000 0.980392 0.338235
0.105392 0.980515 0.346569
0.239216 0.983578 0.338480
0.354289 0.984314 0.323407
0.462255 0.985784 0.306863
0.586275 0.988235 0.335784
0.709069 0.991422 0.383578
0.839828 0.994730 0.416667
0.976471 0.980392 0.420588
0.045588 0.019608 0.266176
0.120098 0.017279 0.276164
0.211275 0.018505 0.306863
0.323529 0.022059 0.336826
0.434069 0.026716 0.339951
0.576471 0.037745 0.353431
0.781985 0.035294 0.359436
0.939032 0.047549 0.362745
1.000000 0.061275 0.358824
0.023529 0.103922 0.304902
0.121952 0.105492 0.316866
0.224648 0.105270 0.340809
0.339706 0.100184 0.354236
0.450000 0.095435 0.353676
0.590495 0.036451 0.358448
0.789874 0.037714 0.364262
0.939691 0.048736 0.365709
1.000000 0.091667 0.371875
0.000000 0.258946 0.370098
0.121844 0.260524 0.375230
0.246691 0.260662 0.381648
0.370420 0.256694 0.389905
0.487500 0.253554 0.387255
0.656419 0.239185 0.376287
0.819853 0.236336 0.379871
0.951471 0.265794 0.393627
1.000000 0.330392 0.416789
0.013174 0.420956 0.412194
0.139760 0.432276 0.427436
0.278676 0.422166 0.422580
0.412400 0.416789 0.422894
0.561091 0.409865 0.414706
0.707008 0.413664 0.416092
0.852681 0.432874 0.432874
0.968520 0.455453 0.447128
1.000000 0.460784 0.441605
0.039706 0.587010 0.441176
0.147059 0.608670 0.462102
0.295221 0.602145 0.456127
0.414216 0.599050 0.427482
0.582108 0.583701 0.430515
0.744118 0.589706 0.445098
0.883824 0.626471 0.491851
0.976716 0.638971 0.511275
1.000000 0.627451 0.492157
0.073897 0.730453 0.457353
0.197809 0.749334 0.479297
0.316483 0.744807 0.470221
0.414239 0.745527 0.426861
0.552911 0.739491 0.429167
0.715970 0.729006 0.444179
0.853968 0.721063 0.405193
0.962255 0.747549 0.487063
1.000000 0.752451 0.493689
0.066176 0.843137 0.466176
0.207583 0.853171 0.476884
0.302849 0.851532 0.459222
0.397227 0.852635 0.411259
0.515196 0.852022 0.373713
0.665196 0.848958 0.436091
0.813726 0.843597 0.478278
0.935233 0.830346 0.434099
0.998897 0.823407 0.444730
0.053676 0.936275 0.475000
0.224916 0.939377 0.484988
0.320741 0.938097 0.478477
0.410095 0.940794 0.448820
0.503431 0.945833 0.391023
0.632835 0.948032 0.416422
0.775000 0.946507 0.509498
0.902145 0.943827 0.516889
0.980882 0.897733 0.465870
0.022059 0.980392 0.445098
0.194608 0.980392 0.457047
0.282230 0.980392 0.447917
0.377512 0.983395 0.433885
0.476961 0.984314 0.418137
0.594485 0.986152 0.435723
0.711887 0.988235 0.473162
0.844118 0.991973 0.505392
0.976471 0.980392 0.513235
0.050980 0.019608 0.390196
0.131863 0.019608 0.401716
0.226471 0.023039 0.419118
0.319853 0.027451 0.455392
0.438235 0.031373 0.465686
0.564216 0.043873 0.471569
0.725490 0.064216 0.508824
0.902451 0.076471 0.509559
1.000000 0.070588 0.490196
0.048039 0.096569 0.422059
0.134099 0.095343 0.430882
0.232414 0.095282 0.442157
0.329197 0.090533 0.473958
0.449755 0.078309 0.478922
0.576716 0.045343 0.481219
0.732598 0.066605 0.512745
0.903952 0.075950 0.512255
0.999755 0.071814 0.497304
0.000000 0.249020 0.471569
0.124020 0.256618 0.480515
0.240196 0.255637 0.486887
0.349877 0.253248 0.507108
0.477451 0.250490 0.510049
0.605637 0.257353 0.514461
0.762623 0.266299 0.535172
0.929412 0.259926 0.527328
1.000000 0.250000 0.501961
0.002451 0.410049 0.519363
0.123254 0.419700 0.532690
0.261213 0.414154 0.531985
0.385509 0.411734 0.540686
0.519363 0.409069 0.549877
0.653952 0.416942 0.560049
0.826103 0.420772 0.560049
0.961703 0.417096 0.549939
1.000000 0.410049 0.523039
0.060784 0.579412 0.562745
0.163480 0.595221 0.585294
0.302941 0.588235 0.581618
0.434681 0.582108 0.582353
0.568627 0.578431 0.584804
0.718995 0.584069 0.588603
0.849755 0.600490 0.600245
0.953922 0.609559 0.603431
1.000000 0.601961 0.586275
0.097794 0.726716 0.587990
0.233701 0.741820 0.607322
0.350061 0.736397 0.606005
0.465533 0.732629 0.604688
0.569853 0.730637 0.581495
0.712010 0.724724 0.590257
0.846262 0.734681 0.605760
0.959896 0.764461 0.643137
1.000000 0.763971 0.637255
0.140196 0.842647 0.597549
0.280208 0.847917 0.609191
0.371814 0.845098 0.609436
0.470282 0.844853 0.602022
0.553922 0.848039 0.561275
0.678431 0.846875 0.580208
0.812377 0.840441 0.611397
0.932904 0.835294 0.582721
1.000000 0.838235 0.596569
0.208578 0.936029 0.597549
0.302543 0.936489 0.606127
0.383150 0.936703 0.606127
0.473070 0.939400 0.601072
0.554902 0.942034 0.570588
0.660938 0.948683 0.560355
0.783517 0.947120 0.618627
0.907108 0.943873 0.629442
0.982598 0.905392 0.590686
0.243137 0.978431 0.568627
0.313480 0.978431 0.576716
0.366176 0.979902 0.574020
0.440196 0.979167 0.567402
0.524510 0.981373 0.554902
0.622794 0.984314 0.557598
0.728922 0.986765 0.579902
0.864951 0.990196 0.617647
0.980392 0.980392 0.633333
0.066667 0.023529 0.514216
0.139890 0.023529 0.517831
0.229044 0.025613 0.525980
0.328002 0.031373 0.543199
0.426716 0.037990 0.592647
0.580453 0.052451 0.622059
0.726471 0.075490 0.629289
0.867341 0.098223 0.647733
0.971078 0.109804 0.634804
0.067770 0.083517 0.529105
0.142900 0.082131 0.534750
0.236581 0.078968 0.542387
0.336589 0.058877 0.555139
0.436765 0.039859 0.604412
0.589407 0.053684 0.629343
0.732230 0.077405 0.633778
0.868934 0.098836 0.650529
0.971078 0.110784 0.637745
0.034559 0.247059 0.568505
0.132537 0.249571 0.575536
0.238174 0.248989 0.582108
0.345190 0.250291 0.593627
0.455515 0.252512 0.638480
0.610677 0.262546 0.659314
0.751287 0.279412 0.661703
0.882353 0.285110 0.670588
0.979289 0.287255 0.644363
0.032782 0.397610 0.612806
0.122748 0.404603 0.623545
0.255775 0.403493 0.625781
0.372549 0.409459 0.640602
0.492892 0.415196 0.676777
0.649472 0.424877 0.694485
0.783961 0.442157 0.698591
0.903914 0.444907 0.696676
0.993566 0.417831 0.648162
0.090441 0.566667 0.666422
0.188143 0.577696 0.680974
0.308578 0.575368 0.679779
0.428646 0.576746 0.685263
0.552574 0.582721 0.703186
0.689001 0.590472 0.720803
0.810110 0.591973 0.725980
0.935784 0.576716 0.701716
1.000000 0.551716 0.658824
0.111397 0.723468 0.708272
0.256242 0.730706 0.717892
0.361933 0.726900 0.716835
0.473100 0.723591 0.719462
0.587990 0.722028 0.723744
0.706495 0.722120 0.726271
0.827328 0.724096 0.725705
0.940686 0.729236 0.725199
1.000000 0.728493 0.718566
0.170466 0.838235 0.712745
0.292632 0.844118 0.723392
0.388113 0.841176 0.724602
0.492601 0.837944 0.726057
0.599265 0.840135 0.727757
0.701608 0.842494 0.720297
0.812040 0.838756 0.729412
0.938404 0.845941 0.726762
1.000000 0.862255 0.753431
0.247549 0.934988 0.708640
0.330944 0.937400 0.715502
0.415411 0.938205 0.718107
0.512860 0.939706 0.723545
0.613174 0.943229 0.728339
0.694868 0.948238 0.706434
0.794960 0.947687 0.719317
0.913235 0.944118 0.739583
0.982169 0.917157 0.725306
0.254412 0.976471 0.661765
0.341176 0.976471 0.673529
0.431985 0.977574 0.685784
0.539461 0.978860 0.704289
0.605147 0.980392 0.700245
0.676042 0.982475 0.691176
0.773407 0.987132 0.703431
0.885294 0.991850 0.735294
0.984314 0.984314 0.754902
0.078431 0.027451 0.618627
0.146691 0.030392 0.622549
0.236275 0.034314 0.633333
0.336765 0.041054 0.652819
0.447549 0.054902 0.697059
0.569240 0.069118 0.766667
0.734069 0.084804 0.788235
0.868505 0.110172 0.764583
0.963725 0.117647 0.748039
0.090564 0.045466 0.630025
0.156694 0.040058 0.633563
0.245067 0.032966 0.642249
0.344179 0.041575 0.660922
0.454841 0.055086 0.705331
0.576057 0.071691 0.771155
0.736765 0.086275 0.792310
0.869041 0.109865 0.767616
0.964338 0.121078 0.751103
0.055882 0.242402 0.664216
0.143903 0.246109 0.671477
0.244363 0.249265 0.680944
0.347580 0.255913 0.698070
0.468873 0.267157 0.732476
0.588726 0.279167 0.793474
0.750674 0.283395 0.809804
0.877420 0.297794 0.785049
0.963725 0.289461 0.760049
0.031863 0.388848 0.706618
0.150337 0.403738 0.720144
0.267249 0.406281 0.724847
0.374893 0.416299 0.744792
0.500735 0.431005 0.772610
0.619930 0.442019 0.821339
0.776869 0.448284 0.831863
0.889063 0.446921 0.802466
0.969118 0.432721 0.774387
0.101961 0.562745 0.764216
0.213297 0.572733 0.777267
0.315686 0.574020 0.778922
0.429657 0.579044 0.788664
0.546324 0.591667 0.809069
0.666360 0.597304 0.835846
0.791544 0.590809 0.832353
0.903370 0.586458 0.819914
0.978431 0.567647 0.788235
0.186765 0.712377 0.805025
0.281801 0.719593 0.812469
0.369761 0.717525 0.811795
0.474510 0.719730 0.815196
0.583762 0.720098 0.819485
0.693888 0.721339 0.827757
0.804259 0.718658 0.831801
0.915809 0.714782 0.829044
0.994118 0.697549 0.797549
0.239706 0.833333 0.820343
0.328952 0.837592 0.827482
0.412990 0.836520 0.828860
0.510999 0.836979 0.832230
0.613971 0.838235 0.836520
0.713480 0.836213 0.837960
0.812561 0.833088 0.835294
0.931618 0.839737 0.837040
0.992892 0.846078 0.842157
0.293382 0.939583 0.824877
0.369179 0.943030 0.829182
0.448254 0.942279 0.832598
0.541008 0.943673 0.837837
0.635968 0.944853 0.841422
0.728064 0.947319 0.841789
0.814246 0.945466 0.830821
0.918015 0.944102 0.840303
0.985784 0.939828 0.853922
0.300980 0.980392 0.772549
0.382353 0.980392 0.780392
0.461765 0.980392 0.787990
0.554412 0.978554 0.796078
0.651961 0.980392 0.809314
0.765564 0.985784 0.835784
0.825245 0.988971 0.829167
0.909191 0.993137 0.851103
0.992157 0.992157 0.874510
0.123039 0.039706 0.747059
0.176471 0.042708 0.750551
0.261275 0.047426 0.760049
0.355576 0.057843 0.780882
0.468627 0.068873 0.805637
0.578922 0.088235 0.860600
0.706373 0.106005 0.916176
0.872120 0.118137 0.930453
0.957843 0.129902 0.853431
0.135907 0.075674 0.752941
0.184689 0.080354 0.758709
0.268091 0.090380 0.769118
0.362439 0.102252 0.787416
0.471599 0.113480 0.810263
0.580867 0.093244 0.862400
0.707506 0.106801 0.918689
0.869424 0.118130 0.927819
0.960172 0.129902 0.859865
0.116299 0.262623 0.782353
0.182858 0.268934 0.788771
0.270343 0.273866 0.799142
0.365349 0.285800 0.816192
0.478370 0.298101 0.838113
0.594026 0.311887 0.881863
0.715778 0.320190 0.930729
0.871569 0.298483 0.930775
0.960784 0.295711 0.868750
0.131924 0.414706 0.821752
0.212217 0.423575 0.831457
0.301777 0.429029 0.838051
0.397855 0.440617 0.855637
0.504412 0.454565 0.877604
0.624318 0.464706 0.904726
0.732031 0.461826 0.935478
0.878102 0.449142 0.929305
0.964400 0.440564 0.878309
0.189706 0.572794 0.871814
0.266605 0.580607 0.877911
0.343199 0.580576 0.879841
0.452941 0.593045 0.889461
0.536887 0.596814 0.903186
0.647641 0.597151 0.914461
0.760110 0.596017 0.934559
0.893382 0.589706 0.930423
0.972549 0.576471 0.888235
0.263542 0.710294 0.898039
0.322465 0.713212 0.900957
0.390656 0.713557 0.904412
0.473223 0.714514 0.905997
0.566360 0.715441 0.911428
0.670029 0.720106 0.923223
0.787362 0.720803 0.933456
0.905247 0.718160 0.935784
0.975490 0.707047 0.900184
0.304902 0.825490 0.914216
0.373330 0.828477 0.920956
0.442525 0.831955 0.921599
0.523606 0.829488 0.921262
0.613051 0.830208 0.921875
0.707966 0.831235 0.926072
0.807935 0.834406 0.932567
0.918321 0.836458 0.940211
0.982230 0.831740 0.916054
0.352022 0.942708 0.931924
0.420826 0.943459 0.935731
0.486075 0.945328 0.938465
0.565426 0.944593 0.938986
0.646354 0.942157 0.937347
0.730538 0.941973 0.937829
0.825368 0.944118 0.940196
0.928439 0.943627 0.943145
0.996998 0.951471 0.951471
0.428922 0.987745 0.895588
0.490686 0.987745 0.899510
0.548407 0.987255 0.903799
0.619424 0.986091 0.909130
0.694853 0.988235 0.915196
0.777635 0.988419 0.924510
0.881495 0.996078 0.943260
0.969669 0.999571 0.970098
1.000000 1.000000 0.989216
0.196078 0.058824 0.850980
0.226961 0.058824 0.854902
0.295098 0.065686 0.862745
0.375980 0.073039 0.874510
0.474510 0.084314 0.892157
0.584804 0.099510 0.919118
0.678431 0.115686 0.971569
0.814706 0.129902 1.000000
0.956863 0.137255 0.980392
0.192647 0.141176 0.853922
0.226409 0.146140 0.858272
0.292157 0.148529 0.865564
0.372733 0.158701 0.880086
0.474755 0.173775 0.899020
0.585784 0.176654 0.923529
0.679902 0.117279 0.972549
0.813603 0.129779 0.999939
0.955392 0.137255 0.981863
0.193137 0.292157 0.874510
0.229779 0.294118 0.876471
0.296324 0.299265 0.886520
0.375000 0.307353 0.898529
0.471569 0.313235 0.915686
0.584926 0.317647 0.936765
0.675245 0.316912 0.980392
0.812990 0.300490 1.000000
0.950000 0.281373 0.983333
0.232353 0.433824 0.903922
0.266973 0.437745 0.909314
0.322181 0.437745 0.913235
0.392647 0.439216 0.925919
0.476225 0.443873 0.938971
0.588726 0.447610 0.955392
0.681985 0.450245 0.991912
0.823039 0.441850 1.000000
0.953922 0.435784 0.984804
0.286275 0.570588 0.933333
0.331127 0.580392 0.937255
0.375000 0.576471 0.939216
0.434314 0.577206 0.947059
0.500000 0.576471 0.960784
0.596078 0.578431 0.974020
0.713235 0.576961 0.990686
0.843137 0.576471 1.000000
0.960784 0.574510 0.984314
0.279412 0.677451 0.949510
0.321569 0.680025 0.951961
0.382721 0.683456 0.955882
0.464277 0.691115 0.960723
0.560294 0.705882 0.970833
0.631863 0.705882 0.981863
0.753922 0.704412 0.988603
0.864706 0.702941 1.000000
0.973529 0.709314 0.990196
0.335294 0.791176 0.969608
0.374142 0.791667 0.969608
0.432843 0.795098 0.969853
0.509804 0.798652 0.973529
0.603922 0.804412 0.976471
0.704534 0.814706 0.981005
0.791912 0.822304 0.988971
0.894485 0.821569 0.997059
0.980392 0.829412 0.993137
0.417647 0.916176 0.984804
0.449510 0.916176 0.981373
0.506005 0.916176 0.983824
0.576164 0.916360 0.984804
0.657108 0.918627 0.986765
0.743934 0.921875 0.990012
0.842525 0.928431 0.989093
0.937684 0.944118 0.995650
0.989706 0.951961 0.995588
0.549020 0.992157 0.972549
0.576471 0.992647 0.976471
0.621569 0.996078 0.980392
0.679412 0.996078 0.980392
0.750980 0.996078 0.980392
0.835784 0.997549 0.988235
0.928431 0.997059 0.993137
0.996569 1.000000 1.000000
1.000000 1.000000 1.000000
