luts/SG8.cube
TITLE "sample14"
LUT_3D_SIZE 5
DOMAIN_MIN 0.0 0.0 0.0
DOMAIN_MAX 1.0 1.0 1.0
0.015686 0.015686 0.015686
0.297059 0.015686 0.015686
0.694118 0.027451 0.027451
0.944118 0.047059 0.047059
1.000000 0.254902 0.137255
0.000000 0.390196 0.038235
0.406127 0.392157 0.000000
0.815196 0.375000 0.000000
0.985539 0.359069 0.118137
1.000000 0.413725 0.183333
0.070588 0.696078 0.145098
0.345588 0.719608 0.135294
0.704902 0.699020 0.043137
0.971078 0.688726 0.100490
1.000000 0.690196 0.249020
0.210784 0.874510 0.270588
0.356127 0.882598 0.249020
0.596078 0.886765 0.277941
0.870588 0.889216 0.275735
0.999020 0.837255 0.023529
0.364706 0.960784 0.415686
0.429412 0.963725 0.403922
0.572549 0.966667 0.403922
0.783333 0.972549 0.486275
0.976471 0.960784 0.411765
0.035294 0.016667 0.211765
0.271569 0.019608 0.270588
0.636275 0.028922 0.295588
0.906127 0.043382 0.285294
1.000000 0.226471 0.306863
0.063971 0.375000 0.364706
0.379963 0.363480 0.363480
0.714583 0.346324 0.343015
0.947304 0.352145 0.339828
1.000000 0.391176 0.343873
0.188235 0.701961 0.382843
0.379657 0.712623 0.344118
0.712745 0.682843 0.317157
0.971446 0.702328 0.416544
1.000000 0.689706 0.436275
0.323284 0.882108 0.412500
0.428493 0.891973 0.384681
0.625000 0.887623 0.395956
0.881863 0.886029 0.422549
1.000000 0.840196 0.332108
0.415686 0.960784 0.488235
0.476716 0.963971 0.480637
0.595588 0.966176 0.468627
0.790441 0.972549 0.544118
0.976471 0.960784 0.500000
0.115686 0.021569 0.474510
0.292647 0.029412 0.522549
0.564706 0.048039 0.580392
0.839706 0.087255 0.574510
1.000000 0.070588 0.498039
0.117647 0.330392 0.560784
0.315441 0.334069 0.587990
0.608088 0.313235 0.620098
0.877819 0.346446 0.603676
1.000000 0.345588 0.530392
0.161765 0.674510 0.648039
0.415931 0.682108 0.665441
0.680882 0.665686 0.659804
0.919118 0.691422 0.680637
1.000000 0.670588 0.646078
0.416667 0.886275 0.660294
0.527819 0.889216 0.672794
0.675245 0.886520 0.654657
0.885662 0.887990 0.665196
1.000000 0.865686 0.624020
0.519608 0.964706 0.652941
0.566176 0.966667 0.653431
0.650980 0.968627 0.628431
0.813235 0.975000 0.689706
0.982353 0.968627 0.692157
0.184314 0.130392 0.688235
0.298039 0.098775 0.700735
0.513726 0.070588 0.776471
0.823284 0.105882 0.850980
0.980392 0.121569 0.744118
0.198775 0.330637 0.727941
0.314522 0.334620 0.748529
0.538480 0.339951 0.812377
0.837745 0.335600 0.866483
0.982598 0.372059 0.765931
0.309314 0.619608 0.800980
0.430025 0.633211 0.817279
0.620588 0.650000 0.853186
0.870711 0.647549 0.876593
0.988725 0.629902 0.800980
0.399755 0.880147 0.861765
0.511458 0.883517 0.868444
0.687868 0.886887 0.875490
0.881373 0.882108 0.875061
0.993137 0.902941 0.892157
0.534314 0.976471 0.805882
0.637990 0.980392 0.829412
0.796569 0.984314 0.870588
0.898775 0.988971 0.894853
0.997059 0.992157 0.929412
0.266667 0.258824 0.866667
0.335294 0.250980 0.874510
0.494118 0.225490 0.900000
0.694118 0.118627 0.982353
0.968627 0.137255 0.968627
0.294118 0.392157 0.891176
0.355882 0.389461 0.900000
0.500980 0.381863 0.925490
0.691667 0.362010 0.992402
0.966667 0.386275 0.972549
0.425490 0.635294 0.939216
0.481373 0.644608 0.945098
0.552941 0.630392 0.964706
0.751961 0.619118 0.992647
0.978431 0.633333 0.978431
0.482353 0.813726 0.964706
0.541667 0.817647 0.965686
0.682843 0.833333 0.971078
0.844118 0.858578 0.986029
0.994118 0.880392 0.991176
0.678431 0.996078 0.988235
0.724510 0.996078 0.992157
0.829412 0.996078 0.992157
0.958824 1.000000 0.997059
1.000000 1.000000 1.000000
