luts/SG8.cube
TITLE "sample14"
LUT_3D_SIZE 9
DOMAIN_MIN 0.0 0.0 0.0
DOMAIN_MAX 1.0 1.0 1.0
0.015686 0.015686 0.015686
0.127451 0.015686 0.015686
0.297059 0.015686 0.015686
0.467157 0.019608 0.019608
0.694118 0.027451 0.027451
0.849020 0.036765 0.039216
0.944118 0.047059 0.047059
1.000000 0.120588 0.054902
1.000000 0.254902 0.137255
0.011275 0.153922 0.012255
0.165748 0.162745 0.004902
0.363235 0.147917 0.011275
0.546078 0.119547 0.015993
0.732598 0.106127 0.025735
0.864890 0.107353 0.035294
0.956005 0.147059 0.043627
1.000000 0.226532 0.075858
1.000000 0.295588 0.140196
0.000000 0.390196 0.038235
0.180392 0.396078 0.035294
0.406127 0.392157 0.000000
0.647059 0.389706 0.000000
0.815196 0.375000 0.000000
0.914216 0.356740 0.058211
0.985539 0.359069 0.118137
1.000000 0.382475 0.157721
1.000000 0.413725 0.183333
0.053922 0.591176 0.104412
0.188358 0.614093 0.093505
0.377451 0.591176 0.105882
0.589154 0.575000 0.006434
0.782108 0.558824 0.000000
0.932353 0.561765 0.088235
1.000000 0.552574 0.187745
1.000000 0.554105 0.232843
1.000000 0.558333 0.239216
0.070588 0.696078 0.145098
0.190196 0.725735 0.149510
0.345588 0.719608 0.135294
0.516667 0.708578 0.167157
0.704902 0.699020 0.043137
0.853676 0.678431 0.000000
0.971078 0.688726 0.100490
1.000000 0.697794 0.231863
1.000000 0.690196 0.249020
0.092647 0.784804 0.200980
0.224203 0.802757 0.210110
0.335784 0.805515 0.193750
0.476961 0.806373 0.200980
0.631863 0.802941 0.239951
0.796078 0.801471 0.130760
0.919240 0.780025 0.000000
0.993137 0.773652 0.088358
1.000000 0.774510 0.119608
0.210784 0.874510 0.270588
0.274632 0.881373 0.268015
0.356127 0.882598 0.249020
0.474387 0.885294 0.255392
0.596078 0.886765 0.277941
0.732353 0.887255 0.329167
0.870588 0.889216 0.275735
0.966176 0.852328 0.121324
0.999020 0.837255 0.023529
0.342647 0.946078 0.396078
0.368137 0.943137 0.382353
0.421691 0.943995 0.365441
0.502145 0.950000 0.356679
0.598775 0.946814 0.369363
0.706495 0.950674 0.438051
0.821078 0.957843 0.454902
0.940748 0.961397 0.381005
0.984314 0.891176 0.243627
0.364706 0.960784 0.415686
0.388235 0.960784 0.416176
0.429412 0.963725 0.403922
0.493627 0.964706 0.396078
0.572549 0.966667 0.403922
0.664706 0.968627 0.427941
0.783333 0.972549 0.486275
0.891667 0.984314 0.474020
0.976471 0.960784 0.411765
0.019118 0.019608 0.088725
0.123958 0.015686 0.119608
0.281005 0.019240 0.138848
0.463725 0.021569 0.140196
0.657108 0.025490 0.154657
0.806066 0.035294 0.154596
0.916789 0.043260 0.155760
1.000000 0.055392 0.170588
1.000000 0.211275 0.194118
0.000919 0.156801 0.152083
0.165257 0.161014 0.160585
0.329887 0.161826 0.159574
0.521055 0.165196 0.170695
0.694118 0.142678 0.171140
0.827635 0.115173 0.167808
0.932521 0.126256 0.173407
0.998660 0.198476 0.186229
1.000000 0.271630 0.207353
0.072794 0.389093 0.211029
0.202865 0.390564 0.193505
0.409069 0.378033 0.173223
0.620328 0.378355 0.201072
0.776287 0.358640 0.205453
0.884283 0.338434 0.205836
0.966820 0.339154 0.213143
1.000000 0.357966 0.224571
1.000000 0.385784 0.241054
0.090074 0.587255 0.225980
0.216437 0.606265 0.206449
0.384926 0.575613 0.209176
0.592946 0.557292 0.165748
0.783915 0.546569 0.163879
0.920037 0.547174 0.231005
0.996324 0.538235 0.269608
1.000000 0.543850 0.295611
1.000000 0.544914 0.293934
0.110784 0.705882 0.231618
0.237745 0.733364 0.231893
0.368995 0.721385 0.208088
0.532200 0.702788 0.247151
0.712990 0.689338 0.167892
0.861366 0.669792 0.114216
0.976532 0.685294 0.240993
1.000000 0.695343 0.316422
1.000000 0.684069 0.318137
0.192341 0.796078 0.263235
0.284229 0.818444 0.275613
0.372549 0.815196 0.248039
0.500199 0.809758 0.251111
0.649663 0.800735 0.297794
0.809130 0.796500 0.204841
0.924632 0.775092 0.123284
0.997855 0.772036 0.229718
1.000000 0.771875 0.240686
0.271078 0.881373 0.316176
0.331327 0.890518 0.321768
0.396783 0.889063 0.298866
0.497733 0.888741 0.296094
0.612132 0.885784 0.320221
0.746155 0.883778 0.372748
0.881036 0.885938 0.317188
0.970328 0.850720 0.226654
1.000000 0.836275 0.186642
0.381434 0.944056 0.425919
0.412485 0.946622 0.424196
0.453156 0.948070 0.397580
0.525674 0.950467 0.392134
0.613419 0.950490 0.400950
0.720358 0.950651 0.468260
0.829580 0.957521 0.480193
0.943505 0.955277 0.404465
0.984314 0.890257 0.293199
0.392157 0.960784 0.442647
0.426961 0.961275 0.442708
0.456495 0.963725 0.430882
0.506863 0.964706 0.418811
0.586275 0.966667 0.426961
0.676287 0.966299 0.452574
0.784681 0.972549 0.502819
0.892096 0.980821 0.496140
0.976471 0.960784 0.438725
0.035294 0.016667 0.211765
0.143137 0.016667 0.239216
0.271569 0.019608 0.270588
0.435294 0.027451 0.298652
0.636275 0.028922 0.295588
0.790196 0.033456 0.278064
0.906127 0.043382 0.285294
0.997426 0.127696 0.295098
1.000000 0.226471 0.306863
0.042770 0.153922 0.266299
0.156250 0.155224 0.281250
0.312990 0.156250 0.316023
0.473100 0.161535 0.319654
0.664828 0.127880 0.302206
0.801271 0.123468 0.290717
0.918045 0.187990 0.303922
0.997672 0.227313 0.308042
1.000000 0.283333 0.317647
0.063971 0.375000 0.364706
0.213909 0.378615 0.370833
0.379963 0.363480 0.363480
0.554105 0.356801 0.353248
0.714583 0.346324 0.343015
0.843137 0.342004 0.335294
0.947304 0.352145 0.339828
1.000000 0.368689 0.341697
1.000000 0.391176 0.343873
0.097426 0.575980 0.388235
0.247457 0.590319 0.400506
0.385509 0.567647 0.359069
0.583640 0.547426 0.332904
0.771752 0.551409 0.368260
0.892708 0.550980 0.390977
0.978094 0.552145 0.408824
1.000000 0.550858 0.413281
1.000000 0.542157 0.396569
0.188235 0.701961 0.382843
0.289032 0.724081 0.392647
0.379657 0.712623 0.344118
0.529902 0.696078 0.370159
0.712745 0.682843 0.317157
0.864216 0.672794 0.294730
0.971446 0.702328 0.416544
1.000000 0.709007 0.461520
1.000000 0.689706 0.436275
0.254779 0.796569 0.383946
0.336229 0.816942 0.397534
0.404136 0.813358 0.363388
0.516176 0.807476 0.355515
0.653554 0.798039 0.406005
0.808578 0.793995 0.339936
0.928738 0.780208 0.301654
1.000000 0.781097 0.376961
1.000000 0.779902 0.377451
0.323284 0.882108 0.412500
0.381005 0.893229 0.421017
0.428493 0.891973 0.384681
0.516697 0.889828 0.375613
0.625000 0.887623 0.395956
0.753401 0.885723 0.464982
0.881863 0.886029 0.422549
0.972304 0.855392 0.352328
1.000000 0.840196 0.332108
0.411765 0.946691 0.489338
0.445542 0.947059 0.495328
0.479197 0.947855 0.470251
0.539537 0.950414 0.449418
0.623958 0.950490 0.458395
0.728661 0.952145 0.522855
0.833670 0.957292 0.539737
0.946569 0.958226 0.480392
0.984314 0.894118 0.391667
0.415686 0.960784 0.488235
0.449632 0.960907 0.489583
0.476716 0.963971 0.480637
0.520956 0.965809 0.460172
0.595588 0.966176 0.468627
0.687868 0.968627 0.499020
0.790441 0.972549 0.544118
0.894730 0.982966 0.542647
0.976471 0.960784 0.500000
0.075490 0.019608 0.339216
0.155208 0.019608 0.350490
0.274510 0.022426 0.402941
0.434314 0.029902 0.440074
0.575245 0.041176 0.443137
0.737806 0.053431 0.429473
0.903431 0.047672 0.412255
0.997855 0.055392 0.390012
1.000000 0.105392 0.388235
0.080392 0.157843 0.381066
0.169194 0.162822 0.404366
0.299020 0.155699 0.447426
0.454902 0.146576 0.460968
0.593536 0.124081 0.455882
0.748231 0.072863 0.434666
0.911412 0.102206 0.421308
0.996982 0.128906 0.398001
1.000000 0.273652 0.419914
0.106863 0.345098 0.461887
0.203002 0.347871 0.470282
0.332567 0.344638 0.489369
0.497641 0.334743 0.500720
0.644485 0.327083 0.485601
0.811841 0.311014 0.455025
0.931066 0.318566 0.443873
0.996906 0.370052 0.455101
1.000000 0.407843 0.459314
0.074449 0.543505 0.522059
0.223644 0.558502 0.541039
0.381602 0.546354 0.536213
0.551417 0.532008 0.527451
0.709252 0.524969 0.516360
0.833701 0.524939 0.512600
0.940426 0.541988 0.525475
0.998713 0.549203 0.525008
1.000000 0.537684 0.502819
0.125000 0.696814 0.520098
0.289308 0.716023 0.542739
0.425000 0.702145 0.536642
0.549510 0.688480 0.523039
0.703676 0.675858 0.490196
0.851716 0.688971 0.530147
0.954902 0.727022 0.601900
1.000000 0.724908 0.602757
1.000000 0.698775 0.565441
0.317586 0.797549 0.526409
0.404527 0.813542 0.554902
0.467601 0.808915 0.536535
0.550000 0.803110 0.510746
0.664461 0.792923 0.538511
0.805821 0.790625 0.496569
0.926945 0.788021 0.489001
1.000000 0.801585 0.551471
1.000000 0.795037 0.538235
0.401838 0.881373 0.552819
0.455316 0.891176 0.570757
0.493873 0.889216 0.546691
0.553968 0.889017 0.514936
0.649816 0.885600 0.525000
0.765196 0.883456 0.578171
0.884773 0.888695 0.548866
0.976333 0.863312 0.490993
1.000000 0.850490 0.468137
0.450306 0.946569 0.574020
0.483847 0.949732 0.579305
0.520941 0.950230 0.572335
0.570098 0.950973 0.550911
0.647304 0.952512 0.550980
0.739514 0.953416 0.588856
0.841422 0.958333 0.614308
0.950528 0.958532 0.576042
0.984314 0.901164 0.505086
0.455882 0.960784 0.557843
0.486949 0.962255 0.564400
0.509804 0.963725 0.552451
0.548529 0.964706 0.534865
0.612255 0.966667 0.531618
0.698897 0.966544 0.552390
0.796078 0.972549 0.605882
0.899326 0.980699 0.612561
0.980392 0.964706 0.587745
0.115686 0.021569 0.474510
0.182843 0.023529 0.495588
0.292647 0.029412 0.522549
0.409804 0.037255 0.582108
0.564706 0.048039 0.580392
0.703431 0.068137 0.572059
0.839706 0.087255 0.574510
0.964216 0.084314 0.536520
1.000000 0.070588 0.498039
0.117157 0.175245 0.517402
0.187224 0.174050 0.529412
0.299694 0.162010 0.548468
0.420864 0.127512 0.597886
0.577819 0.101838 0.589706
0.715533 0.069945 0.581373
0.844792 0.103248 0.579596
0.968107 0.171569 0.544363
1.000000 0.204412 0.509314
0.117647 0.330392 0.560784
0.208517 0.338297 0.573101
0.315441 0.334069 0.587990
0.443382 0.323529 0.626961
0.608088 0.313235 0.620098
0.745098 0.321814 0.613726
0.877819 0.346446 0.603676
0.991667 0.343444 0.566667
1.000000 0.345588 0.530392
0.165686 0.499510 0.607598
0.255699 0.511458 0.623223
0.369056 0.507047 0.622426
0.496048 0.508854 0.643352
0.650490 0.499877 0.652328
0.780331 0.506648 0.642463
0.919424 0.509743 0.625797
0.995956 0.502237 0.598958
1.000000 0.508824 0.580392
0.161765 0.674510 0.648039
0.291789 0.690319 0.669608
0.415931 0.682108 0.665441
0.547059 0.674020 0.663480
0.680882 0.665686 0.659804
0.811029 0.677941 0.670098
0.919118 0.691422 0.680637
0.992525 0.690809 0.674877
1.000000 0.670588 0.646078
0.290196 0.799510 0.649020
0.393627 0.813297 0.672702
0.480086 0.804841 0.671385
0.576501 0.797580 0.665441
0.678431 0.788848 0.662377
0.799510 0.787500 0.650153
0.924939 0.806556 0.679044
0.998928 0.828830 0.715012
1.000000 0.818627 0.702941
0.416667 0.886275 0.660294
0.469608 0.893137 0.673223
0.527819 0.889216 0.672794
0.596752 0.887561 0.666422
0.675245 0.886520 0.654657
0.773101 0.885110 0.681189
0.885662 0.887990 0.665196
0.979167 0.874203 0.632782
1.000000 0.865686 0.624020
0.479657 0.950490 0.665686
0.516697 0.952451 0.674295
0.556311 0.950919 0.671507
0.610968 0.953615 0.666023
0.673162 0.954534 0.652328
0.758058 0.958732 0.667708
0.852635 0.960723 0.702574
0.956403 0.962040 0.676287
0.984314 0.912990 0.637255
0.519608 0.964706 0.652941
0.547059 0.964706 0.659314
0.566176 0.966667 0.653431
0.601716 0.967402 0.640686
0.650980 0.968627 0.628431
0.729167 0.971324 0.650000
0.813235 0.975000 0.689706
0.905392 0.982598 0.701716
0.982353 0.968627 0.692157
0.154412 0.075000 0.596569
0.206556 0.055882 0.600490
0.291789 0.033456 0.612868
0.400429 0.043137 0.640135
0.517402 0.056863 0.702451
0.694547 0.075980 0.717157
0.830270 0.098039 0.702819
0.929105 0.109988 0.678125
0.986765 0.111275 0.633333
0.153431 0.188909 0.614583
0.206212 0.188343 0.623392
0.293627 0.179320 0.634314
0.404971 0.153179 0.653922
0.526808 0.103064 0.713235
0.702581 0.076294 0.722373
0.837086 0.099326 0.708563
0.929228 0.158892 0.682575
0.991850 0.245098 0.642157
0.168137 0.327574 0.646446
0.223591 0.330530 0.655025
0.309069 0.328401 0.666054
0.421860 0.321998 0.685233
0.547304 0.316422 0.742953
0.726471 0.322963 0.747932
0.854657 0.339553 0.733088
0.941513 0.364078 0.704412
0.997304 0.372917 0.653799
0.204044 0.477022 0.681924
0.267103 0.486765 0.694730
0.358915 0.486903 0.698683
0.463151 0.493283 0.721653
0.592923 0.495374 0.767402
0.757001 0.500858 0.768589
0.877451 0.515977 0.762546
0.959796 0.518612 0.730568
1.000000 0.489338 0.667770
0.270833 0.631863 0.723284
0.345680 0.644945 0.736366
0.429473 0.642402 0.734436
0.531832 0.645558 0.739430
0.644608 0.653554 0.765196
0.780882 0.660049 0.781618
0.891115 0.662929 0.776164
0.979013 0.644455 0.737592
1.000000 0.621569 0.695833
0.317463 0.783824 0.761703
0.391782 0.791108 0.771392
0.473269 0.787485 0.770818
0.571140 0.784865 0.773445
0.677451 0.784804 0.777451
0.789216 0.784544 0.779496
0.902252 0.796446 0.789292
0.982835 0.799012 0.787814
1.000000 0.792157 0.774939
0.382230 0.892157 0.765319
0.438986 0.896201 0.774142
0.505944 0.894730 0.774142
0.591376 0.891253 0.773468
0.689032 0.888909 0.774510
0.785723 0.887822 0.778799
0.885570 0.885570 0.772181
0.985463 0.892325 0.780821
1.000000 0.896691 0.791789
0.462929 0.957047 0.746569
0.506250 0.958333 0.756970
0.562469 0.958655 0.761014
0.638726 0.960424 0.772250
0.718719 0.960876 0.779167
0.784314 0.964346 0.769233
0.864660 0.964338 0.792831
0.962584 0.968382 0.780683
0.985784 0.932353 0.776471
0.546078 0.968627 0.730882
0.586275 0.971078 0.746569
0.639338 0.972549 0.761275
0.692157 0.974939 0.772978
0.731863 0.975245 0.768137
0.778431 0.975551 0.763297
0.843015 0.979289 0.780392
0.920282 0.985784 0.801961
0.988235 0.977941 0.812255
0.184314 0.130392 0.688235
0.222549 0.123039 0.691789
0.298039 0.098775 0.700735
0.399510 0.053799 0.720956
0.513726 0.070588 0.776471
0.650980 0.088725 0.845098
0.823284 0.105882 0.850980
0.925980 0.118995 0.794608
0.980392 0.121569 0.744118
0.185294 0.207843 0.700980
0.223483 0.209436 0.707521
0.296906 0.203094 0.716789
0.400812 0.193490 0.736964
0.518627 0.172059 0.786949
0.655821 0.130224 0.851241
0.826103 0.105882 0.854412
0.927512 0.121201 0.798162
0.981985 0.227083 0.752941
0.198775 0.330637 0.727941
0.240901 0.335539 0.736213
0.314522 0.334620 0.748529
0.412163 0.335447 0.769118
0.538480 0.339951 0.812377
0.671201 0.339675 0.868873
0.837745 0.335600 0.866483
0.937163 0.350460 0.814859
0.982598 0.372059 0.765931
0.221569 0.467279 0.762623
0.290579 0.485110 0.778447
0.366268 0.487653 0.785049
0.455622 0.496370 0.808946
0.579718 0.505637 0.838235
0.706373 0.506005 0.881756
0.857322 0.505852 0.876808
0.947105 0.506556 0.832537
0.988603 0.500490 0.783088
0.309314 0.619608 0.800980
0.365196 0.631556 0.814216
0.430025 0.633211 0.817279
0.517831 0.637561 0.827206
0.620588 0.650000 0.853186
0.746324 0.654902 0.882721
0.870711 0.647549 0.876593
0.958824 0.644792 0.849203
0.988725 0.629902 0.800980
0.366422 0.757966 0.838235
0.415977 0.762638 0.845450
0.477451 0.761397 0.843995
0.562944 0.761535 0.846201
0.657782 0.764338 0.850490
0.763327 0.770849 0.866590
0.877972 0.771538 0.877482
0.964583 0.769593 0.861841
0.996078 0.760784 0.823039
0.399755 0.880147 0.861765
0.450888 0.884344 0.868873
0.511458 0.883517 0.868444
0.593199 0.883946 0.871906
0.687868 0.886887 0.875490
0.783640 0.885018 0.876287
0.881373 0.882108 0.875061
0.978156 0.896936 0.889185
0.993137 0.902941 0.892157
0.455637 0.969608 0.851838
0.506924 0.969608 0.856143
0.564767 0.969087 0.858915
0.642555 0.970466 0.866713
0.727696 0.969853 0.872426
0.811275 0.972044 0.880392
0.882169 0.971140 0.878738
0.967525 0.970695 0.879519
0.993627 0.964093 0.908211
0.534314 0.976471 0.805882
0.581005 0.976961 0.818627
0.637990 0.980392 0.829412
0.711765 0.981373 0.845711
0.796569 0.984314 0.870588
0.871078 0.989216 0.901961
0.898775 0.988971 0.894853
0.947917 0.993137 0.905882
0.997059 0.992157 0.929412
0.232353 0.209314 0.798039
0.259314 0.209314 0.801471
0.321324 0.206740 0.813235
0.409988 0.198039 0.831373
0.519363 0.174510 0.854167
0.625797 0.100000 0.913419
0.764706 0.117770 0.958824
0.929963 0.129902 0.950000
0.972549 0.129902 0.848529
0.236826 0.264216 0.807843
0.263986 0.266069 0.813611
0.327757 0.265135 0.824341
0.411213 0.264154 0.841667
0.522518 0.253738 0.864001
0.627635 0.226892 0.917080
0.766176 0.183333 0.961275
0.927497 0.129458 0.950919
0.975184 0.215686 0.854596
0.256250 0.369608 0.832843
0.289354 0.374265 0.840564
0.348775 0.375613 0.849663
0.427114 0.380407 0.867341
0.535723 0.380086 0.888787
0.644593 0.373529 0.932889
0.777022 0.367157 0.967770
0.928753 0.347549 0.950980
0.977206 0.368750 0.867034
0.311458 0.502635 0.865870
0.349265 0.512523 0.873698
0.402543 0.514323 0.882093
0.469730 0.518926 0.897840
0.563480 0.521906 0.916513
0.673353 0.520657 0.947051
0.801838 0.511642 0.967831
0.935271 0.497511 0.950054
0.981250 0.500184 0.876348
0.371814 0.633824 0.895343
0.408088 0.643137 0.903156
0.453615 0.643382 0.905331
0.527206 0.651869 0.918536
0.590809 0.652941 0.936029
0.704504 0.647059 0.948529
0.821446 0.641176 0.965870
0.947549 0.632843 0.953891
0.986029 0.635049 0.889461
0.417157 0.751961 0.917463
0.449364 0.754879 0.919914
0.493719 0.755224 0.922794
0.560601 0.756985 0.924020
0.640043 0.759069 0.931801
0.731495 0.762255 0.945971
0.843444 0.764017 0.963971
0.957866 0.761298 0.959130
0.984314 0.767157 0.905576
0.452083 0.856740 0.933701
0.493306 0.862040 0.940074
0.542708 0.863021 0.940809
0.605790 0.860646 0.940273
0.682476 0.862806 0.941176
0.767678 0.865242 0.944654
0.862224 0.873284 0.955974
0.968045 0.876363 0.966192
0.989216 0.888235 0.933701
0.494730 0.965748 0.951042
0.540319 0.969179 0.954787
0.588082 0.969225 0.957889
0.652512 0.968061 0.958333
0.725092 0.968413 0.960325
0.800758 0.971607 0.962707
0.884513 0.971063 0.964292
0.970588 0.973537 0.969616
1.000000 0.980944 0.977941
0.612745 0.988235 0.910784
0.651471 0.988235 0.918627
0.696936 0.988603 0.922059
0.752267 0.990012 0.928248
0.815931 0.994363 0.938235
0.881556 0.996262 0.950184
0.950980 0.999632 0.972672
0.984865 0.999571 0.984804
1.000000 1.000000 0.996569
0.266667 0.258824 0.866667
0.289216 0.254902 0.866667
0.335294 0.250980 0.874510
0.400980 0.243137 0.886275
0.494118 0.225490 0.900000
0.600490 0.189216 0.928431
0.694118 0.118627 0.982353
0.846078 0.133333 1.000000
0.968627 0.137255 0.968627
0.272059 0.299510 0.870098
0.292218 0.296078 0.873591
0.335784 0.295098 0.878799
0.403125 0.289890 0.892341
0.494118 0.279412 0.907353
0.603431 0.261275 0.934007
0.690809 0.225245 0.985172
0.842034 0.201471 1.000000
0.969118 0.266176 0.974510
0.294118 0.392157 0.891176
0.313603 0.390686 0.892279
0.355882 0.389461 0.900000
0.414706 0.386275 0.910294
0.500980 0.381863 0.925490
0.606373 0.371446 0.948529
0.691667 0.362010 0.992402
0.845466 0.361765 1.000000
0.966667 0.386275 0.972549
0.364216 0.521569 0.917157
0.380208 0.521752 0.922549
0.408824 0.517647 0.926471
0.452390 0.515196 0.935784
0.517402 0.506127 0.946814
0.619547 0.497059 0.963787
0.711029 0.492770 0.997059
0.857353 0.491851 1.000000
0.971569 0.508333 0.974510
0.425490 0.635294 0.939216
0.456373 0.646814 0.943137
0.481373 0.644608 0.945098
0.511765 0.637990 0.952941
0.552941 0.630392 0.964706
0.639216 0.623529 0.977206
0.751961 0.619118 0.992647
0.878431 0.621569 1.000000
0.978431 0.633333 0.978431
0.435294 0.721569 0.949510
0.456679 0.724142 0.950490
0.497549 0.727941 0.954412
0.564154 0.739706 0.959804
0.644608 0.751471 0.969363
0.697059 0.745098 0.977941
0.797917 0.741912 0.988603
0.898346 0.747549 1.000000
0.988725 0.763235 0.983824
0.482353 0.813726 0.964706
0.502941 0.814093 0.963113
0.541667 0.817647 0.965686
0.602819 0.821569 0.966789
0.682843 0.833333 0.971078
0.776593 0.851103 0.977451
0.844118 0.858578 0.986029
0.924877 0.864706 0.997426
0.994118 0.880392 0.991176
0.556863 0.919608 0.984804
0.578431 0.916176 0.984804
0.614706 0.916176 0.983946
0.670282 0.920098 0.984804
0.738726 0.924020 0.984804
0.816483 0.932843 0.986091
0.896814 0.944485 0.988725
0.963664 0.965809 0.996078
0.996569 0.974020 0.996078
0.678431 0.996078 0.988235
0.694118 0.996078 0.988725
0.724510 0.996078 0.992157
0.771078 0.996078 0.992157
0.829412 0.996078 0.992157
0.897059 1.000000 0.996078
0.958824 1.000000 0.997059
0.996569 1.000000 1.000000
1.000000 1.000000 1.000000
