luts/SG8.cube
TITLE "sample14"
LUT_3D_SIZE 33
DOMAIN_MIN 0.0 0.0 0.0
DOMAIN_MAX 1.0 1.0 1.0
0.015686 0.015686 0.015686
0.023284 0.019485 0.019485
0.061029 0.019363 0.019363
0.096936 0.016054 0.016054
0.127451 0.015686 0.015686
0.165564 0.015686 0.015686
0.212010 0.015686 0.015686
0.257598 0.019608 0.019608
0.297059 0.015686 0.015686
0.342402 0.018505 0.018505
0.384804 0.015686 0.015686
0.427206 0.018260 0.018260
0.467157 0.019608 0.019608
0.520588 0.021936 0.021936
0.582353 0.023529 0.023529
0.638113 0.025613 0.025613
0.694118 0.027451 0.027451
0.744363 0.029289 0.033211
0.785049 0.031373 0.033088
0.818137 0.032966 0.035294
0.849020 0.036765 0.039216
0.874632 0.039216 0.039216
0.901716 0.044363 0.044363
0.924877 0.047059 0.047059
0.944118 0.047059 0.047059
0.967279 0.050980 0.050980
0.986520 0.051716 0.054902
1.000000 0.055515 0.055515
1.000000 0.120588 0.054902
1.000000 0.154044 0.055270
1.000000 0.177451 0.054902
1.000000 0.208578 0.056495
1.000000 0.254902 0.137255
0.008088 0.031005 0.015686
0.026965 0.038607 0.015690
0.072909 0.038963 0.015686
0.108100 0.035172 0.016042
0.138618 0.023759 0.015686
0.173303 0.019608 0.015809
0.212010 0.015709 0.015709
0.254412 0.019485 0.019485
0.293229 0.015778 0.015778
0.335750 0.018539 0.018539
0.374387 0.015771 0.015771
0.416912 0.018302 0.018302
0.459390 0.019608 0.019608
0.518260 0.019658 0.019658
0.576226 0.023529 0.023529
0.630392 0.023652 0.023652
0.686336 0.027390 0.027451
0.740506 0.029354 0.031430
0.779534 0.031373 0.031426
0.810489 0.033038 0.033038
0.845098 0.036719 0.036795
0.870833 0.039216 0.039296
0.899020 0.043053 0.044278
0.923686 0.046971 0.046971
0.944118 0.047089 0.047089
0.967253 0.050980 0.050980
0.986619 0.051815 0.054902
1.000000 0.061546 0.055025
1.000000 0.135646 0.055009
1.000000 0.161765 0.055258
1.000000 0.184934 0.054902
1.000000 0.212496 0.056250
1.000000 0.258824 0.137255
0.000245 0.065686 0.015686
0.034206 0.073169 0.015686
0.073269 0.076976 0.015456
0.104412 0.073652 0.015686
0.138756 0.065931 0.012010
0.177122 0.061106 0.015150
0.216468 0.043827 0.015732
0.258211 0.032001 0.019363
0.294240 0.016789 0.015870
0.335662 0.018574 0.018574
0.374265 0.015855 0.015855
0.416789 0.018344 0.018344
0.466268 0.019608 0.019608
0.524265 0.021791 0.021890
0.579902 0.023529 0.023529
0.634061 0.023775 0.025728
0.688113 0.027328 0.027451
0.736650 0.029419 0.031373
0.777206 0.031373 0.031373
0.810440 0.033111 0.033111
0.841176 0.036673 0.036673
0.868298 0.039216 0.039377
0.898775 0.042969 0.044194
0.923598 0.046883 0.046883
0.944118 0.047120 0.047120
0.967226 0.050980 0.051785
0.986719 0.051915 0.054902
1.000000 0.108157 0.054902
1.000000 0.150490 0.051685
1.000000 0.173039 0.054902
1.000000 0.188741 0.054902
1.000000 0.216414 0.056005
1.000000 0.262745 0.133333
0.003554 0.092647 0.015686
0.045600 0.100011 0.015686
0.072940 0.100268 0.015342
0.104412 0.104412 0.011765
0.139093 0.100980 0.011320
0.180695 0.100180 0.012132
0.223476 0.092716 0.011834
0.265851 0.088480 0.015606
0.304442 0.076563 0.012408
0.345692 0.067854 0.016054
0.385547 0.047817 0.015939
0.428929 0.026827 0.018386
0.480499 0.019608 0.019608
0.535022 0.021867 0.021867
0.587623 0.023529 0.023529
0.639583 0.023897 0.027451
0.689828 0.027267 0.027451
0.738603 0.029485 0.031373
0.777206 0.031373 0.031373
0.810294 0.033184 0.033184
0.841039 0.036627 0.036627
0.868379 0.039216 0.039457
0.901210 0.043995 0.044110
0.924877 0.046795 0.046795
0.947763 0.047151 0.047151
0.970343 0.052535 0.050980
0.989706 0.105722 0.051348
1.000000 0.145523 0.051348
1.000000 0.169363 0.051348
1.000000 0.188201 0.051681
1.000000 0.200345 0.054902
1.000000 0.223886 0.052428
1.000000 0.270221 0.129779
0.011275 0.153922 0.012255
0.049311 0.158226 0.012148
0.079902 0.155576 0.009038
0.120435 0.158824 0.007889
0.165748 0.162745 0.004902
0.211596 0.162868 0.007797
0.271109 0.159069 0.007935
0.320941 0.154779 0.008333
0.363235 0.147917 0.011275
0.399387 0.136887 0.008824
0.445067 0.131036 0.012255
0.497304 0.123897 0.013434
0.546078 0.119547 0.015993
0.595757 0.114537 0.017770
0.642678 0.110815 0.020098
0.687730 0.109804 0.022411
0.732598 0.106127 0.025735
0.776072 0.105254 0.027941
0.807384 0.104933 0.029442
0.836765 0.105316 0.033257
0.864890 0.107353 0.035294
0.888067 0.112454 0.036964
0.913634 0.119363 0.041728
0.936167 0.130852 0.043137
0.956005 0.147059 0.043627
0.975628 0.170941 0.044378
0.994363 0.191268 0.047457
0.999173 0.211520 0.065365
1.000000 0.226532 0.075858
1.000000 0.235539 0.085892
1.000000 0.248009 0.092586
1.000000 0.266513 0.113159
1.000000 0.295588 0.140196
0.000000 0.193015 0.008456
0.016402 0.207862 0.003941
0.062500 0.208701 0.000613
0.108211 0.205702 0.000613
0.154534 0.205270 0.000077
0.204262 0.208184 0.000613
0.258831 0.204902 0.000000
0.308946 0.200379 0.000479
0.364553 0.196477 0.003248
0.414315 0.193333 0.001225
0.468015 0.191368 0.004534
0.516176 0.187466 0.007843
0.564951 0.183946 0.010907
0.610781 0.181369 0.012377
0.657207 0.177551 0.014170
0.701758 0.175490 0.018057
0.744792 0.173836 0.018260
0.785581 0.173939 0.022266
0.818015 0.173629 0.025245
0.845339 0.173526 0.025486
0.872763 0.175720 0.030132
0.895780 0.177853 0.033123
0.920711 0.183946 0.035907
0.942770 0.192892 0.039656
0.962286 0.202359 0.039369
0.981629 0.217647 0.039828
1.000000 0.232966 0.049157
1.000000 0.248625 0.084532
1.000000 0.257476 0.093382
1.000000 0.265506 0.101471
1.000000 0.273162 0.109107
1.000000 0.289442 0.129308
1.000000 0.320956 0.160784
0.000000 0.235539 0.003922
0.000712 0.251003 0.000023
0.046814 0.251271 0.000000
0.097304 0.248338 0.000000
0.142892 0.247794 0.000000
0.192639 0.246806 0.000000
0.253079 0.253676 0.000000
0.310172 0.257024 0.000000
0.364890 0.253860 0.000000
0.429496 0.254412 0.000000
0.490181 0.255867 0.000000
0.542647 0.254289 0.000000
0.591422 0.251746 0.000460
0.637324 0.249318 0.001172
0.683425 0.247227 0.005070
0.723629 0.243015 0.006740
0.763235 0.237990 0.010539
0.800467 0.237990 0.012500
0.828922 0.237990 0.017402
0.856319 0.236098 0.018015
0.881648 0.237990 0.023529
0.906847 0.239821 0.026095
0.930622 0.242142 0.030377
0.951386 0.249962 0.032108
0.970037 0.255576 0.036275
0.989216 0.267195 0.065686
1.000000 0.278079 0.092647
1.000000 0.289821 0.115319
1.000000 0.295588 0.120098
1.000000 0.299456 0.121201
1.000000 0.307108 0.124311
1.000000 0.319753 0.140832
1.000000 0.350735 0.171814
0.000000 0.270221 0.006985
0.000000 0.288752 0.006059
0.038358 0.292088 0.003117
0.092402 0.292812 0.003841
0.141406 0.295956 0.003447
0.191311 0.296680 0.000479
0.252941 0.300574 0.000000
0.310784 0.304469 0.000000
0.367341 0.309589 0.000000
0.421205 0.302214 0.000000
0.491199 0.306763 0.000000
0.554412 0.307721 0.000000
0.611520 0.311320 0.000000
0.660558 0.308965 0.000000
0.704772 0.305139 0.000000
0.742034 0.302941 0.000000
0.779534 0.295956 0.001287
0.814128 0.293662 0.004779
0.840924 0.289453 0.006495
0.866667 0.286294 0.010294
0.892892 0.288113 0.016008
0.916617 0.288971 0.018455
0.939805 0.292302 0.024487
0.961891 0.297675 0.051107
0.977788 0.301930 0.084498
0.996266 0.309624 0.106748
1.000000 0.317279 0.119891
1.000000 0.325257 0.131618
1.000000 0.329902 0.132475
1.000000 0.330270 0.132763
1.000000 0.334069 0.132721
1.000000 0.349904 0.148556
1.000000 0.377819 0.179534
0.000000 0.390196 0.038235
0.034559 0.397886 0.035294
0.078983 0.396262 0.032537
0.130760 0.396967 0.033241
0.180392 0.396078 0.035294
0.226256 0.393137 0.034988
0.287990 0.392586 0.032904
0.345098 0.388879 0.004504
0.406127 0.392157 0.000000
0.462010 0.390319 0.000000
0.513358 0.380331 0.000000
0.581005 0.383303 0.000000
0.647059 0.389706 0.000000
0.703768 0.391176 0.000000
0.744914 0.387684 0.000000
0.781403 0.378830 0.000000
0.815196 0.375000 0.000000
0.846691 0.369148 0.000000
0.870282 0.364706 0.009804
0.892800 0.360172 0.036918
0.914216 0.356740 0.058211
0.934069 0.353860 0.076195
0.953431 0.353922 0.087194
0.969853 0.354902 0.103186
0.985539 0.359069 0.118137
0.996722 0.363603 0.132108
1.000000 0.368382 0.142892
1.000000 0.377972 0.153094
1.000000 0.382475 0.157721
1.000000 0.383701 0.159804
1.000000 0.387500 0.159988
1.000000 0.396415 0.166973
1.000000 0.413725 0.183333
0.000000 0.424755 0.055515
0.000000 0.474912 0.064338
0.007353 0.487431 0.060960
0.098181 0.483843 0.056618
0.161275 0.475613 0.052083
0.215491 0.465196 0.051325
0.274387 0.460049 0.055882
0.329293 0.450004 0.053791
0.390441 0.446446 0.022947
0.447361 0.442647 0.000000
0.505369 0.440441 0.000000
0.553554 0.430025 0.000000
0.619317 0.429412 0.000000
0.687458 0.436477 0.000000
0.745205 0.439691 0.000000
0.787404 0.438358 0.000000
0.827451 0.433456 0.000000
0.859314 0.428159 0.000000
0.885915 0.424272 0.022940
0.906292 0.418137 0.064706
0.927742 0.411520 0.090242
0.945722 0.406618 0.108222
0.962891 0.403922 0.121469
0.979910 0.403562 0.134566
0.994118 0.406250 0.143873
1.000000 0.410788 0.156131
1.000000 0.414828 0.164867
1.000000 0.421006 0.177256
1.000000 0.424893 0.181281
1.000000 0.425858 0.185926
1.000000 0.427137 0.186206
1.000000 0.434069 0.194240
1.000000 0.454412 0.213480
0.000000 0.457843 0.068137
0.000000 0.514622 0.080882
0.011029 0.528355 0.077374
0.098284 0.527206 0.072426
0.156863 0.518781 0.064706
0.209314 0.508211 0.061941
0.268857 0.500260 0.068122
0.317747 0.489438 0.073016
0.374755 0.485049 0.075919
0.432721 0.480905 0.038067
0.490303 0.479764 0.000000
0.546117 0.478539 0.000000
0.598315 0.471875 0.000000
0.659926 0.471806 0.000000
0.725337 0.480484 0.000000
0.781664 0.483418 0.000000
0.826103 0.481495 0.000000
0.861680 0.479779 0.000000
0.888680 0.474464 0.045542
0.911765 0.468987 0.081985
0.931587 0.461765 0.103676
0.950490 0.456740 0.120887
0.966774 0.453784 0.136872
0.985294 0.453408 0.150712
1.000000 0.452145 0.163235
1.000000 0.455982 0.174242
1.000000 0.459544 0.183333
1.000000 0.463235 0.195902
1.000000 0.463388 0.200398
1.000000 0.464461 0.201471
1.000000 0.464461 0.201471
1.000000 0.469937 0.205760
1.000000 0.489216 0.226225
0.000000 0.491299 0.077083
0.000000 0.549307 0.092525
0.008617 0.566828 0.089009
0.094363 0.565935 0.085168
0.156005 0.557598 0.076716
0.207475 0.549598 0.073162
0.265441 0.544853 0.073522
0.312500 0.535562 0.080932
0.367034 0.532077 0.091789
0.421802 0.527072 0.091468
0.481740 0.525245 0.046714
0.539162 0.525245 0.000885
0.597549 0.526210 0.000000
0.643267 0.518693 0.000000
0.697549 0.514461 0.000000
0.757230 0.518892 0.000000
0.809926 0.521385 0.000000
0.853186 0.522040 0.000000
0.886052 0.519608 0.018045
0.911462 0.515809 0.075008
0.933824 0.511167 0.106373
0.954753 0.505978 0.127302
0.974579 0.501294 0.147128
0.992291 0.501716 0.163492
1.000000 0.501716 0.176746
1.000000 0.505342 0.192892
1.000000 0.503064 0.203309
1.000000 0.505235 0.212990
1.000000 0.505316 0.215901
1.000000 0.502696 0.216912
1.000000 0.500406 0.214499
1.000000 0.504737 0.221201
1.000000 0.520098 0.237868
0.053922 0.591176 0.104412
0.073300 0.612914 0.110202
0.094669 0.618107 0.105545
0.139997 0.618137 0.097917
0.188358 0.614093 0.093505
0.234819 0.607966 0.090916
0.285968 0.603891 0.090686
0.329871 0.596124 0.090901
0.377451 0.591176 0.105882
0.430224 0.586688 0.115977
0.482904 0.581679 0.112623
0.536642 0.577451 0.061489
0.589154 0.575000 0.006434
0.637500 0.571078 0.000000
0.682690 0.562347 0.000000
0.727175 0.554779 0.000000
0.782108 0.558824 0.000000
0.832889 0.561933 0.000000
0.872580 0.564308 0.000000
0.906265 0.563634 0.027926
0.932353 0.561765 0.088235
0.954305 0.558609 0.124494
0.973836 0.556618 0.151256
0.991422 0.554335 0.170542
1.000000 0.552574 0.187745
1.000000 0.552620 0.202865
1.000000 0.555392 0.218873
1.000000 0.555545 0.230285
1.000000 0.554105 0.232843
1.000000 0.555392 0.240196
1.000000 0.554412 0.241667
1.000000 0.556909 0.243137
1.000000 0.558333 0.239216
0.000000 0.607721 0.113725
0.000000 0.663480 0.139288
0.021255 0.681150 0.145833
0.102642 0.679385 0.136029
0.155760 0.670512 0.123284
0.203554 0.660907 0.109187
0.259490 0.653485 0.102397
0.308004 0.643647 0.098549
0.354902 0.633824 0.102114
0.403309 0.626103 0.113848
0.455752 0.619976 0.124265
0.509069 0.614583 0.123637
0.563113 0.609314 0.078845
0.615774 0.607931 0.008513
0.665074 0.603186 0.000000
0.707721 0.597794 0.000000
0.754963 0.590870 0.000000
0.802807 0.591544 0.000000
0.848935 0.596936 0.000000
0.889147 0.599441 0.000000
0.921921 0.599142 0.030162
0.948407 0.596749 0.094550
0.970343 0.597549 0.137492
0.988768 0.597549 0.168382
1.000000 0.596354 0.193352
1.000000 0.597710 0.217911
1.000000 0.598583 0.235172
1.000000 0.599877 0.250000
1.000000 0.598943 0.257521
1.000000 0.597549 0.261301
1.000000 0.593627 0.261006
1.000000 0.593677 0.257280
1.000000 0.595221 0.258824
0.000000 0.634069 0.123775
0.000000 0.684383 0.149142
0.042969 0.702099 0.155040
0.110830 0.698897 0.147672
0.156127 0.693382 0.132384
0.200245 0.681740 0.122672
0.252206 0.675735 0.112745
0.298529 0.668122 0.108571
0.343137 0.662439 0.109314
0.389461 0.655270 0.117034
0.440732 0.652650 0.129167
0.490908 0.646913 0.136987
0.543536 0.642402 0.134835
0.598813 0.640196 0.087347
0.648039 0.639231 0.011581
0.696308 0.637309 0.000000
0.740931 0.629779 0.000000
0.778500 0.618873 0.000000
0.821078 0.619133 0.000000
0.862086 0.621890 0.000000
0.898775 0.624510 0.000000
0.931518 0.625636 0.027405
0.959513 0.626226 0.099173
0.979427 0.629052 0.146331
0.995404 0.629412 0.182169
1.000000 0.632835 0.212132
1.000000 0.634972 0.234972
1.000000 0.636275 0.252206
1.000000 0.633854 0.261091
1.000000 0.629779 0.266667
1.000000 0.624265 0.262745
1.000000 0.622848 0.263220
1.000000 0.626226 0.262745
0.000000 0.661152 0.131495
0.000000 0.705457 0.158521
0.065954 0.719730 0.162998
0.121274 0.718065 0.159314
0.160447 0.712623 0.146094
0.202328 0.704902 0.134191
0.251226 0.701103 0.126815
0.295186 0.696902 0.121814
0.341299 0.692770 0.119975
0.385539 0.688848 0.124632
0.431694 0.685501 0.136887
0.481392 0.681637 0.147832
0.531419 0.677083 0.155637
0.583444 0.673763 0.151651
0.632598 0.671990 0.099839
0.679898 0.669972 0.015625
0.727206 0.665196 0.000000
0.766054 0.655637 0.000000
0.799579 0.646638 0.000000
0.835026 0.642390 0.000000
0.874142 0.645466 0.000000
0.910313 0.649387 0.000000
0.943176 0.653309 0.029297
0.968356 0.657816 0.109356
0.988572 0.659773 0.158333
1.000000 0.661608 0.196779
1.000000 0.665464 0.222917
1.000000 0.667157 0.244118
1.000000 0.664583 0.253324
1.000000 0.657230 0.258946
1.000000 0.651471 0.260792
1.000000 0.651528 0.262803
1.000000 0.653309 0.262500
0.070588 0.696078 0.145098
0.076471 0.717402 0.158640
0.129902 0.727206 0.162623
0.161458 0.729412 0.157230
0.190196 0.725735 0.149510
0.224387 0.725184 0.143444
0.266912 0.723897 0.139583
0.305515 0.721998 0.137255
0.345588 0.719608 0.135294
0.386642 0.717647 0.133885
0.427941 0.717647 0.144608
0.470343 0.712439 0.154841
0.516667 0.708578 0.167157
0.564154 0.706679 0.173713
0.611275 0.703922 0.167892
0.658517 0.700919 0.122426
0.704902 0.699020 0.043137
0.750368 0.695159 0.000000
0.789216 0.690441 0.000000
0.820098 0.682721 0.000000
0.853676 0.678431 0.000000
0.886458 0.678431 0.000000
0.920588 0.681618 0.000000
0.948958 0.685417 0.013235
0.971078 0.688726 0.100490
0.991483 0.692157 0.154841
1.000000 0.694118 0.189216
1.000000 0.696078 0.217218
1.000000 0.697794 0.231863
1.000000 0.694118 0.239583
1.000000 0.690196 0.245221
1.000000 0.688235 0.247120
1.000000 0.690196 0.249020
0.000000 0.717157 0.164461
0.003562 0.748399 0.187680
0.081219 0.760409 0.195588
0.129144 0.760712 0.190418
0.162240 0.755025 0.178814
0.198775 0.752696 0.168995
0.237377 0.749119 0.154167
0.278064 0.747147 0.149632
0.320129 0.743290 0.146936
0.362010 0.740931 0.146350
0.403148 0.740280 0.146285
0.444485 0.737010 0.150245
0.489461 0.733778 0.168306
0.536631 0.731851 0.179890
0.585225 0.731916 0.188358
0.632483 0.730028 0.188722
0.683640 0.730086 0.145833
0.731005 0.731005 0.062400
0.773637 0.729029 0.001034
0.812523 0.724644 0.000000
0.844562 0.716988 0.000000
0.872304 0.710681 0.000000
0.901922 0.707476 0.000000
0.933552 0.711983 0.000000
0.958211 0.714461 0.030637
0.980725 0.719294 0.117191
0.998506 0.721324 0.165196
1.000000 0.723081 0.201922
1.000000 0.722932 0.218505
1.000000 0.719462 0.224364
1.000000 0.719125 0.231633
1.000000 0.715319 0.233766
1.000000 0.717402 0.235784
0.000000 0.742402 0.179902
0.051762 0.769960 0.201402
0.115058 0.779657 0.207246
0.150774 0.779902 0.202244
0.176440 0.772549 0.192157
0.207108 0.770343 0.182721
0.241912 0.764951 0.169608
0.278439 0.764591 0.161527
0.316667 0.761581 0.159865
0.358571 0.758088 0.159674
0.397105 0.758088 0.159605
0.436397 0.758088 0.160294
0.477849 0.756710 0.172794
0.522955 0.756082 0.188680
0.570588 0.756097 0.200965
0.614966 0.754971 0.205407
0.663235 0.751103 0.201838
0.710731 0.753133 0.157368
0.751210 0.752175 0.079718
0.792770 0.749349 0.007131
0.828002 0.744669 0.000000
0.860026 0.737722 0.000000
0.886719 0.732353 0.000000
0.916422 0.731258 0.000000
0.944179 0.733395 0.000000
0.965188 0.735041 0.038381
0.986275 0.737178 0.114384
1.000000 0.740074 0.162033
1.000000 0.738266 0.184773
1.000000 0.736558 0.197587
1.000000 0.736657 0.208824
1.000000 0.732966 0.206495
1.000000 0.736765 0.203186
0.000000 0.761642 0.191422
0.094857 0.787182 0.213040
0.140663 0.795098 0.218773
0.168382 0.795493 0.215319
0.189951 0.789384 0.203676
0.218750 0.787500 0.195707
0.253117 0.783877 0.188235
0.284785 0.783927 0.180515
0.318260 0.782445 0.173989
0.360129 0.782843 0.176225
0.398660 0.782843 0.176601
0.436397 0.781250 0.178856
0.475000 0.781847 0.183578
0.515284 0.781250 0.197760
0.557759 0.781250 0.212538
0.601371 0.779312 0.220110
0.645037 0.775368 0.220833
0.691433 0.773407 0.216245
0.731901 0.772710 0.169240
0.772461 0.772461 0.096496
0.811137 0.768612 0.012944
0.846691 0.764763 0.000000
0.878914 0.759314 0.000000
0.904779 0.754944 0.000000
0.929167 0.753401 0.000000
0.949652 0.753451 0.000509
0.971569 0.752642 0.040411
0.993505 0.754171 0.112868
1.000000 0.753600 0.140931
1.000000 0.751988 0.161914
1.000000 0.752106 0.174854
1.000000 0.748284 0.177891
1.000000 0.752206 0.172426
0.092647 0.784804 0.200980
0.159528 0.797855 0.214032
0.184589 0.804259 0.217984
0.207138 0.805882 0.215916
0.224203 0.802757 0.210110
0.249249 0.805162 0.206526
0.277237 0.803401 0.200460
0.306373 0.804948 0.195634
0.335784 0.805515 0.193750
0.370879 0.805882 0.193428
0.408058 0.809038 0.197273
0.442157 0.807353 0.197197
0.476961 0.806373 0.200980
0.511765 0.807368 0.208686
0.551226 0.807016 0.223529
0.591912 0.804703 0.235218
0.631863 0.802941 0.239951
0.675567 0.803631 0.242157
0.716667 0.801563 0.234988
0.757476 0.801945 0.195803
0.796078 0.801471 0.130760
0.833333 0.797672 0.047381
0.864216 0.790717 0.018474
0.894684 0.785371 0.000000
0.919240 0.780025 0.000000
0.934605 0.775000 0.000000
0.956342 0.774724 0.006618
0.977696 0.775368 0.036014
0.993137 0.773652 0.088358
1.000000 0.774280 0.110034
1.000000 0.771967 0.117555
1.000000 0.770588 0.129825
1.000000 0.774510 0.119608
0.057966 0.813235 0.231495
0.131334 0.827451 0.243137
0.165280 0.831495 0.245833
0.191303 0.834069 0.244853
0.213159 0.830316 0.238480
0.236887 0.828711 0.230358
0.265326 0.828056 0.221944
0.294903 0.830147 0.217892
0.329075 0.830147 0.213756
0.359915 0.830147 0.209191
0.397794 0.830147 0.210539
0.434164 0.831836 0.213113
0.470236 0.832261 0.216069
0.506805 0.834069 0.223284
0.543605 0.834658 0.233042
0.586275 0.836152 0.251225
0.628676 0.837990 0.264706
0.668524 0.837274 0.269853
0.707943 0.836275 0.269462
0.747974 0.836397 0.269347
0.786152 0.834069 0.235907
0.822304 0.834069 0.183892
0.855760 0.828922 0.110608
0.886642 0.821580 0.035616
0.913971 0.812561 0.002022
0.934264 0.806055 0.000000
0.952581 0.802214 0.000965
0.972216 0.798775 0.041491
0.985126 0.795711 0.082353
0.998778 0.792153 0.100731
1.000000 0.790847 0.097541
1.000000 0.790931 0.089377
1.000000 0.790931 0.061765
0.114461 0.836275 0.245588
0.164989 0.846691 0.257230
0.193781 0.849510 0.260049
0.213480 0.852321 0.256495
0.228922 0.849510 0.248928
0.248897 0.846622 0.242088
0.273759 0.843398 0.233333
0.300613 0.845588 0.225613
0.330331 0.845588 0.222426
0.363113 0.845588 0.220833
0.398177 0.846814 0.222059
0.432475 0.848162 0.223828
0.469301 0.849969 0.227665
0.502934 0.849510 0.231005
0.537010 0.850046 0.239262
0.571408 0.851593 0.251225
0.613235 0.851471 0.266667
0.649877 0.850084 0.273652
0.686765 0.851026 0.277252
0.723162 0.849510 0.277328
0.761305 0.848039 0.276072
0.798215 0.846392 0.248897
0.835677 0.847442 0.199295
0.868627 0.842892 0.137278
0.897181 0.835662 0.082169
0.925291 0.827305 0.037699
0.945573 0.822779 0.019623
0.964706 0.819171 0.033793
0.977298 0.813879 0.051042
0.991299 0.809926 0.045489
1.000000 0.803600 0.012638
1.000000 0.805063 0.000000
1.000000 0.803676 0.000000
0.154534 0.858211 0.258211
0.187167 0.863794 0.267682
0.209490 0.863917 0.267770
0.227819 0.864216 0.264216
0.240441 0.861520 0.256633
0.260294 0.859141 0.249437
0.282560 0.858739 0.242157
0.308333 0.861029 0.235053
0.334712 0.861857 0.230637
0.365319 0.861029 0.229657
0.399242 0.862132 0.232698
0.432475 0.863982 0.235049
0.466881 0.864951 0.236811
0.498855 0.864951 0.237500
0.529772 0.865434 0.243758
0.561669 0.866448 0.253064
0.598346 0.864951 0.266115
0.634953 0.864365 0.275368
0.670090 0.863718 0.282705
0.704902 0.862132 0.285007
0.741345 0.862132 0.293505
0.780036 0.863101 0.294899
0.817624 0.864951 0.269830
0.853496 0.866054 0.231380
0.884896 0.859743 0.181311
0.914334 0.853431 0.145715
0.940119 0.845182 0.109314
0.960907 0.838258 0.085022
0.973039 0.830270 0.062745
0.984681 0.826471 0.000000
0.992402 0.818926 0.000000
1.000000 0.817892 0.000000
1.000000 0.817892 0.000000
0.210784 0.874510 0.270588
0.234988 0.881342 0.276379
0.246752 0.880453 0.276471
0.260509 0.881556 0.273805
0.274632 0.881373 0.268015
0.288143 0.878431 0.261244
0.310294 0.878431 0.258395
0.332384 0.880055 0.253248
0.356127 0.882598 0.249020
0.381863 0.883058 0.246783
0.412071 0.884314 0.249755
0.442647 0.884957 0.254534
0.474387 0.885294 0.255392
0.502451 0.885876 0.257445
0.531679 0.886275 0.257843
0.561857 0.885815 0.265931
0.596078 0.886765 0.277941
0.630760 0.885172 0.292831
0.665380 0.884988 0.311397
0.697549 0.886275 0.317678
0.732353 0.887255 0.329167
0.767188 0.887255 0.334007
0.803554 0.889216 0.330944
0.836887 0.889216 0.310846
0.870588 0.889216 0.275735
0.899081 0.882904 0.232200
0.926348 0.875980 0.193995
0.950858 0.861458 0.150797
0.966176 0.852328 0.121324
0.977819 0.847672 0.081863
0.985478 0.842953 0.034926
0.995098 0.839216 0.022549
0.999020 0.837255 0.023529
0.235662 0.903676 0.320221
0.261792 0.907475 0.327845
0.276838 0.910662 0.330377
0.285336 0.907598 0.320588
0.293137 0.904917 0.312975
0.306507 0.903676 0.304423
0.325000 0.906166 0.295994
0.344428 0.903676 0.289706
0.368168 0.904657 0.285907
0.390568 0.907357 0.278190
0.417080 0.907598 0.273552
0.448457 0.909609 0.277941
0.480070 0.911198 0.282889
0.510926 0.911171 0.285191
0.541299 0.913243 0.288856
0.571779 0.914775 0.293907
0.605025 0.915441 0.309375
0.638848 0.916422 0.343294
0.673154 0.916299 0.367655
0.705760 0.917647 0.386642
0.735585 0.916590 0.394485
0.765024 0.917452 0.395883
0.795343 0.917547 0.390832
0.828428 0.917643 0.379282
0.861029 0.918505 0.361275
0.891912 0.916111 0.331985
0.919570 0.911642 0.293957
0.945600 0.896324 0.250858
0.964828 0.883839 0.215594
0.976838 0.871936 0.186355
0.984505 0.864216 0.159069
0.988331 0.860635 0.118723
0.992157 0.860539 0.117157
0.273529 0.918382 0.347304
0.292770 0.919095 0.351103
0.303232 0.922350 0.350536
0.307721 0.919118 0.343015
0.315441 0.919118 0.332506
0.325850 0.917885 0.323767
0.341176 0.918980 0.315334
0.359681 0.919118 0.308088
0.379350 0.919914 0.301471
0.401348 0.921408 0.293666
0.422779 0.921538 0.283318
0.450245 0.921944 0.286397
0.480852 0.923039 0.290196
0.508088 0.923476 0.293696
0.538557 0.925567 0.295588
0.566889 0.925123 0.297281
0.594485 0.926961 0.305392
0.628454 0.926570 0.337500
0.661029 0.926225 0.366988
0.691912 0.926225 0.388971
0.722794 0.926961 0.405147
0.752581 0.926961 0.410784
0.780637 0.926961 0.409053
0.813810 0.930354 0.404335
0.845588 0.933272 0.396262
0.877045 0.932154 0.375084
0.910080 0.934804 0.351225
0.935057 0.922664 0.308701
