luts/SG9.cube
TITLE "sample11"
LUT_3D_SIZE 9
DOMAIN_MIN 0.0 0.0 0.0
DOMAIN_MAX 1.0 1.0 1.0
0.015686 0.015686 0.015686
0.150490 0.015686 0.015686
0.289216 0.015686 0.015686
0.429412 0.019608 0.019608
0.600000 0.023529 0.023529
0.748529 0.031373 0.032843
0.858824 0.036275 0.039216
0.958333 0.047549 0.047549
1.000000 0.058824 0.058824
0.000000 0.152451 0.007843
0.149081 0.149449 0.007904
0.310294 0.125858 0.012132
0.459007 0.096630 0.014706
0.609804 0.052696 0.021814
0.752451 0.031189 0.031373
0.859436 0.038848 0.038848
0.959314 0.047488 0.050980
1.000000 0.154412 0.055392
0.000000 0.315686 0.000000
0.107721 0.317647 0.000000
0.308088 0.308578 0.000000
0.490809 0.293873 0.000000
0.645588 0.278431 0.000490
0.774142 0.262623 0.008824
0.878431 0.255147 0.029412
0.972549 0.267647 0.052574
1.000000 0.300980 0.037255
0.000000 0.471078 0.000000
0.015012 0.481066 0.000000
0.257843 0.471569 0.000000
0.450000 0.450980 0.000000
0.621324 0.434804 0.000000
0.794179 0.439216 0.023284
0.898039 0.430025 0.084191
0.983517 0.427635 0.108824
1.000000 0.441176 0.091176
0.000000 0.601961 0.000000
0.000000 0.613971 0.000000
0.198529 0.609804 0.000000
0.391176 0.601961 0.000000
0.577451 0.584314 0.000000
0.723039 0.562745 0.000000
0.876961 0.575490 0.020098
0.985294 0.590196 0.114461
1.000000 0.600000 0.156863
0.000000 0.706373 0.000000
0.000000 0.716667 0.000000
0.136887 0.719240 0.000000
0.338297 0.717708 0.000000
0.513480 0.711029 0.000000
0.680944 0.700490 0.000000
0.817157 0.688358 0.000000
0.942647 0.699020 0.000000
1.000000 0.716667 0.083824
0.000000 0.817647 0.000000
0.000000 0.821569 0.000000
0.078922 0.822549 0.000000
0.306740 0.821201 0.000000
0.470588 0.822549 0.000000
0.629902 0.821569 0.000000
0.784804 0.814216 0.000735
0.913725 0.800735 0.000000
0.988235 0.798039 0.000000
0.000000 0.925980 0.017157
0.000000 0.923039 0.000000
0.067892 0.923897 0.000000
0.298897 0.926777 0.000000
0.454902 0.923529 0.000000
0.595895 0.927451 0.000000
0.746569 0.926103 0.102328
0.886213 0.923468 0.101900
0.976471 0.884314 0.000000
0.000000 0.980392 0.000000
0.000000 0.980392 0.000000
0.164706 0.983333 0.000000
0.327451 0.984314 0.000000
0.462745 0.986275 0.000000
0.586275 0.988235 0.000000
0.713726 0.988235 0.043137
0.849020 0.992157 0.145098
0.968627 0.984314 0.066667
0.019608 0.019118 0.139706
0.147488 0.015686 0.143995
0.271078 0.019240 0.138971
0.422549 0.019424 0.133824
0.580882 0.023284 0.143382
0.728922 0.031066 0.147059
0.847059 0.036275 0.144485
0.954412 0.047978 0.147059
1.000000 0.058824 0.138725
0.006863 0.141115 0.144179
0.148323 0.140311 0.145098
0.287531 0.135478 0.143750
0.445404 0.131824 0.148836
0.594148 0.101808 0.150980
0.733494 0.029488 0.151325
0.851900 0.038741 0.154121
0.958287 0.050444 0.155507
1.000000 0.099571 0.151287
0.005147 0.303922 0.162010
0.135248 0.305882 0.146032
0.312347 0.295343 0.143505
0.481250 0.287393 0.156725
0.627451 0.273468 0.161703
0.758287 0.254871 0.161765
0.868168 0.246017 0.167065
0.967172 0.251425 0.171262
1.000000 0.278554 0.166054
0.000000 0.459620 0.154902
0.080798 0.467295 0.134804
0.268704 0.454458 0.124265
0.458532 0.436213 0.132590
0.627543 0.424755 0.140104
0.785792 0.424694 0.170328
0.895175 0.417341 0.188542
0.985623 0.416690 0.197059
1.000000 0.430882 0.192770
0.000000 0.597794 0.138725
0.007935 0.609589 0.125276
0.227022 0.604596 0.089277
0.408180 0.591176 0.119118
0.588113 0.573407 0.121078
0.736612 0.553033 0.115380
0.886275 0.569792 0.167647
0.985754 0.582353 0.210509
1.000000 0.591912 0.233824
0.000000 0.709314 0.134804
0.000000 0.719263 0.127229
0.183701 0.717157 0.079274
0.359934 0.713366 0.058027
0.529749 0.703585 0.124755
0.692463 0.691483 0.115012
0.825322 0.677941 0.070420
0.951693 0.698101 0.143099
1.000000 0.711275 0.207843
0.000000 0.816667 0.127941
0.000000 0.819562 0.116621
0.154289 0.818015 0.075092
0.330331 0.820236 0.023453
0.483762 0.819056 0.027574
0.643459 0.815150 0.127757
0.797396 0.809559 0.120650
0.918980 0.795634 0.074831
0.993137 0.796691 0.138848
0.009191 0.923468 0.150000
0.015985 0.922718 0.131426
0.144761 0.923361 0.079289
0.313580 0.923529 0.007598
0.467157 0.923958 0.008578
0.604718 0.923752 0.028822
0.755453 0.923361 0.206066
0.892096 0.919600 0.235669
0.979963 0.882353 0.187316
0.000000 0.980392 0.058333
0.000000 0.980392 0.037316
0.193627 0.982966 0.033456
0.335294 0.984007 0.003860
0.468382 0.984559 0.041176
0.586275 0.985600 0.123039
0.714216 0.988235 0.208333
0.848958 0.992096 0.253860
0.969118 0.984314 0.249510
0.039216 0.016667 0.251961
0.151103 0.016667 0.256740
0.262990 0.019608 0.267647
0.389706 0.024142 0.275123
0.557843 0.025980 0.272059
0.713848 0.028922 0.259926
0.835539 0.035539 0.251226
0.946691 0.047181 0.266299
1.000000 0.058824 0.259804
0.015686 0.132475 0.259436
0.143520 0.132782 0.264216
0.271599 0.133701 0.281036
0.404013 0.129289 0.283333
0.569853 0.097304 0.270343
0.715120 0.031572 0.259819
0.837040 0.101777 0.269700
0.948514 0.078799 0.269976
1.000000 0.140686 0.266054
0.035294 0.293627 0.296078
0.162653 0.294455 0.298376
0.298468 0.287684 0.299449
0.446324 0.281311 0.292157
0.588113 0.275368 0.284559
0.725490 0.265686 0.282077
0.850980 0.265135 0.283333
0.959926 0.269945 0.285172
1.000000 0.282353 0.276226
0.038603 0.444240 0.304902
0.157491 0.448545 0.307981
0.279657 0.444393 0.280729
0.450061 0.426731 0.277145
0.620282 0.430331 0.295527
0.763235 0.425061 0.305990
0.877911 0.422702 0.307996
0.975322 0.423637 0.307414
1.000000 0.427574 0.300980
0.019608 0.586275 0.300980
0.113113 0.596507 0.299020
0.240564 0.593015 0.251471
0.403125 0.583762 0.256801
0.586275 0.564216 0.259559
0.739277 0.554412 0.259130
0.880882 0.576838 0.308088
0.981556 0.591667 0.338971
1.000000 0.594118 0.343137
0.006618 0.702328 0.286887
0.042509 0.712301 0.285738
0.214706 0.711213 0.244240
0.360294 0.709804 0.211504
0.527757 0.699142 0.264461
0.693765 0.687194 0.257721
0.830852 0.679871 0.223100
0.955806 0.704151 0.291498
1.000000 0.720588 0.336765
0.000000 0.813480 0.272059
0.025000 0.818964 0.267034
0.188235 0.817647 0.238480
0.334559 0.818260 0.198775
0.489583 0.818995 0.202328
0.647947 0.814614 0.267647
0.798346 0.809007 0.265196
0.922886 0.798009 0.241391
0.997059 0.798039 0.289951
0.018873 0.922672 0.294730
0.022733 0.919286 0.280407
0.189859 0.920251 0.251501
0.322335 0.923529 0.194240
0.467647 0.923836 0.177574
0.604948 0.925184 0.200735
0.758303 0.922273 0.324081
0.895481 0.922442 0.350827
0.980760 0.881985 0.311765
0.000000 0.977451 0.270588
0.000000 0.977819 0.265809
0.201225 0.980392 0.261029
0.338603 0.983701 0.246936
0.464706 0.984314 0.238725
0.588113 0.988235 0.264216
0.713971 0.988235 0.314951
0.849020 0.991176 0.353431
0.972549 0.984314 0.357843
0.057353 0.019608 0.360294
0.155208 0.019608 0.362745
0.261642 0.021814 0.387132
0.392647 0.026900 0.409252
0.510539 0.033333 0.402696
0.654902 0.045588 0.402022
0.823529 0.041667 0.384191
0.944424 0.048836 0.366176
1.000000 0.058824 0.337745
0.051287 0.124510 0.370588
0.152688 0.126203 0.380798
0.268719 0.126654 0.404596
0.396071 0.117218 0.413848
0.514706 0.108425 0.406281
0.656541 0.045098 0.398032
0.825184 0.041360 0.383992
0.946063 0.049226 0.367203
1.000000 0.060968 0.351287
0.027574 0.285294 0.408824
0.147656 0.282093 0.410478
0.276532 0.282690 0.419393
0.408532 0.276471 0.424969
0.531373 0.270833 0.419240
0.696553 0.251333 0.400720
0.837623 0.237010 0.389491
0.948529 0.247442 0.383379
1.000000 0.286765 0.388725
0.049939 0.430331 0.426409
0.164698 0.433379 0.432039
0.296155 0.426348 0.430913
0.430047 0.420588 0.431396
0.579289 0.411550 0.421048
0.716605 0.411765 0.418076
0.847120 0.415686 0.422595
0.958586 0.422610 0.420412
1.000000 0.422488 0.407782
0.061275 0.573284 0.434559
0.169363 0.582445 0.441422
0.300184 0.577083 0.437929
0.412255 0.574326 0.410294
0.577574 0.559191 0.408333
0.733885 0.564982 0.429412
0.865870 0.582476 0.451287
0.967157 0.596078 0.468627
1.000000 0.594853 0.461520
0.064154 0.696569 0.428922
0.176838 0.704726 0.438611
0.288572 0.701409 0.425490
0.382498 0.701348 0.377597
0.527727 0.694363 0.392096
0.693627 0.683617 0.391314
0.833869 0.681051 0.372181
0.955392 0.718252 0.454534
1.000000 0.730882 0.474939
0.042647 0.812745 0.420956
0.114782 0.813557 0.419347
0.251103 0.814553 0.401379
0.357292 0.816835 0.349678
0.492892 0.818444 0.323039
0.649510 0.813266 0.397289
0.800460 0.809007 0.405729
0.927267 0.802803 0.379412
1.000000 0.805882 0.423039
0.028064 0.916973 0.431373
0.130293 0.918543 0.429328
0.263266 0.919347 0.414614
0.361757 0.923346 0.367272
0.473346 0.925398 0.307353
0.609980 0.924816 0.324081
0.762439 0.921216 0.446584
0.899280 0.920443 0.464032
0.982843 0.885294 0.423529
0.000000 0.976471 0.398039
0.000000 0.976471 0.398039
0.222549 0.979412 0.392647
0.350980 0.980392 0.382353
0.463971 0.984314 0.362745
0.586275 0.984314 0.375429
0.711887 0.986397 0.413235
0.849020 0.988542 0.452941
0.972549 0.984314 0.458333
0.082353 0.021569 0.480392
0.163235 0.023529 0.489951
0.273039 0.027451 0.503431
0.377206 0.033333 0.541667
0.508824 0.040196 0.542157
0.628922 0.055637 0.526226
0.757353 0.071569 0.531373
0.906127 0.076471 0.507353
1.000000 0.064706 0.468627
0.082598 0.114216 0.495588
0.166422 0.113205 0.500980
0.273407 0.112929 0.511765
0.378033 0.105147 0.544363
0.509314 0.084559 0.540686
0.630392 0.055239 0.525000
0.755882 0.071078 0.530760
0.905116 0.076440 0.508854
0.999755 0.066667 0.472794
0.029412 0.275000 0.517157
0.155453 0.276900 0.523039
0.269976 0.276838 0.529657
0.383088 0.272120 0.552512
0.516176 0.266912 0.549020
0.637255 0.266544 0.539706
0.770956 0.261397 0.540319
0.922794 0.237377 0.515748
1.000000 0.182353 0.476961
0.045343 0.420343 0.537255
0.151930 0.424020 0.542494
0.280392 0.419301 0.542157
0.400429 0.415931 0.553156
0.535294 0.409559 0.557108
0.658854 0.409344 0.558333
0.816115 0.398591 0.544976
0.950582 0.377727 0.522243
1.000000 0.363480 0.490441
0.071569 0.564706 0.554902
0.180637 0.569730 0.564583
0.305637 0.565441 0.562500
0.429167 0.559559 0.562500
0.558333 0.552941 0.563726
0.701348 0.549755 0.559191
0.829167 0.555147 0.558333
0.944240 0.570466 0.567525
1.000000 0.568627 0.555882
0.080147 0.690441 0.556127
0.206587 0.696630 0.564767
0.318627 0.692096 0.562255
0.431434 0.688756 0.559038
0.539093 0.687745 0.537132
0.688971 0.680882 0.540441
0.831556 0.699020 0.566851
0.949510 0.735294 0.613143
1.000000 0.738971 0.612745
0.065686 0.811275 0.558333
0.199694 0.810417 0.558824
0.320588 0.810049 0.559069
0.427390 0.810233 0.551409
0.519363 0.813971 0.504902
0.652635 0.810110 0.527880
0.800368 0.806005 0.551471
0.924755 0.808211 0.547243
1.000000 0.821078 0.576471
0.162500 0.918873 0.568137
0.246477 0.915472 0.568168
0.340196 0.916054 0.568137
0.437194 0.918719 0.559804
0.512990 0.922549 0.501838
0.628094 0.924816 0.482016
0.769914 0.921507 0.572855
0.903217 0.922610 0.587010
0.982843 0.892647 0.553922
0.100000 0.976471 0.531373
0.188480 0.974755 0.531373
0.297059 0.976471 0.531373
0.397549 0.979167 0.526961
0.495098 0.980392 0.509804
0.600000 0.984314 0.503922
0.717647 0.986275 0.532353
0.854902 0.989951 0.571078
0.976471 0.984314 0.578431
0.111275 0.027451 0.592647
0.175184 0.027451 0.596262
0.271569 0.031985 0.601103
0.375061 0.039216 0.614706
0.475000 0.047794 0.660539
0.623039 0.061213 0.666176
0.745711 0.079412 0.645711
0.864706 0.096936 0.643321
0.961765 0.103431 0.611275
0.113542 0.109314 0.596752
0.177558 0.110095 0.599946
0.271982 0.110294 0.606250
0.376356 0.100980 0.617647
0.478339 0.054105 0.660876
0.624027 0.060110 0.664415
0.746078 0.079243 0.646032
0.864009 0.095872 0.642793
0.960784 0.105025 0.616483
0.089216 0.271569 0.613235
0.169256 0.271216 0.616176
0.269118 0.271262 0.623009
0.377742 0.271247 0.632613
0.482843 0.268321 0.672304
0.630453 0.266268 0.674020
0.752972 0.269026 0.658027
0.871155 0.255867 0.655515
0.966544 0.219608 0.619608
0.063725 0.406434 0.629412
0.158471 0.408709 0.636275
0.277849 0.409375 0.637056
0.385723 0.413090 0.651555
0.500980 0.411060 0.681679
0.646446 0.411788 0.683479
0.767785 0.414216 0.679274
0.887316 0.407958 0.672174
0.990257 0.373162 0.623162
0.085784 0.552941 0.656127
0.195098 0.557016 0.662745
0.304412 0.553799 0.662684
0.418566 0.552175 0.665931
0.534559 0.552941 0.681618
0.664277 0.551746 0.687653
0.783885 0.551287 0.692525
0.925490 0.541514 0.675337
1.000000 0.515686 0.635294
0.106924 0.686275 0.674510
0.220412 0.686206 0.675911
0.327880 0.682583 0.675429
0.440112 0.681434 0.679619
0.557139 0.680882 0.683793
0.680369 0.680882 0.688726
0.808609 0.685692 0.691682
0.929098 0.697434 0.698353
1.000000 0.700061 0.692157
0.126471 0.810907 0.684926
0.237393 0.809942 0.685248
0.348683 0.809436 0.687868
0.457138 0.806572 0.688404
0.564706 0.805086 0.688664
0.671906 0.808104 0.677665
0.798468 0.805178 0.690227
0.931051 0.823866 0.708502
1.000000 0.843627 0.733824
0.215196 0.918811 0.687929
0.284926 0.916651 0.689055
0.378033 0.917494 0.691682
0.476846 0.917777 0.693451
0.573866 0.919301 0.690288
0.658150 0.924334 0.657299
0.774142 0.924494 0.681495
0.907521 0.923062 0.706556
0.984314 0.903922 0.690196
0.181373 0.976471 0.647549
0.263726 0.975184 0.651471
0.375000 0.975490 0.660417
0.475368 0.977390 0.667096
0.551471 0.978431 0.658333
0.633885 0.980944 0.640257
0.740564 0.984314 0.652819
0.864400 0.988419 0.692341
0.984314 0.975000 0.707843
0.137255 0.035294 0.684314
0.187255 0.035294 0.684314
0.274510 0.041422 0.692157
0.372059 0.048897 0.704902
0.477941 0.062745 0.736765
0.589583 0.074877 0.788113
0.740196 0.087010 0.791176
0.860662 0.106373 0.753309
0.949020 0.114706 0.729412
0.140074 0.107230 0.687255
0.191789 0.107460 0.688726
0.274142 0.106005 0.696446
0.375061 0.099280 0.707047
0.479902 0.062500 0.738480
0.589782 0.074280 0.786933
0.741452 0.086795 0.790839
0.859207 0.106434 0.756556
0.950123 0.117647 0.733946
0.121078 0.267157 0.701226
0.183211 0.267708 0.704933
0.271630 0.269669 0.713419
0.371109 0.271967 0.725521
0.483824 0.275123 0.749632
0.593934 0.272702 0.796293
0.744608 0.263787 0.797549
0.864430 0.263051 0.765686
0.950245 0.230392 0.740196
0.081373 0.400613 0.722549
0.183073 0.407813 0.729090
0.283854 0.408211 0.732598
0.382123 0.413097 0.748882
0.498529 0.416667 0.766667
0.608885 0.416805 0.805775
0.757935 0.413695 0.807843
0.873621 0.414522 0.783287
0.960294 0.394118 0.755270
0.088235 0.544608 0.750490
0.193995 0.548529 0.757169
0.296446 0.548039 0.758824
0.409498 0.550123 0.764032
0.518382 0.555637 0.781373
0.634926 0.554902 0.809436
0.772059 0.552941 0.808333
0.892892 0.555147 0.802512
0.972549 0.535784 0.772549
0.131373 0.682353 0.775980
0.223928 0.679642 0.776072
0.325460 0.679412 0.776593
0.435064 0.680653 0.780974
0.548039 0.680331 0.785723
0.665120 0.683946 0.801792
0.787071 0.685938 0.807751
0.904289 0.685784 0.810876
0.991667 0.668137 0.778431
0.196324 0.805882 0.796078
0.269608 0.804197 0.794148
0.366728 0.803922 0.796875
0.471752 0.801961 0.799602
0.579657 0.802328 0.803554
0.686857 0.803248 0.807567
0.796262 0.804902 0.809498
0.919669 0.812408 0.814093
0.993137 0.819608 0.815686
0.248039 0.922426 0.804657
0.311229 0.919010 0.804305
0.400460 0.918474 0.806556
0.495404 0.919332 0.809589
0.592218 0.919547 0.809559
0.692632 0.921155 0.809252
0.789737 0.924449 0.800429
0.908762 0.922825 0.814491
0.985662 0.923529 0.825000
0.214706 0.976471 0.760784
0.286887 0.976838 0.764706
0.386275 0.977941 0.768627
0.486765 0.977451 0.772549
0.593137 0.976961 0.778431
0.705637 0.984314 0.795466
0.781373 0.986029 0.783578
0.880882 0.989583 0.809191
0.989216 0.980392 0.839216
0.169608 0.043627 0.777941
0.210846 0.047059 0.780944
0.284681 0.051471 0.786642
0.374694 0.061765 0.800000
0.478431 0.072549 0.816912
0.581373 0.088235 0.862745
0.701961 0.102941 0.908333
0.864277 0.117708 0.915257
0.949510 0.125980 0.841176
0.167586 0.125919 0.780821
0.208709 0.127175 0.782613
0.284743 0.130760 0.791896
0.375184 0.131641 0.803592
0.480637 0.116330 0.818873
0.581189 0.087891 0.862745
0.701287 0.105622 0.908272
0.861267 0.114698 0.915794
0.948529 0.129412 0.844669
0.151838 0.275000 0.795588
0.202252 0.276838 0.801226
0.283517 0.279779 0.807476
0.372059 0.285555 0.821339
0.479963 0.288542 0.836765
0.587791 0.289706 0.873575
0.705331 0.280974 0.914798
0.861749 0.253339 0.916651
0.950980 0.233211 0.853676
0.145282 0.405882 0.818137
0.207927 0.411052 0.823775
0.293367 0.413603 0.829825
0.385225 0.419723 0.842777
0.490533 0.426164 0.860386
0.605522 0.427696 0.886206
0.717203 0.426608 0.922595
0.867517 0.414154 0.916828
0.956250 0.399387 0.864093
0.099265 0.539461 0.848529
0.196783 0.541391 0.850705
0.295343 0.543505 0.854350
0.416330 0.553830 0.862255
0.511642 0.559926 0.879902
0.630484 0.563909 0.896814
0.743321 0.562745 0.922120
0.881648 0.556618 0.916697
0.964951 0.543137 0.876225
0.190993 0.680392 0.875980
0.248606 0.677941 0.875084
0.336106 0.678493 0.877451
0.433938 0.681556 0.881373
0.537010 0.682016 0.890349
0.644179 0.691000 0.907422
0.770144 0.692356 0.919240
0.892341 0.687929 0.919386
0.971569 0.675000 0.887255
0.234559 0.800000 0.893995
0.296860 0.800000 0.896247
0.383701 0.801287 0.897212
0.477543 0.800674 0.896921
0.578738 0.802451 0.901961
0.682476 0.807476 0.907935
0.789185 0.807935 0.916023
0.905086 0.808594 0.923805
0.978799 0.803922 0.899877
0.297672 0.918689 0.911765
0.350551 0.918689 0.912140
0.431510 0.918689 0.914813
0.518650 0.917570 0.915257
0.609835 0.919608 0.916973
0.706066 0.921078 0.920404
0.804611 0.921262 0.920787
0.914828 0.923047 0.923047
0.992647 0.931311 0.928309
0.327451 0.984314 0.887745
0.377451 0.984314 0.887745
0.456495 0.983333 0.892034
0.543444 0.982169 0.897365
0.636275 0.984314 0.901716
0.731066 0.984498 0.907537
0.838358 0.992157 0.920098
0.939706 0.996569 0.943137
1.000000 1.000000 0.981373
0.196078 0.058824 0.850980
0.226471 0.058824 0.854412
0.292157 0.065686 0.861765
0.372059 0.073039 0.873039
0.470588 0.082353 0.890196
0.578431 0.095588 0.915196
0.673529 0.114706 0.966667
0.806863 0.129902 1.000000
0.952941 0.133333 0.976471
0.189706 0.137745 0.854902
0.222978 0.136275 0.854902
0.289216 0.135294 0.862623
0.371446 0.135968 0.876654
0.471078 0.130637 0.891912
0.581863 0.097733 0.914890
0.675123 0.114583 0.968750
0.807169 0.129350 0.999510
0.951961 0.137255 0.978431
0.179412 0.277451 0.869608
0.217034 0.274877 0.870588
0.287990 0.280637 0.880637
0.368137 0.284314 0.891667
0.465196 0.288235 0.908333
0.579902 0.288235 0.928431
0.671569 0.274755 0.973529
0.803676 0.235662 1.000000
0.948039 0.155882 0.977451
0.195588 0.405882 0.892647
0.233333 0.408333 0.896569
0.300000 0.410172 0.903431
0.378431 0.416176 0.916176
0.465931 0.418137 0.931127
0.581434 0.420098 0.946569
0.675613 0.415196 0.984436
0.814216 0.401164 0.999694
0.949020 0.376471 0.978431
0.245098 0.547059 0.923529
0.279902 0.549020 0.925490
0.340686 0.549020 0.930392
0.410784 0.549755 0.937255
0.482353 0.550980 0.951961
0.585539 0.552941 0.966667
0.699510 0.549020 0.986765
0.835294 0.544853 0.999510
0.958824 0.531373 0.980392
0.231373 0.658333 0.944118
0.275000 0.658456 0.946385
0.345098 0.661887 0.946569
0.433824 0.668627 0.954412
0.533088 0.682353 0.963971
0.604902 0.681311 0.978860
0.737132 0.678309 0.986520
0.857537 0.673529 0.997365
0.969608 0.671569 0.986275
0.295098 0.779412 0.964706
0.331495 0.776838 0.964706
0.396324 0.779657 0.964951
0.476961 0.783333 0.968627
0.573529 0.787255 0.972549
0.676961 0.795711 0.978186
0.770588 0.799755 0.986029
0.880882 0.795956 0.996936
0.980392 0.800980 0.992157
0.366667 0.907353 0.980882
0.405453 0.903922 0.980882
0.466789 0.903922 0.980882
0.542034 0.906250 0.984314
0.627941 0.906373 0.984804
0.720098 0.909620 0.988235
0.817525 0.915686 0.988603
0.920159 0.926532 0.992218
0.989706 0.931373 0.995588
0.498039 0.992157 0.976471
0.528922 0.992647 0.976471
0.578431 0.996078 0.980392
0.636275 0.993627 0.981863
0.709804 0.996078 0.980392
0.796569 0.996078 0.984314
0.894118 0.997059 0.989216
0.981373 1.000000 0.996078
1.000000 1.000000 1.000000
