luts/SG9.cube
TITLE "sample11"
LUT_3D_SIZE 33
DOMAIN_MIN 0.0 0.0 0.0
DOMAIN_MAX 1.0 1.0 1.0
0.015686 0.015686 0.015686
0.054167 0.019485 0.019485
0.089216 0.019363 0.019363
0.120098 0.016054 0.016054
0.150490 0.015686 0.015686
0.181863 0.015686 0.015686
0.219853 0.015686 0.015686
0.255392 0.019608 0.019608
0.289216 0.015686 0.015686
0.323897 0.018505 0.018505
0.359804 0.015686 0.015686
0.394608 0.018260 0.018260
0.429412 0.019608 0.019608
0.468873 0.019608 0.019608
0.512990 0.019608 0.019608
0.555515 0.023529 0.023529
0.600000 0.023529 0.023529
0.640564 0.025368 0.025368
0.679167 0.027451 0.027451
0.713848 0.027451 0.027451
0.748529 0.031373 0.032843
0.777941 0.031373 0.031373
0.808824 0.035294 0.036520
0.834681 0.035294 0.039216
0.858824 0.036275 0.039216
0.885784 0.040074 0.040074
0.912010 0.043137 0.043873
0.939093 0.047059 0.047059
0.958333 0.047549 0.047549
0.977574 0.051348 0.051348
0.996324 0.055147 0.055147
1.000000 0.055025 0.058946
1.000000 0.058824 0.058824
0.000368 0.050245 0.015686
0.038484 0.054048 0.015686
0.085057 0.046569 0.015686
0.116176 0.035528 0.015686
0.147059 0.024234 0.015686
0.181269 0.016402 0.015809
0.216567 0.015709 0.015709
0.251444 0.019485 0.019485
0.285294 0.015778 0.015778
0.320010 0.018539 0.018539
0.354657 0.015771 0.015771
0.389380 0.018302 0.018302
0.424020 0.019608 0.019608
0.466494 0.019608 0.019608
0.511206 0.019608 0.019608
0.551716 0.023529 0.023529
0.596017 0.023529 0.023529
0.638546 0.025368 0.025433
0.675314 0.027451 0.027451
0.709999 0.027451 0.027524
0.747059 0.031373 0.032797
0.778022 0.031453 0.031453
0.807514 0.035210 0.036397
0.834593 0.035294 0.039093
0.858824 0.036275 0.039216
0.885853 0.040142 0.040169
0.912109 0.043237 0.043949
0.939093 0.047078 0.047078
0.958441 0.047656 0.047656
0.977685 0.051459 0.051459
0.996324 0.055147 0.055147
1.000000 0.055143 0.058942
1.000000 0.058824 0.058946
0.000000 0.081373 0.012010
0.042042 0.081380 0.015334
0.081127 0.081373 0.015441
0.112255 0.077574 0.015686
0.146599 0.069179 0.012010
0.181288 0.057797 0.015150
0.216713 0.036229 0.015732
0.254289 0.020971 0.019363
0.286213 0.015870 0.015870
0.321255 0.018574 0.018574
0.354657 0.015855 0.015855
0.389422 0.018344 0.018344
0.427696 0.019608 0.019608
0.472549 0.019608 0.019608
0.512990 0.019608 0.019608
0.555515 0.023529 0.023529
0.595956 0.023529 0.023529
0.638611 0.025498 0.025498
0.675245 0.027451 0.027451
0.710072 0.027451 0.027696
0.744516 0.031373 0.032751
0.777941 0.031533 0.031533
0.807430 0.035126 0.036275
0.834505 0.035294 0.038971
0.858824 0.036275 0.039216
0.885922 0.040211 0.040211
0.912209 0.043336 0.044026
0.939093 0.047097 0.047097
0.958548 0.047763 0.047763
0.977796 0.051547 0.051570
0.996324 0.054917 0.055147
1.000000 0.055262 0.058938
1.000000 0.058824 0.059069
0.000000 0.108333 0.011765
0.042402 0.108345 0.011765
0.076984 0.108333 0.011543
0.108333 0.108333 0.011765
0.143015 0.100980 0.011320
0.180752 0.096316 0.012132
0.220588 0.085241 0.011834
0.258088 0.080350 0.015686
0.290104 0.068260 0.012408
0.327554 0.056353 0.016054
0.359689 0.037040 0.015939
0.393019 0.022051 0.018386
0.435279 0.019608 0.019608
0.477941 0.019608 0.019608
0.516912 0.019608 0.019608
0.557353 0.023529 0.023529
0.597855 0.023529 0.023529
0.640564 0.025368 0.025563
0.675245 0.027451 0.027451
0.710145 0.027451 0.027819
0.744470 0.031373 0.032705
0.777941 0.031614 0.031614
0.808456 0.035041 0.036152
0.834417 0.037849 0.038848
0.858824 0.036275 0.039216
0.888848 0.040280 0.040280
0.912975 0.043436 0.044102
0.939093 0.047116 0.047116
0.958655 0.047871 0.047871
0.977907 0.051647 0.051681
0.996324 0.055147 0.055147
1.000000 0.055381 0.058935
1.000000 0.058824 0.059191
0.000000 0.152451 0.007843
0.035064 0.155790 0.007751
0.070067 0.152911 0.004626
0.107521 0.149387 0.004458
0.149081 0.149449 0.007904
0.184191 0.144684 0.008333
0.233027 0.137102 0.008333
0.272181 0.132460 0.011765
0.310294 0.125858 0.012132
0.342647 0.117907 0.012255
0.378585 0.112990 0.012255
0.418091 0.104626 0.013925
0.459007 0.096630 0.014706
0.496860 0.087592 0.016176
0.535784 0.079442 0.017678
0.572901 0.073177 0.021921
0.609804 0.052696 0.021814
0.650582 0.029228 0.025843
0.685049 0.027451 0.028952
0.719531 0.028845 0.029136
0.752451 0.031189 0.031373
0.783655 0.032874 0.032874
0.809222 0.034957 0.034957
0.836152 0.038725 0.038725
0.859436 0.038848 0.038848
0.886397 0.039966 0.039966
0.913388 0.043137 0.043781
0.940074 0.049540 0.050490
0.959314 0.047488 0.050980
0.978998 0.051302 0.051302
0.997151 0.054442 0.054902
0.999525 0.097044 0.058226
1.000000 0.154412 0.055392
0.000000 0.185784 0.000613
0.000000 0.189602 0.003818
0.035662 0.186604 0.000613
0.085294 0.186397 0.000613
0.131082 0.185248 0.003922
0.173503 0.181863 0.004017
0.216429 0.174142 0.003922
0.258211 0.169485 0.004400
0.300306 0.165717 0.007016
0.342892 0.161642 0.005147
0.385225 0.158333 0.007843
0.427328 0.154534 0.008054
0.466544 0.149265 0.010907
0.505147 0.140437 0.012377
0.541889 0.135026 0.014170
0.578431 0.129044 0.017770
0.615686 0.123162 0.018260
0.656170 0.116586 0.020221
0.690319 0.106794 0.021936
0.724020 0.095944 0.025486
0.756970 0.089308 0.028064
0.785784 0.081407 0.029814
0.813794 0.071898 0.035294
0.838603 0.056104 0.039216
0.865227 0.041391 0.039369
0.889706 0.040074 0.040074
0.915931 0.043137 0.043758
0.945807 0.051402 0.050463
0.962791 0.072488 0.048085
0.981495 0.098602 0.051903
1.000000 0.126049 0.051593
1.000000 0.154328 0.054921
1.000000 0.194240 0.051593
0.000000 0.220588 0.000000
0.000000 0.224410 0.000000
0.010110 0.224510 0.000000
0.069187 0.221622 0.000000
0.112745 0.220987 0.000000
0.161382 0.219968 0.000000
0.211275 0.219118 0.000000
0.253799 0.218543 0.000000
0.299203 0.211458 0.000184
0.347059 0.208295 0.000735
0.395833 0.207353 0.000735
0.435662 0.204779 0.000735
0.476716 0.199510 0.003186
0.514897 0.193260 0.004657
0.552865 0.189461 0.008578
0.589338 0.183433 0.010271
0.626716 0.178309 0.012500
0.661864 0.174142 0.014537
0.697718 0.168137 0.017402
0.729236 0.163917 0.017716
0.760815 0.162010 0.022335
0.789453 0.160041 0.025360
0.818627 0.157828 0.027451
0.845711 0.155430 0.031373
0.869056 0.151164 0.031740
0.895956 0.150980 0.035455
0.922442 0.154902 0.039216
0.948889 0.159436 0.043137
0.966176 0.164706 0.043873
0.985417 0.172794 0.047128
1.000000 0.184115 0.047105
1.000000 0.200636 0.051003
1.000000 0.225245 0.048529
0.000000 0.251471 0.000000
0.000000 0.258360 0.000000
0.000000 0.258456 0.000000
0.050245 0.258456 0.000000
0.103799 0.258839 0.000000
0.153565 0.261041 0.000000
0.207353 0.258456 0.000000
0.253676 0.257598 0.000000
0.299357 0.256403 0.000000
0.339955 0.248411 0.000000
0.391690 0.246691 0.000000
0.439265 0.244118 0.000000
0.484436 0.242770 0.000000
0.524510 0.237764 0.000509
0.561389 0.234061 0.000858
0.597338 0.230147 0.002941
0.632904 0.223162 0.005208
0.669240 0.219030 0.008701
0.701838 0.214461 0.010417
0.733107 0.210539 0.013867
0.765809 0.206618 0.016008
0.795244 0.205170 0.018455
0.822695 0.205392 0.022572
0.850988 0.205515 0.024387
0.876808 0.202696 0.027665
0.899943 0.202696 0.029167
0.926838 0.202696 0.035294
0.952585 0.206752 0.039216
0.969608 0.208716 0.040074
0.989258 0.215686 0.043218
1.000000 0.223215 0.043995
1.000000 0.235198 0.047917
1.000000 0.256250 0.044853
0.000000 0.315686 0.000000
0.000000 0.317616 0.000000
0.000000 0.317831 0.000000
0.051317 0.318536 0.000000
0.107721 0.317647 0.000000
0.156801 0.317800 0.000000
0.211520 0.317096 0.000000
0.261520 0.311428 0.000000
0.308088 0.308578 0.000000
0.351348 0.305025 0.000000
0.391299 0.296998 0.000000
0.439920 0.293137 0.000000
0.490809 0.293873 0.000000
0.534191 0.292157 0.000000
0.572794 0.288235 0.000000
0.608854 0.281771 0.000000
0.645588 0.278431 0.000490
0.681863 0.274112 0.000980
0.715686 0.271569 0.002696
0.745374 0.266054 0.004902
0.774142 0.262623 0.008824
0.803033 0.259406 0.009804
0.827206 0.256924 0.016605
0.854289 0.257721 0.025490
0.878431 0.255147 0.029412
0.903554 0.258824 0.036581
0.926716 0.258824 0.045098
0.952359 0.262898 0.053615
0.972549 0.267647 0.052574
0.988082 0.271936 0.046599
0.998162 0.275797 0.035294
1.000000 0.285539 0.036397
1.000000 0.300980 0.037255
0.000000 0.352451 0.000000
0.000000 0.367892 0.000000
0.000000 0.370956 0.000000
0.000000 0.370956 0.000000
0.044347 0.367525 0.000000
0.118432 0.364656 0.000000
0.181373 0.363113 0.000000
0.232973 0.356989 0.000000
0.289461 0.352328 0.000000
0.337557 0.346504 0.000000
0.381985 0.343505 0.000000
0.421814 0.334057 0.000000
0.470343 0.329565 0.000000
0.519811 0.327819 0.000000
0.569347 0.328301 0.000000
0.610934 0.325735 0.000000
0.652390 0.323346 0.000000
0.690510 0.319458 0.000000
0.725260 0.315571 0.000000
0.754944 0.311684 0.000000
0.784115 0.306051 0.000414
0.810784 0.302217 0.001103
0.837868 0.300023 0.009605
0.863366 0.298472 0.021634
0.888940 0.297273 0.033793
0.912753 0.300126 0.043505
0.935539 0.298078 0.053431
0.961079 0.302918 0.066839
0.980407 0.304427 0.066927
0.996446 0.309578 0.058598
1.000000 0.313235 0.039476
1.000000 0.317490 0.031407
1.000000 0.332843 0.032475
0.000000 0.386029 0.000000
0.000000 0.402696 0.000000
0.000000 0.406786 0.000000
0.000000 0.405637 0.000000
0.011152 0.402206 0.000000
0.099701 0.399441 0.000000
0.169118 0.397794 0.000000
0.217601 0.391766 0.000000
0.274020 0.390257 0.000000
0.325245 0.383211 0.000000
0.373882 0.378186 0.000000
0.416284 0.374686 0.000000
0.457169 0.367678 0.000000
0.502198 0.362500 0.000000
0.555683 0.362546 0.000000
0.604619 0.363074 0.000000
0.651593 0.363848 0.000000
0.694891 0.361926 0.000000
0.731127 0.359559 0.000000
0.760915 0.354159 0.000000
0.790196 0.349265 0.000000
0.817578 0.344661 0.004971
0.842509 0.342509 0.023529
0.869095 0.340908 0.043604
0.895833 0.338664 0.057721
0.918995 0.338703 0.068091
0.943153 0.338971 0.076716
0.968206 0.341437 0.088794
0.984222 0.343045 0.086520
1.000000 0.344370 0.081863
1.000000 0.348039 0.066345
1.000000 0.352206 0.053922
1.000000 0.363725 0.050000
0.000000 0.418137 0.000000
0.000000 0.436072 0.000000
0.000000 0.437906 0.000000
0.000000 0.440077 0.000000
0.000000 0.436887 0.000000
0.078451 0.434226 0.000000
0.155767 0.432475 0.000000
0.207108 0.428554 0.000000
0.258578 0.425613 0.000000
0.310528 0.421814 0.000000
0.362745 0.416789 0.000000
0.411098 0.411983 0.000000
0.456235 0.409911 0.000000
0.495041 0.402394 0.000000
0.537500 0.394608 0.000000
0.587745 0.395956 0.000000
0.641912 0.399816 0.000000
0.690893 0.401103 0.000000
0.730905 0.400513 0.000000
0.763235 0.395588 0.000000
0.795726 0.390947 0.000000
0.822304 0.387106 0.014461
0.849387 0.384995 0.041123
0.876471 0.383345 0.061910
0.900643 0.381495 0.077727
0.926421 0.381200 0.088358
0.947304 0.377574 0.094600
0.972024 0.379745 0.102995
0.987714 0.377742 0.103033
1.000000 0.381495 0.099751
1.000000 0.382843 0.084597
1.000000 0.385662 0.075858
1.000000 0.397181 0.077083
0.000000 0.471078 0.000000
0.000000 0.480790 0.000000
0.000000 0.480055 0.000000
0.000000 0.479902 0.000000
0.015012 0.481066 0.000000
0.083686 0.478661 0.000000
0.157782 0.476164 0.000000
0.207813 0.472595 0.000000
0.257843 0.471569 0.000000
0.307399 0.467770 0.000000
0.356893 0.463511 0.000000
0.404182 0.456250 0.000000
0.450000 0.450980 0.000000
0.490947 0.447059 0.000000
0.530392 0.441176 0.000000
0.569531 0.433992 0.000000
0.621324 0.434804 0.000000
0.674724 0.438695 0.000000
0.719547 0.440043 0.000000
0.760309 0.441085 0.003983
0.794179 0.439216 0.023284
0.823162 0.436397 0.038450
0.850245 0.434069 0.052635
0.874510 0.431373 0.069286
0.898039 0.430025 0.084191
0.923330 0.428922 0.094164
0.946538 0.428922 0.104381
0.968275 0.428922 0.107996
0.983517 0.427635 0.108824
0.997335 0.429059 0.108824
1.000000 0.431955 0.107751
1.000000 0.437301 0.107154
1.000000 0.441176 0.091176
0.000000 0.503431 0.000000
0.000000 0.525123 0.000000
0.000000 0.530783 0.000000
0.000000 0.530882 0.000000
0.000000 0.527252 0.000000
0.000000 0.523403 0.000000
0.093559 0.519853 0.000000
0.166544 0.516054 0.000000
0.226103 0.513603 0.000000
0.276226 0.508536 0.000000
0.329764 0.504159 0.000000
0.380940 0.498464 0.000000
0.432108 0.490671 0.000000
0.479902 0.485417 0.000000
0.522426 0.481618 0.000000
0.561029 0.477462 0.000000
0.601593 0.469301 0.000000
0.651348 0.468137 0.000000
0.701348 0.471446 0.000000
0.747024 0.475333 0.000000
0.786412 0.475980 0.003263
0.821324 0.474632 0.033701
0.852328 0.475483 0.061765
0.878922 0.472714 0.080109
0.904902 0.470466 0.093750
0.928064 0.470466 0.104921
0.953554 0.470466 0.116789
0.974387 0.470466 0.125854
0.993137 0.468137 0.129412
1.000000 0.470615 0.131890
1.000000 0.470466 0.131740
1.000000 0.470638 0.130124
1.000000 0.475980 0.127819
0.000000 0.534314 0.000000
0.000000 0.557544 0.000000
0.000000 0.563373 0.000000
0.000000 0.563480 0.000000
0.000000 0.558119 0.000000
0.000000 0.553922 0.000000
0.062745 0.552129 0.000000
0.149992 0.548277 0.000000
0.213480 0.544363 0.000000
0.264583 0.541544 0.000000
0.314905 0.538925 0.000000
0.366544 0.533188 0.000000
0.418873 0.528676 0.000000
0.468382 0.523445 0.000000
0.514706 0.518627 0.000000
0.556426 0.515740 0.000000
0.598039 0.511275 0.000000
0.634436 0.500421 0.000000
0.678186 0.498529 0.000000
0.725406 0.501631 0.000000
0.768290 0.503585 0.000000
0.808824 0.506104 0.009781
0.843627 0.506863 0.042601
0.874648 0.507483 0.067417
0.901409 0.508517 0.086029
0.928064 0.507345 0.101095
0.953431 0.509069 0.114874
0.976248 0.509069 0.126103
0.994638 0.506648 0.129412
1.000000 0.506863 0.133701
1.000000 0.505392 0.137990
1.000000 0.511259 0.143857
1.000000 0.510784 0.139461
0.000000 0.565196 0.000000
0.000000 0.584559 0.000000
0.000000 0.590449 0.000000
0.000000 0.590564 0.000000
0.000000 0.588726 0.000000
0.000000 0.584804 0.000000
0.036343 0.583111 0.000000
0.133333 0.580882 0.000000
0.201838 0.579044 0.000000
0.255542 0.575640 0.000000
0.304289 0.573690 0.000000
0.353818 0.570627 0.000000
0.405147 0.564828 0.000000
0.456863 0.560183 0.000000
0.504098 0.556059 0.000000
0.547672 0.550486 0.000000
0.592034 0.546630 0.000000
0.629776 0.539943 0.000000
0.662201 0.531074 0.000000
0.703431 0.526827 0.000000
0.746982 0.529289 0.000000
0.790093 0.534455 0.000000
0.830676 0.537745 0.010953
0.867498 0.540169 0.041640
0.895956 0.541667 0.069118
0.925980 0.542122 0.090039
0.951225 0.543750 0.105270
0.974387 0.543750 0.120098
0.992923 0.541437 0.125506
1.000000 0.543922 0.134069
1.000000 0.543995 0.147426
1.000000 0.547729 0.155082
1.000000 0.549510 0.152941
0.000000 0.601961 0.000000
0.000000 0.609681 0.000000
0.000000 0.613726 0.000000
0.000000 0.617647 0.000000
0.000000 0.613971 0.000000
0.000000 0.613726 0.000000
0.062010 0.613726 0.000000
0.138235 0.612194 0.000000
0.198529 0.609804 0.000000
0.250245 0.608395 0.000000
0.299877 0.609804 0.000000
0.343566 0.604596 0.000000
0.391176 0.601961 0.000000
0.439828 0.598836 0.000000
0.486642 0.593015 0.000000
0.532108 0.589154 0.000000
0.577451 0.584314 0.000000
0.618076 0.580515 0.000000
0.653922 0.576716 0.000000
0.687929 0.568995 0.000000
0.723039 0.562745 0.000000
0.764277 0.564093 0.000000
0.804167 0.569240 0.000000
0.842218 0.573101 0.001103
0.876961 0.575490 0.020098
0.908885 0.579963 0.051164
0.935539 0.582353 0.074387
0.962316 0.584620 0.099265
0.985294 0.590196 0.114461
1.000000 0.590564 0.126409
1.000000 0.594118 0.139706
1.000000 0.596140 0.153064
1.000000 0.600000 0.156863
0.000000 0.630882 0.000000
0.000000 0.646684 0.000000
0.000000 0.652443 0.000000
0.000000 0.652746 0.000000
0.000000 0.648882 0.000000
0.000000 0.648652 0.000000
0.000000 0.644730 0.000000
0.050839 0.645133 0.000000
0.146844 0.643168 0.000000
0.212868 0.640809 0.000000
0.268015 0.640158 0.000000
0.317647 0.636887 0.000000
0.363971 0.635585 0.000000
0.413469 0.631729 0.000000
0.463657 0.630078 0.000000
0.511891 0.625984 0.000000
0.559988 0.620159 0.000000
0.606376 0.619118 0.000000
0.646063 0.614392 0.000000
0.681874 0.612512 0.000000
0.715686 0.605101 0.000000
0.748162 0.598162 0.000000
0.785501 0.596239 0.000000
0.825954 0.601199 0.000000
0.863511 0.606495 0.000521
0.899230 0.611730 0.015127
0.930170 0.617279 0.049242
0.958946 0.620588 0.087052
0.981633 0.623039 0.109421
0.998334 0.623261 0.124609
1.000000 0.627091 0.143750
1.000000 0.630882 0.155147
1.000000 0.630882 0.162868
0.000000 0.657843 0.000000
0.000000 0.671622 0.000000
0.000000 0.675735 0.000000
0.000000 0.675896 0.000000
0.000000 0.672028 0.000000
0.000000 0.671814 0.000000
0.000000 0.667892 0.000000
0.034084 0.668267 0.000000
0.130882 0.667892 0.000000
0.201225 0.665686 0.000000
0.256373 0.665686 0.000000
0.307253 0.663971 0.000000
0.353094 0.662592 0.000000
0.399793 0.661068 0.000000
0.449020 0.658808 0.000000
0.494432 0.656932 0.000000
0.544485 0.650000 0.000000
0.590878 0.647250 0.000000
0.631357 0.644087 0.000000
0.670305 0.640564 0.000000
0.706127 0.637408 0.000000
0.737600 0.630760 0.000000
0.770297 0.624265 0.000000
0.807858 0.624272 0.000000
0.846814 0.629657 0.000000
0.882353 0.634796 0.000000
0.917157 0.640441 0.004274
0.947426 0.644363 0.043061
0.972304 0.646569 0.081097
0.991337 0.652206 0.109842
1.000000 0.656127 0.134314
1.000000 0.660103 0.147426
1.000000 0.663971 0.153431
0.000000 0.683211 0.000000
0.000000 0.694853 0.000000
0.000000 0.698897 0.000000
0.000000 0.699046 0.000000
0.000000 0.695175 0.000000
0.000000 0.694976 0.000000
0.000000 0.691353 0.000000
0.022021 0.693156 0.000000
0.120956 0.692249 0.000000
0.188928 0.692647 0.000000
0.247924 0.691919 0.000000
0.299575 0.691054 0.000000
0.343995 0.689599 0.000000
0.388848 0.689024 0.000000
0.434475 0.687132 0.000000
0.480649 0.683958 0.000000
0.526226 0.678125 0.000000
0.575379 0.675123 0.000000
0.616866 0.672342 0.000000
0.657353 0.670500 0.000000
0.693490 0.666651 0.000000
0.730637 0.662803 0.000000
0.762263 0.657721 0.000000
0.796078 0.654576 0.000000
0.830944 0.654014 0.000000
0.865093 0.657514 0.000000
0.901716 0.662309 0.000000
0.935907 0.667525 0.001091
0.964583 0.671936 0.037454
0.983605 0.675517 0.086110
1.000000 0.681028 0.117425
1.000000 0.683333 0.132648
1.000000 0.689461 0.141912
0.000000 0.706373 0.000000
0.000000 0.716069 0.000000
0.000000 0.716176 0.000000
0.000000 0.717647 0.000000
0.000000 0.716667 0.000000
0.000000 0.719976 0.000000
0.014338 0.718137 0.000000
0.053033 0.718137 0.000000
0.136887 0.719240 0.000000
0.192984 0.718919 0.000000
0.249418 0.720313 0.000000
0.295343 0.717999 0.000000
0.338297 0.717708 0.000000
0.380270 0.716299 0.000000
0.423346 0.716422 0.000000
0.468382 0.714706 0.000000
0.513480 0.711029 0.000000
0.558578 0.707874 0.000000
0.600980 0.704504 0.000000
0.642264 0.702834 0.004366
0.680944 0.700490 0.000000
0.717172 0.698039 0.000000
0.751930 0.694118 0.000000
0.784513 0.690885 0.000000
0.817157 0.688358 0.000000
0.845803 0.687255 0.000000
0.878186 0.690165 0.000000
0.915947 0.695849 0.000000
0.942647 0.699020 0.000000
0.965809 0.702681 0.001011
0.988634 0.708824 0.041667
1.000000 0.712745 0.069975
1.000000 0.716667 0.083824
0.000000 0.742647 0.002574
0.000000 0.746569 0.010417
0.000000 0.749142 0.006740
0.000000 0.749510 0.000241
0.000000 0.749142 0.000000
0.000000 0.746569 0.000000
0.000000 0.745473 0.000000
0.000000 0.745784 0.000000
0.064614 0.748805 0.000000
0.152083 0.745944 0.000000
0.216720 0.746569 0.000000
0.270684 0.746909 0.000000
0.321354 0.747335 0.000000
0.365564 0.745768 0.000000
0.409681 0.745810 0.000000
0.451735 0.747304 0.000000
0.501226 0.745221 0.000000
0.545588 0.742647 0.000000
0.587722 0.742747 0.000000
0.630392 0.738726 0.000000
0.672166 0.735907 0.000000
0.709926 0.734341 0.000000
0.747304 0.732230 0.000000
0.782108 0.729534 0.000000
0.814338 0.723039 0.000000
0.844658 0.719118 0.000000
0.872181 0.717287 0.000000
0.906775 0.718172 0.000000
0.933456 0.721691 0.000000
0.957839 0.725613 0.000000
0.979534 0.727122 0.000000
0.998694 0.733456 0.010696
1.000000 0.734804 0.018015
0.000000 0.765686 0.000000
0.000000 0.772220 0.002612
0.000000 0.772304 0.000169
0.000000 0.772557 0.000000
0.000000 0.771232 0.000000
0.000000 0.769416 0.000000
0.000000 0.768382 0.000000
0.000000 0.768972 0.000000
0.054044 0.771078 0.000000
0.143428 0.768382 0.000000
0.206725 0.769608 0.000000
0.262117 0.768382 0.000000
0.313664 0.770527 0.000000
0.358341 0.768880 0.000000
0.400444 0.770098 0.000000
0.441996 0.770466 0.000000
0.486397 0.770343 0.000000
0.531373 0.768382 0.000000
0.573575 0.766667 0.000000
0.613856 0.764093 0.000000
0.655882 0.761305 0.000000
0.695711 0.759612 0.000000
0.733931 0.756618 0.000000
0.770933 0.755859 0.000000
0.804289 0.751593 0.000000
0.837500 0.749142 0.000000
0.869102 0.745573 0.000000
0.900299 0.745887 0.000000
0.926808 0.744853 0.000000
0.950008 0.746331 0.000000
0.971814 0.750092 0.000000
0.991215 0.752696 0.000000
1.000000 0.756618 0.000000
0.000000 0.793750 0.000000
0.000000 0.792682 0.000000
0.000000 0.794432 0.000000
0.000000 0.794466 0.000000
0.000000 0.795466 0.000000
0.000000 0.792647 0.000000
0.000000 0.791751 0.000000
0.000000 0.791785 0.000000
0.047886 0.792371 0.000000
0.139093 0.791544 0.000000
0.200368 0.792647 0.000000
0.256127 0.793394 0.000000
0.306664 0.793719 0.000000
0.350571 0.793666 0.000000
0.394240 0.793260 0.000000
0.432843 0.793627 0.000000
0.474816 0.794056 0.000000
0.518409 0.792061 0.000000
0.559184 0.790311 0.000000
0.599468 0.789828 0.000000
0.641544 0.788726 0.000000
0.684069 0.787377 0.000000
0.726248 0.786742 0.000000
0.763300 0.784804 0.000000
0.797488 0.782414 0.000000
0.831499 0.780641 0.000000
0.865686 0.776432 0.000000
0.899705 0.772867 0.000000
0.922687 0.769118 0.000000
0.943279 0.769382 0.000000
0.965372 0.771936 0.000000
0.987289 0.774789 0.000000
1.000000 0.775858 0.000000
0.000000 0.817647 0.000000
0.000000 0.818689 0.000000
0.000000 0.817708 0.000000
0.000000 0.821569 0.000000
0.000000 0.821569 0.000000
0.000000 0.818627 0.000000
0.005576 0.818627 0.000000
0.024755 0.820251 0.000000
0.078922 0.822549 0.000000
0.156434 0.819608 0.000000
0.210968 0.820588 0.000000
0.261826 0.821232 0.000000
0.306740 0.821201 0.000000
0.350460 0.821170 0.000000
0.392402 0.821569 0.000000
0.430025 0.821569 0.000000
0.470588 0.822549 0.000000
0.510631 0.822028 0.000000
0.552696 0.823223 0.000000
0.591299 0.821569 0.000000
0.629902 0.821569 0.000000
0.671446 0.821569 0.000000
0.712990 0.819669 0.001532
0.750766 0.816667 0.012040
0.784804 0.814216 0.000735
0.821078 0.813511 0.000000
0.851961 0.811213 0.000000
0.886765 0.807690 0.000000
0.913725 0.800735 0.000000
0.934436 0.800000 0.000000
0.953431 0.798958 0.000000
0.971814 0.798039 0.000000
0.988235 0.798039 0.000000
0.000000 0.849632 0.000000
0.000000 0.849537 0.000000
0.000000 0.849632 0.000000
0.000000 0.849632 0.000000
0.000000 0.846952 0.000000
0.000000 0.846569 0.000000
0.000000 0.849058 0.000000
0.000000 0.848962 0.000000
0.007813 0.847335 0.000000
0.120339 0.849391 0.000000
0.188649 0.848675 0.000000
0.243555 0.848579 0.000000
0.295052 0.849632 0.000000
0.339112 0.849284 0.000000
0.384926 0.851356 0.000000
0.423407 0.851260 0.000000
0.464277 0.852022 0.000000
0.502451 0.853098 0.000000
0.542394 0.852696 0.000000
0.580618 0.852696 0.000000
0.619409 0.851317 0.000000
0.656863 0.851643 0.000000
0.694608 0.848407 0.000000
0.733211 0.847913 0.006273
0.771814 0.845711 0.021078
0.807165 0.842459 0.000000
0.841873 0.841789 0.000000
0.876827 0.835528 0.000000
0.906495 0.830392 0.000000
0.933291 0.825816 0.000000
0.952627 0.821990 0.000000
0.968873 0.818260 0.000000
0.984314 0.818260 0.000000
0.000000 0.876716 0.000000
0.000000 0.873506 0.000000
0.000000 0.873039 0.000000
0.000000 0.873529 0.000000
0.000000 0.873928 0.000000
0.000000 0.872909 0.000000
0.000000 0.873392 0.000000
0.000000 0.873529 0.000000
0.022243 0.873775 0.000000
0.129779 0.875613 0.000000
0.194347 0.875214 0.000000
0.243627 0.873529 0.000000
0.293137 0.873254 0.000000
0.335976 0.873231 0.000000
0.379657 0.873529 0.000000
0.419953 0.874487 0.000000
0.458824 0.873529 0.000000
0.495466 0.874632 0.000000
0.530147 0.874510 0.000000
0.569907 0.874686 0.000000
0.608548 0.874724 0.000000
0.648047 0.873529 0.000000
0.683824 0.873300 0.000000
0.722426 0.871898 0.000000
0.763419 0.871998 0.047059
0.796285 0.869447 0.057169
0.834176 0.868873 0.009651
0.869118 0.865686 0.000000
