luts/SG9.cube
TITLE "sample11"
LUT_3D_SIZE 5
DOMAIN_MIN 0.0 0.0 0.0
DOMAIN_MAX 1.0 1.0 1.0
0.015686 0.015686 0.015686
0.289216 0.015686 0.015686
0.600000 0.023529 0.023529
0.858824 0.036275 0.039216
1.000000 0.058824 0.058824
0.000000 0.315686 0.000000
0.308088 0.308578 0.000000
0.645588 0.278431 0.000490
0.878431 0.255147 0.029412
1.000000 0.300980 0.037255
0.000000 0.601961 0.000000
0.198529 0.609804 0.000000
0.577451 0.584314 0.000000
0.876961 0.575490 0.020098
1.000000 0.600000 0.156863
0.000000 0.817647 0.000000
0.078922 0.822549 0.000000
0.470588 0.822549 0.000000
0.784804 0.814216 0.000735
0.988235 0.798039 0.000000
0.000000 0.980392 0.000000
0.164706 0.983333 0.000000
0.462745 0.986275 0.000000
0.713726 0.988235 0.043137
0.968627 0.984314 0.066667
0.039216 0.016667 0.251961
0.262990 0.019608 0.267647
0.557843 0.025980 0.272059
0.835539 0.035539 0.251226
1.000000 0.058824 0.259804
0.035294 0.293627 0.296078
0.298468 0.287684 0.299449
0.588113 0.275368 0.284559
0.850980 0.265135 0.283333
1.000000 0.282353 0.276226
0.019608 0.586275 0.300980
0.240564 0.593015 0.251471
0.586275 0.564216 0.259559
0.880882 0.576838 0.308088
1.000000 0.594118 0.343137
0.000000 0.813480 0.272059
0.188235 0.817647 0.238480
0.489583 0.818995 0.202328
0.798346 0.809007 0.265196
0.997059 0.798039 0.289951
0.000000 0.977451 0.270588
0.201225 0.980392 0.261029
0.464706 0.984314 0.238725
0.713971 0.988235 0.314951
0.972549 0.984314 0.357843
0.082353 0.021569 0.480392
0.273039 0.027451 0.503431
0.508824 0.040196 0.542157
0.757353 0.071569 0.531373
1.000000 0.064706 0.468627
0.029412 0.275000 0.517157
0.269976 0.276838 0.529657
0.516176 0.266912 0.549020
0.770956 0.261397 0.540319
1.000000 0.182353 0.476961
0.071569 0.564706 0.554902
0.305637 0.565441 0.562500
0.558333 0.552941 0.563726
0.829167 0.555147 0.558333
1.000000 0.568627 0.555882
0.065686 0.811275 0.558333
0.320588 0.810049 0.559069
0.519363 0.813971 0.504902
0.800368 0.806005 0.551471
1.000000 0.821078 0.576471
0.100000 0.976471 0.531373
0.297059 0.976471 0.531373
0.495098 0.980392 0.509804
0.717647 0.986275 0.532353
0.976471 0.984314 0.578431
0.137255 0.035294 0.684314
0.274510 0.041422 0.692157
0.477941 0.062745 0.736765
0.740196 0.087010 0.791176
0.949020 0.114706 0.729412
0.121078 0.267157 0.701226
0.271630 0.269669 0.713419
0.483824 0.275123 0.749632
0.744608 0.263787 0.797549
0.950245 0.230392 0.740196
0.088235 0.544608 0.750490
0.296446 0.548039 0.758824
0.518382 0.555637 0.781373
0.772059 0.552941 0.808333
0.972549 0.535784 0.772549
0.196324 0.805882 0.796078
0.366728 0.803922 0.796875
0.579657 0.802328 0.803554
0.796262 0.804902 0.809498
0.993137 0.819608 0.815686
0.214706 0.976471 0.760784
0.386275 0.977941 0.768627
0.593137 0.976961 0.778431
0.781373 0.986029 0.783578
0.989216 0.980392 0.839216
0.196078 0.058824 0.850980
0.292157 0.065686 0.861765
0.470588 0.082353 0.890196
0.673529 0.114706 0.966667
0.952941 0.133333 0.976471
0.179412 0.277451 0.869608
0.287990 0.280637 0.880637
0.465196 0.288235 0.908333
0.671569 0.274755 0.973529
0.948039 0.155882 0.977451
0.245098 0.547059 0.923529
0.340686 0.549020 0.930392
0.482353 0.550980 0.951961
0.699510 0.549020 0.986765
0.958824 0.531373 0.980392
0.295098 0.779412 0.964706
0.396324 0.779657 0.964951
0.573529 0.787255 0.972549
0.770588 0.799755 0.986029
0.980392 0.800980 0.992157
0.498039 0.992157 0.976471
0.578431 0.996078 0.980392
0.709804 0.996078 0.980392
0.894118 0.997059 0.989216
1.000000 1.000000 1.000000
