luts/TealOrange.cube
TITLE "TealOrange"
LUT_3D_SIZE 5
DOMAIN_MIN 0.0 0.0 0.0
DOMAIN_MAX 1.0 1.0 1.0
0.000000 0.015000 0.070000
0.226728 0.015000 0.062525
0.483455 0.015000 0.055050
0.740182 0.015000 0.047575
0.996910 0.015000 0.040100
0.000000 0.265000 0.055325
0.239935 0.265000 0.047850
0.496662 0.265000 0.040375
0.753390 0.265000 0.032900
1.000000 0.265000 0.025425
0.000000 0.515000 0.040650
0.253143 0.515000 0.033175
0.509870 0.515000 0.025700
0.766598 0.515000 0.018225
1.000000 0.515000 0.010750
0.009623 0.765000 0.025975
0.266350 0.765000 0.018500
0.523077 0.765000 0.011025
0.779805 0.765000 0.003550
1.000000 0.765000 0.000000
0.022830 1.000000 0.011300
0.279557 1.000000 0.003825
0.536285 1.000000 0.000000
0.793012 1.000000 0.000000
1.000000 1.000000 0.000000
0.000000 0.015000 0.317150
0.229293 0.015000 0.309675
0.486020 0.015000 0.302200
0.742747 0.015000 0.294725
0.999475 0.015000 0.287250
0.000000 0.265000 0.302475
0.242500 0.265000 0.295000
0.499227 0.265000 0.287525
0.755955 0.265000 0.280050
1.000000 0.265000 0.272575
0.000000 0.515000 0.287800
0.255708 0.515000 0.280325
0.512435 0.515000 0.272850
0.769162 0.515000 0.265375
1.000000 0.515000 0.257900
0.012187 0.765000 0.273125
0.268915 0.765000 0.265650
0.525643 0.765000 0.258175
0.782370 0.765000 0.250700
1.000000 0.765000 0.243225
0.025395 1.000000 0.258450
0.282122 1.000000 0.250975
0.538850 1.000000 0.243500
0.795578 1.000000 0.236025
1.000000 1.000000 0.228550
0.000000 0.015000 0.564300
0.231858 0.015000 0.556825
0.488585 0.015000 0.549350
0.745313 0.015000 0.541875
1.000000 0.015000 0.534400
0.000000 0.265000 0.549625
0.245065 0.265000 0.542150
0.501792 0.265000 0.534675
0.758520 0.265000 0.527200
1.000000 0.265000 0.519725
0.001545 0.515000 0.534950
0.258272 0.515000 0.527475
0.515000 0.515000 0.520000
0.771728 0.515000 0.512525
1.000000 0.515000 0.505050
0.014753 0.765000 0.520275
0.271480 0.765000 0.512800
0.528207 0.765000 0.505325
0.784935 0.765000 0.497850
1.000000 0.765000 0.490375
0.027960 1.000000 0.505600
0.284688 1.000000 0.498125
0.541415 1.000000 0.490650
0.798142 1.000000 0.483175
1.000000 1.000000 0.475700
0.000000 0.015000 0.811450
0.234423 0.015000 0.803975
0.491150 0.015000 0.796500
0.747878 0.015000 0.789025
1.000000 0.015000 0.781550
0.000000 0.265000 0.796775
0.247630 0.265000 0.789300
0.504358 0.265000 0.781825
0.761085 0.265000 0.774350
1.000000 0.265000 0.766875
0.004110 0.515000 0.782100
0.260837 0.515000 0.774625
0.517565 0.515000 0.767150
0.774292 0.515000 0.759675
1.000000 0.515000 0.752200
0.017318 0.765000 0.767425
0.274045 0.765000 0.759950
0.530773 0.765000 0.752475
0.787500 0.765000 0.745000
1.000000 0.765000 0.737525
0.030525 1.000000 0.752750
0.287253 1.000000 0.745275
0.543980 1.000000 0.737800
0.800708 1.000000 0.730325
1.000000 1.000000 0.722850
0.000000 0.015000 1.000000
0.236988 0.015000 1.000000
0.493715 0.015000 1.000000
0.750443 0.015000 1.000000
1.000000 0.015000 1.000000
0.000000 0.265000 1.000000
0.250195 0.265000 1.000000
0.506922 0.265000 1.000000
0.763650 0.265000 1.000000
1.000000 0.265000 1.000000
0.006675 0.515000 1.000000
0.263403 0.515000 1.000000
0.520130 0.515000 1.000000
0.776857 0.515000 1.000000
1.000000 0.515000 0.999350
0.019883 0.765000 1.000000
0.276610 0.765000 1.000000
0.533337 0.765000 0.999625
0.790065 0.765000 0.992150
1.000000 0.765000 0.984675
0.033090 1.000000 0.999900
0.289818 1.000000 0.992425
0.546545 1.000000 0.984950
0.803272 1.000000 0.977475
1.000000 1.000000 0.970000
