luts/TealOrange.cube
TITLE "TealOrange"
LUT_3D_SIZE 17
DOMAIN_MIN 0.0 0.0 0.0
DOMAIN_MAX 1.0 1.0 1.0
0.000000 0.015000 0.070000
0.034182 0.015000 0.068131
0.098364 0.015000 0.066262
0.162546 0.015000 0.064394
0.226728 0.015000 0.062525
0.290909 0.015000 0.060656
0.355091 0.015000 0.058788
0.419273 0.015000 0.056919
0.483455 0.015000 0.055050
0.547637 0.015000 0.053181
0.611819 0.015000 0.051313
0.676001 0.015000 0.049444
0.740182 0.015000 0.047575
0.804364 0.015000 0.045706
0.868546 0.015000 0.043837
0.932728 0.015000 0.041969
0.996910 0.015000 0.040100
0.000000 0.077500 0.066331
0.037484 0.077500 0.064463
0.101666 0.077500 0.062594
0.165848 0.077500 0.060725
0.230029 0.077500 0.058856
0.294211 0.077500 0.056988
0.358393 0.077500 0.055119
0.422575 0.077500 0.053250
0.486757 0.077500 0.051381
0.550939 0.077500 0.049513
0.615121 0.077500 0.047644
0.679303 0.077500 0.045775
0.743484 0.077500 0.043906
0.807666 0.077500 0.042037
0.871848 0.077500 0.040169
0.936030 0.077500 0.038300
1.000000 0.077500 0.036431
0.000000 0.140000 0.062662
0.040786 0.140000 0.060794
0.104967 0.140000 0.058925
0.169149 0.140000 0.057056
0.233331 0.140000 0.055188
0.297513 0.140000 0.053319
0.361695 0.140000 0.051450
0.425877 0.140000 0.049581
0.490059 0.140000 0.047712
0.554241 0.140000 0.045844
0.618423 0.140000 0.043975
0.682604 0.140000 0.042106
0.746786 0.140000 0.040238
0.810968 0.140000 0.038369
0.875150 0.140000 0.036500
0.939332 0.140000 0.034631
1.000000 0.140000 0.032762
0.000000 0.202500 0.058994
0.044087 0.202500 0.057125
0.108269 0.202500 0.055256
0.172451 0.202500 0.053388
0.236633 0.202500 0.051519
0.300815 0.202500 0.049650
0.364997 0.202500 0.047781
0.429179 0.202500 0.045913
0.493361 0.202500 0.044044
0.557543 0.202500 0.042175
0.621724 0.202500 0.040306
0.685906 0.202500 0.038438
0.750088 0.202500 0.036569
0.814270 0.202500 0.034700
0.878452 0.202500 0.032831
0.942634 0.202500 0.030962
1.000000 0.202500 0.029094
0.000000 0.265000 0.055325
0.047389 0.265000 0.053456
0.111571 0.265000 0.051587
0.175753 0.265000 0.049719
0.239935 0.265000 0.047850
0.304117 0.265000 0.045981
0.368299 0.265000 0.044112
0.432481 0.265000 0.042244
0.496662 0.265000 0.040375
0.560844 0.265000 0.038506
0.625026 0.265000 0.036637
0.689208 0.265000 0.034769
0.753390 0.265000 0.032900
0.817572 0.265000 0.031031
0.881754 0.265000 0.029162
0.945936 0.265000 0.027294
1.000000 0.265000 0.025425
0.000000 0.327500 0.051656
0.050691 0.327500 0.049787
0.114873 0.327500 0.047919
0.179055 0.327500 0.046050
0.243237 0.327500 0.044181
0.307419 0.327500 0.042312
0.371601 0.327500 0.040444
0.435782 0.327500 0.038575
0.499964 0.327500 0.036706
0.564146 0.327500 0.034837
0.628328 0.327500 0.032969
0.692510 0.327500 0.031100
0.756692 0.327500 0.029231
0.820874 0.327500 0.027363
0.885056 0.327500 0.025494
0.949238 0.327500 0.023625
1.000000 0.327500 0.021756
0.000000 0.390000 0.047987
0.053993 0.390000 0.046119
0.118175 0.390000 0.044250
0.182357 0.390000 0.042381
0.246539 0.390000 0.040512
0.310721 0.390000 0.038644
0.374903 0.390000 0.036775
0.439084 0.390000 0.034906
0.503266 0.390000 0.033038
0.567448 0.390000 0.031169
0.631630 0.390000 0.029300
0.695812 0.390000 0.027431
0.759994 0.390000 0.025563
0.824176 0.390000 0.023694
0.888357 0.390000 0.021825
0.952539 0.390000 0.019956
1.000000 0.390000 0.018088
0.000000 0.452500 0.044319
0.057295 0.452500 0.042450
0.121477 0.452500 0.040581
0.185659 0.452500 0.038712
0.249841 0.452500 0.036844
0.314022 0.452500 0.034975
0.378204 0.452500 0.033106
0.442386 0.452500 0.031238
0.506568 0.452500 0.029369
0.570750 0.452500 0.027500
0.634932 0.452500 0.025631
0.699114 0.452500 0.023762
0.763296 0.452500 0.021894
0.827478 0.452500 0.020025
0.891659 0.452500 0.018156
0.955841 0.452500 0.016288
1.000000 0.452500 0.014419
0.000000 0.515000 0.040650
0.060597 0.515000 0.038781
0.124779 0.515000 0.036913
0.188961 0.515000 0.035044
0.253143 0.515000 0.033175
0.317324 0.515000 0.031306
0.381506 0.515000 0.029438
0.445688 0.515000 0.027569
0.509870 0.515000 0.025700
0.574052 0.515000 0.023831
0.638234 0.515000 0.021963
0.702416 0.515000 0.020094
0.766598 0.515000 0.018225
0.830779 0.515000 0.016356
0.894961 0.515000 0.014487
0.959143 0.515000 0.012619
1.000000 0.515000 0.010750
0.000000 0.577500 0.036981
0.063899 0.577500 0.035113
0.128081 0.577500 0.033244
0.192263 0.577500 0.031375
0.256444 0.577500 0.029506
0.320626 0.577500 0.027638
0.384808 0.577500 0.025769
0.448990 0.577500 0.023900
0.513172 0.577500 0.022031
0.577354 0.577500 0.020163
0.641536 0.577500 0.018294
0.705718 0.577500 0.016425
0.769899 0.577500 0.014556
0.834081 0.577500 0.012688
0.898263 0.577500 0.010819
0.962445 0.577500 0.008950
1.000000 0.577500 0.007081
0.003019 0.640000 0.033312
0.067201 0.640000 0.031444
0.131383 0.640000 0.029575
0.195564 0.640000 0.027706
0.259746 0.640000 0.025837
0.323928 0.640000 0.023969
0.388110 0.640000 0.022100
0.452292 0.640000 0.020231
0.516474 0.640000 0.018362
0.580656 0.640000 0.016494
0.644837 0.640000 0.014625
0.709019 0.640000 0.012756
0.773201 0.640000 0.010887
0.837383 0.640000 0.009019
0.901565 0.640000 0.007150
0.965747 0.640000 0.005281
1.000000 0.640000 0.003413
0.006321 0.702500 0.029644
0.070503 0.702500 0.027775
0.134684 0.702500 0.025906
0.198866 0.702500 0.024038
0.263048 0.702500 0.022169
0.327230 0.702500 0.020300
0.391412 0.702500 0.018431
0.455594 0.702500 0.016562
0.519776 0.702500 0.014694
0.583957 0.702500 0.012825
0.648139 0.702500 0.010956
0.712321 0.702500 0.009087
0.776503 0.702500 0.007219
0.840685 0.702500 0.005350
0.904867 0.702500 0.003481
0.969049 0.702500 0.001612
1.000000 0.702500 0.000000
0.009623 0.765000 0.025975
0.073804 0.765000 0.024106
0.137986 0.765000 0.022238
0.202168 0.765000 0.020369
0.266350 0.765000 0.018500
0.330532 0.765000 0.016631
0.394714 0.765000 0.014762
0.458896 0.765000 0.012894
0.523077 0.765000 0.011025
0.587259 0.765000 0.009156
0.651441 0.765000 0.007287
0.715623 0.765000 0.005419
0.779805 0.765000 0.003550
0.843987 0.765000 0.001681
0.908169 0.765000 0.000000
0.972351 0.765000 0.000000
1.000000 0.765000 0.000000
0.012924 0.827500 0.022306
0.077106 0.827500 0.020437
0.141288 0.827500 0.018569
0.205470 0.827500 0.016700
0.269652 0.827500 0.014831
0.333834 0.827500 0.012962
0.398016 0.827500 0.011094
0.462197 0.827500 0.009225
0.526379 0.827500 0.007356
0.590561 0.827500 0.005487
0.654743 0.827500 0.003619
0.718925 0.827500 0.001750
0.783107 0.827500 0.000000
0.847289 0.827500 0.000000
0.911471 0.827500 0.000000
0.975653 0.827500 0.000000
1.000000 0.827500 0.000000
0.016226 0.890000 0.018637
0.080408 0.890000 0.016769
0.144590 0.890000 0.014900
0.208772 0.890000 0.013031
0.272954 0.890000 0.011162
0.337136 0.890000 0.009294
0.401318 0.890000 0.007425
0.465499 0.890000 0.005556
0.529681 0.890000 0.003687
0.593863 0.890000 0.001819
0.658045 0.890000 0.000000
0.722227 0.890000 0.000000
0.786409 0.890000 0.000000
0.850591 0.890000 0.000000
0.914773 0.890000 0.000000
0.978954 0.890000 0.000000
1.000000 0.890000 0.000000
0.019528 0.952500 0.014969
0.083710 0.952500 0.013100
0.147892 0.952500 0.011231
0.212074 0.952500 0.009362
0.276256 0.952500 0.007494
0.340438 0.952500 0.005625
0.404619 0.952500 0.003756
0.468801 0.952500 0.001887
0.532983 0.952500 0.000019
0.597165 0.952500 0.000000
0.661347 0.952500 0.000000
0.725529 0.952500 0.000000
0.789711 0.952500 0.000000
0.853893 0.952500 0.000000
0.918074 0.952500 0.000000
0.982256 0.952500 0.000000
1.000000 0.952500 0.000000
0.022830 1.000000 0.011300
0.087012 1.000000 0.009431
0.151194 1.000000 0.007563
0.215376 1.000000 0.005694
0.279557 1.000000 0.003825
0.343739 1.000000 0.001956
0.407921 1.000000 0.000088
0.472103 1.000000 0.000000
0.536285 1.000000 0.000000
0.600467 1.000000 0.000000
0.664649 1.000000 0.000000
0.728831 1.000000 0.000000
0.793012 1.000000 0.000000
0.857194 1.000000 0.000000
0.921376 1.000000 0.000000
0.985558 1.000000 0.000000
1.000000 1.000000 0.000000
0.000000 0.015000 0.131787
0.034823 0.015000 0.129919
0.099005 0.015000 0.128050
0.163187 0.015000 0.126181
0.227369 0.015000 0.124313
0.291551 0.015000 0.122444
0.355733 0.015000 0.120575
0.419914 0.015000 0.118706
0.484096 0.015000 0.116837
0.548278 0.015000 0.114969
0.612460 0.015000 0.113100
0.676642 0.015000 0.111231
0.740824 0.015000 0.109363
0.805006 0.015000 0.107494
0.869188 0.015000 0.105625
0.933369 0.015000 0.103756
0.997551 0.015000 0.101888
0.000000 0.077500 0.128119
0.038125 0.077500 0.126250
0.102307 0.077500 0.124381
0.166489 0.077500 0.122513
0.230671 0.077500 0.120644
0.294852 0.077500 0.118775
0.359034 0.077500 0.116906
0.423216 0.077500 0.115038
0.487398 0.077500 0.113169
0.551580 0.077500 0.111300
0.615762 0.077500 0.109431
0.679944 0.077500 0.107563
0.744126 0.077500 0.105694
0.808308 0.077500 0.103825
0.872489 0.077500 0.101956
0.936671 0.077500 0.100087
1.000000 0.077500 0.098219
0.000000 0.140000 0.124450
0.041427 0.140000 0.122581
0.105609 0.140000 0.120713
0.169791 0.140000 0.118844
0.233973 0.140000 0.116975
0.298154 0.140000 0.115106
0.362336 0.140000 0.113238
0.426518 0.140000 0.111369
0.490700 0.140000 0.109500
0.554882 0.140000 0.107631
0.619064 0.140000 0.105762
0.683246 0.140000 0.103894
0.747427 0.140000 0.102025
0.811609 0.140000 0.100156
0.875791 0.140000 0.098288
0.939973 0.140000 0.096419
1.000000 0.140000 0.094550
0.000000 0.202500 0.120781
0.044729 0.202500 0.118913
0.108911 0.202500 0.117044
0.173093 0.202500 0.115175
0.237274 0.202500 0.113306
0.301456 0.202500 0.111437
0.365638 0.202500 0.109569
0.429820 0.202500 0.107700
0.494002 0.202500 0.105831
0.558184 0.202500 0.103962
0.622366 0.202500 0.102094
0.686548 0.202500 0.100225
0.750729 0.202500 0.098356
0.814911 0.202500 0.096487
0.879093 0.202500 0.094619
0.943275 0.202500 0.092750
1.000000 0.202500 0.090881
0.000000 0.265000 0.117112
0.048031 0.265000 0.115244
0.112212 0.265000 0.113375
0.176394 0.265000 0.111506
0.240576 0.265000 0.109637
0.304758 0.265000 0.107769
0.368940 0.265000 0.105900
0.433122 0.265000 0.104031
0.497304 0.265000 0.102163
0.561486 0.265000 0.100294
0.625668 0.265000 0.098425
0.689849 0.265000 0.096556
0.754031 0.265000 0.094688
0.818213 0.265000 0.092819
0.882395 0.265000 0.090950
0.946577 0.265000 0.089081
1.000000 0.265000 0.087213
0.000000 0.327500 0.113444
0.051333 0.327500 0.111575
0.115514 0.327500 0.109706
0.179696 0.327500 0.107838
0.243878 0.327500 0.105969
0.308060 0.327500 0.104100
0.372242 0.327500 0.102231
0.436424 0.327500 0.100363
0.500606 0.327500 0.098494
0.564788 0.327500 0.096625
0.628969 0.327500 0.094756
0.693151 0.327500 0.092888
0.757333 0.327500 0.091019
0.821515 0.327500 0.089150
0.885697 0.327500 0.087281
0.949879 0.327500 0.085412
1.000000 0.327500 0.083544
0.000000 0.390000 0.109775
0.054634 0.390000 0.107906
0.118816 0.390000 0.106038
0.182998 0.390000 0.104169
0.247180 0.390000 0.102300
0.311362 0.390000 0.100431
0.375544 0.390000 0.098563
0.439726 0.390000 0.096694
0.503908 0.390000 0.094825
0.568089 0.390000 0.092956
0.632271 0.390000 0.091088
0.696453 0.390000 0.089219
0.760635 0.390000 0.087350
0.824817 0.390000 0.085481
0.888999 0.390000 0.083612
0.953181 0.390000 0.081744
1.000000 0.390000 0.079875
0.000000 0.452500 0.106106
0.057936 0.452500 0.104238
0.122118 0.452500 0.102369
0.186300 0.452500 0.100500
0.250482 0.452500 0.098631
0.314664 0.452500 0.096762
0.378846 0.452500 0.094894
0.443027 0.452500 0.093025
0.507209 0.452500 0.091156
0.571391 0.452500 0.089287
0.635573 0.452500 0.087419
0.699755 0.452500 0.085550
0.763937 0.452500 0.083681
0.828119 0.452500 0.081813
0.892301 0.452500 0.079944
0.956483 0.452500 0.078075
1.000000 0.452500 0.076206
0.000000 0.515000 0.102438
0.061238 0.515000 0.100569
0.125420 0.515000 0.098700
0.189602 0.515000 0.096831
0.253784 0.515000 0.094963
0.317966 0.515000 0.093094
0.382147 0.515000 0.091225
0.446329 0.515000 0.089356
0.510511 0.515000 0.087487
0.574693 0.515000 0.085619
0.638875 0.515000 0.083750
0.703057 0.515000 0.081881
0.767239 0.515000 0.080013
0.831421 0.515000 0.078144
0.895602 0.515000 0.076275
0.959784 0.515000 0.074406
1.000000 0.515000 0.072538
0.000358 0.577500 0.098769
0.064540 0.577500 0.096900
0.128722 0.577500 0.095031
0.192904 0.577500 0.093162
0.257086 0.577500 0.091294
0.321267 0.577500 0.089425
0.385449 0.577500 0.087556
0.449631 0.577500 0.085688
0.513813 0.577500 0.083819
0.577995 0.577500 0.081950
0.642177 0.577500 0.080081
0.706359 0.577500 0.078212
0.770541 0.577500 0.076344
0.834723 0.577500 0.074475
0.898904 0.577500 0.072606
0.963086 0.577500 0.070737
1.000000 0.577500 0.068869
0.003660 0.640000 0.095100
0.067842 0.640000 0.093231
0.132024 0.640000 0.091363
0.196206 0.640000 0.089494
0.260388 0.640000 0.087625
0.324569 0.640000 0.085756
0.388751 0.640000 0.083888
0.452933 0.640000 0.082019
0.517115 0.640000 0.080150
0.581297 0.640000 0.078281
0.645479 0.640000 0.076412
0.709661 0.640000 0.074544
0.773843 0.640000 0.072675
0.838024 0.640000 0.070806
0.902206 0.640000 0.068938
0.966388 0.640000 0.067069
1.000000 0.640000 0.065200
0.006962 0.702500 0.091431
0.071144 0.702500 0.089563
0.135326 0.702500 0.087694
0.199508 0.702500 0.085825
0.263689 0.702500 0.083956
0.327871 0.702500 0.082088
0.392053 0.702500 0.080219
0.456235 0.702500 0.078350
0.520417 0.702500 0.076481
0.584599 0.702500 0.074612
0.648781 0.702500 0.072744
0.712963 0.702500 0.070875
0.777144 0.702500 0.069006
0.841326 0.702500 0.067137
0.905508 0.702500 0.065269
0.969690 0.702500 0.063400
1.000000 0.702500 0.061531
0.010264 0.765000 0.087762
0.074446 0.765000 0.085894
0.138627 0.765000 0.084025
0.202809 0.765000 0.082156
0.266991 0.765000 0.080287
0.331173 0.765000 0.078419
0.395355 0.765000 0.076550
0.459537 0.765000 0.074681
0.523719 0.765000 0.072812
0.587901 0.765000 0.070944
0.652083 0.765000 0.069075
0.716264 0.765000 0.067206
0.780446 0.765000 0.065337
0.844628 0.765000 0.063469
0.908810 0.765000 0.061600
0.972992 0.765000 0.059731
1.000000 0.765000 0.057862
0.013566 0.827500 0.084094
0.077748 0.827500 0.082225
0.141929 0.827500 0.080356
0.206111 0.827500 0.078488
0.270293 0.827500 0.076619
0.334475 0.827500 0.074750
0.398657 0.827500 0.072881
0.462839 0.827500 0.071012
0.527021 0.827500 0.069144
0.591202 0.827500 0.067275
0.655384 0.827500 0.065406
0.719566 0.827500 0.063538
0.783748 0.827500 0.061669
0.847930 0.827500 0.059800
0.912112 0.827500 0.057931
0.976294 0.827500 0.056062
1.000000 0.827500 0.054194
0.016868 0.890000 0.080425
0.081049 0.890000 0.078556
0.145231 0.890000 0.076687
0.209413 0.890000 0.074819
0.273595 0.890000 0.072950
0.337777 0.890000 0.071081
0.401959 0.890000 0.069212
0.466141 0.890000 0.067344
0.530322 0.890000 0.065475
0.594504 0.890000 0.063606
0.658686 0.890000 0.061737
0.722868 0.890000 0.059869
0.787050 0.890000 0.058000
0.851232 0.890000 0.056131
0.915414 0.890000 0.054262
0.979596 0.890000 0.052394
1.000000 0.890000 0.050525
0.020169 0.952500 0.076756
0.084351 0.952500 0.074887
0.148533 0.952500 0.073019
0.212715 0.952500 0.071150
0.276897 0.952500 0.069281
0.341079 0.952500 0.067412
0.405261 0.952500 0.065544
0.469442 0.952500 0.063675
0.533624 0.952500 0.061806
0.597806 0.952500 0.059937
0.661988 0.952500 0.058069
0.726170 0.952500 0.056200
0.790352 0.952500 0.054331
0.854534 0.952500 0.052462
0.918716 0.952500 0.050594
0.982898 0.952500 0.048725
1.000000 0.952500 0.046856
0.023471 1.000000 0.073087
0.087653 1.000000 0.071219
0.151835 1.000000 0.069350
0.216017 1.000000 0.067481
0.280199 1.000000 0.065612
0.344381 1.000000 0.063744
0.408563 1.000000 0.061875
0.472744 1.000000 0.060006
0.536926 1.000000 0.058137
0.601108 1.000000 0.056269
0.665290 1.000000 0.054400
0.729472 1.000000 0.052531
0.793654 1.000000 0.050663
0.857836 1.000000 0.048794
0.922018 1.000000 0.046925
0.986199 1.000000 0.045056
1.000000 1.000000 0.043187
0.000000 0.015000 0.193575
0.035464 0.015000 0.191706
0.099646 0.015000 0.189838
0.163828 0.015000 0.187969
0.228010 0.015000 0.186100
0.292192 0.015000 0.184231
0.356374 0.015000 0.182363
0.420556 0.015000 0.180494
0.484737 0.015000 0.178625
0.548919 0.015000 0.176756
0.613101 0.015000 0.174888
0.677283 0.015000 0.173019
0.741465 0.015000 0.171150
0.805647 0.015000 0.169281
0.869829 0.015000 0.167412
0.934011 0.015000 0.165544
0.998192 0.015000 0.163675
0.000000 0.077500 0.189906
0.038766 0.077500 0.188037
0.102948 0.077500 0.186169
0.167130 0.077500 0.184300
0.231312 0.077500 0.182431
0.295494 0.077500 0.180563
0.359676 0.077500 0.178694
0.423858 0.077500 0.176825
0.488039 0.077500 0.174956
0.552221 0.077500 0.173087
0.616403 0.077500 0.171219
0.680585 0.077500 0.169350
0.744767 0.077500 0.167481
0.808949 0.077500 0.165612
0.873131 0.077500 0.163744
0.937312 0.077500 0.161875
1.000000 0.077500 0.160006
0.000000 0.140000 0.186238
0.042068 0.140000 0.184369
0.106250 0.140000 0.182500
0.170432 0.140000 0.180631
0.234614 0.140000 0.178762
0.298796 0.140000 0.176894
0.362978 0.140000 0.175025
0.427159 0.140000 0.173156
0.491341 0.140000 0.171287
0.555523 0.140000 0.169419
0.619705 0.140000 0.167550
0.683887 0.140000 0.165681
0.748069 0.140000 0.163813
0.812251 0.140000 0.161944
0.876433 0.140000 0.160075
0.940614 0.140000 0.158206
1.000000 0.140000 0.156337
0.000000 0.202500 0.182569
0.045370 0.202500 0.180700
0.109552 0.202500 0.178831
0.173734 0.202500 0.176962
0.237916 0.202500 0.175094
0.302097 0.202500 0.173225
0.366279 0.202500 0.171356
0.430461 0.202500 0.169488
0.494643 0.202500 0.167619
0.558825 0.202500 0.165750
0.623007 0.202500 0.163881
0.687189 0.202500 0.162013
0.751371 0.202500 0.160144
0.815552 0.202500 0.158275
0.879734 0.202500 0.156406
0.943916 0.202500 0.154537
1.000000 0.202500 0.152669
0.000000 0.265000 0.178900
0.048672 0.265000 0.177031
0.112854 0.265000 0.175162
0.177036 0.265000 0.173294
0.241217 0.265000 0.171425
0.305399 0.265000 0.169556
0.369581 0.265000 0.167688
0.433763 0.265000 0.165819
0.497945 0.265000 0.163950
0.562127 0.265000 0.162081
0.626309 0.265000 0.160213
0.690491 0.265000 0.158344
0.754672 0.265000 0.156475
0.818854 0.265000 0.154606
0.883036 0.265000 0.152737
0.947218 0.265000 0.150869
1.000000 0.265000 0.149000
0.000000 0.327500 0.175231
0.051974 0.327500 0.173363
0.116156 0.327500 0.171494
0.180337 0.327500 0.169625
0.244519 0.327500 0.167756
0.308701 0.327500 0.165888
0.372883 0.327500 0.164019
0.437065 0.327500 0.162150
0.501247 0.327500 0.160281
0.565429 0.327500 0.158412
0.629611 0.327500 0.156544
0.693793 0.327500 0.154675
0.757974 0.327500 0.152806
0.822156 0.327500 0.150938
0.886338 0.327500 0.149069
0.950520 0.327500 0.147200
1.000000 0.327500 0.145331
0.000000 0.390000 0.171563
0.055276 0.390000 0.169694
0.119457 0.390000 0.167825
0.183639 0.390000 0.165956
0.247821 0.390000 0.164087
0.312003 0.390000 0.162219
0.376185 0.390000 0.160350
0.440367 0.390000 0.158481
0.504549 0.390000 0.156613
0.568731 0.390000 0.154744
0.632913 0.390000 0.152875
0.697094 0.390000 0.151006
0.761276 0.390000 0.149137
0.825458 0.390000 0.147269
0.889640 0.390000 0.145400
0.953822 0.390000 0.143531
1.000000 0.390000 0.141662
0.000000 0.452500 0.167894
0.058578 0.452500 0.166025
0.122759 0.452500 0.164156
0.186941 0.452500 0.162287
0.251123 0.452500 0.160419
0.315305 0.452500 0.158550
0.379487 0.452500 0.156681
0.443669 0.452500 0.154812
0.507851 0.452500 0.152944
0.572033 0.452500 0.151075
0.636214 0.452500 0.149206
0.700396 0.452500 0.147337
0.764578 0.452500 0.145469
0.828760 0.452500 0.143600
0.892942 0.452500 0.141731
0.957124 0.452500 0.139863
1.000000 0.452500 0.137994
0.000000 0.515000 0.164225
0.061879 0.515000 0.162356
0.126061 0.515000 0.160488
0.190243 0.515000 0.158619
0.254425 0.515000 0.156750
0.318607 0.515000 0.154881
0.382789 0.515000 0.153012
0.446971 0.515000 0.151144
0.511153 0.515000 0.149275
0.575334 0.515000 0.147406
0.639516 0.515000 0.145537
0.703698 0.515000 0.143669
0.767880 0.515000 0.141800
0.832062 0.515000 0.139931
0.896244 0.515000 0.138063
0.960426 0.515000 0.136194
1.000000 0.515000 0.134325
0.000999 0.577500 0.160556
0.065181 0.577500 0.158688
0.129363 0.577500 0.156819
0.193545 0.577500 0.154950
0.257727 0.577500 0.153081
0.321909 0.577500 0.151212
0.386091 0.577500 0.149344
0.450273 0.577500 0.147475
0.514454 0.577500 0.145606
0.578636 0.577500 0.143738
0.642818 0.577500 0.141869
0.707000 0.577500 0.140000
0.771182 0.577500 0.138131
0.835364 0.577500 0.136263
0.899546 0.577500 0.134394
0.963727 0.577500 0.132525
1.000000 0.577500 0.130656
0.004301 0.640000 0.156888
0.068483 0.640000 0.155019
0.132665 0.640000 0.153150
0.196847 0.640000 0.151281
0.261029 0.640000 0.149412
0.325211 0.640000 0.147544
0.389392 0.640000 0.145675
0.453574 0.640000 0.143806
0.517756 0.640000 0.141938
0.581938 0.640000 0.140069
0.646120 0.640000 0.138200
0.710302 0.640000 0.136331
0.774484 0.640000 0.134462
0.838666 0.640000 0.132594
0.902847 0.640000 0.130725
0.967029 0.640000 0.128856
1.000000 0.640000 0.126988
0.007603 0.702500 0.153219
0.071785 0.702500 0.151350
0.135967 0.702500 0.149481
0.200149 0.702500 0.147612
0.264331 0.702500 0.145744
0.328512 0.702500 0.143875
0.392694 0.702500 0.142006
0.456876 0.702500 0.140137
0.521058 0.702500 0.138269
0.585240 0.702500 0.136400
0.649422 0.702500 0.134531
0.713604 0.702500 0.132662
0.777786 0.702500 0.130794
0.841968 0.702500 0.128925
0.906149 0.702500 0.127056
0.970331 0.702500 0.125188
1.000000 0.702500 0.123319
0.010905 0.765000 0.149550
0.075087 0.765000 0.147681
0.139269 0.765000 0.145812
0.203451 0.765000 0.143944
0.267632 0.765000 0.142075
0.331814 0.765000 0.140206
0.395996 0.765000 0.138337
0.460178 0.765000 0.136469
0.524360 0.765000 0.134600
0.588542 0.765000 0.132731
0.652724 0.765000 0.130863
0.716906 0.765000 0.128994
0.781088 0.765000 0.127125
0.845269 0.765000 0.125256
0.909451 0.765000 0.123388
0.973633 0.765000 0.121519
1.000000 0.765000 0.119650
0.014207 0.827500 0.145881
0.078389 0.827500 0.144012
0.142571 0.827500 0.142144
0.206753 0.827500 0.140275
0.270934 0.827500 0.138406
0.335116 0.827500 0.136537
0.399298 0.827500 0.134669
0.463480 0.827500 0.132800
0.527662 0.827500 0.130931
0.591844 0.827500 0.129063
0.656026 0.827500 0.127194
0.720208 0.827500 0.125325
0.784389 0.827500 0.123456
0.848571 0.827500 0.121587
0.912753 0.827500 0.119719
0.976935 0.827500 0.117850
1.000000 0.827500 0.115981
0.017509 0.890000 0.142212
0.081691 0.890000 0.140344
0.145873 0.890000 0.138475
0.210054 0.890000 0.136606
0.274236 0.890000 0.134738
0.338418 0.890000 0.132869
0.402600 0.890000 0.131000
0.466782 0.890000 0.129131
0.530964 0.890000 0.127263
0.595146 0.890000 0.125394
0.659328 0.890000 0.123525
0.723509 0.890000 0.121656
0.787691 0.890000 0.119788
0.851873 0.890000 0.117919
0.916055 0.890000 0.116050
0.980237 0.890000 0.114181
1.000000 0.890000 0.112312
0.020811 0.952500 0.138544
0.084992 0.952500 0.136675
0.149174 0.952500 0.134806
0.213356 0.952500 0.132938
0.277538 0.952500 0.131069
0.341720 0.952500 0.129200
0.405902 0.952500 0.127331
0.470084 0.952500 0.125462
0.534266 0.952500 0.123594
0.598448 0.952500 0.121725
0.662629 0.952500 0.119856
0.726811 0.952500 0.117988
0.790993 0.952500 0.116119
0.855175 0.952500 0.114250
0.919357 0.952500 0.112381
0.983539 0.952500 0.110512
1.000000 0.952500 0.108644
0.024113 1.000000 0.134875
0.088294 1.000000 0.133006
0.152476 1.000000 0.131138
0.216658 1.000000 0.129269
0.280840 1.000000 0.127400
0.345022 1.000000 0.125531
0.409204 1.000000 0.123663
0.473386 1.000000 0.121794
0.537567 1.000000 0.119925
0.601749 1.000000 0.118056
0.665931 1.000000 0.116187
0.730113 1.000000 0.114319
0.794295 1.000000 0.112450
0.858477 1.000000 0.110581
0.922659 1.000000 0.108712
0.986841 1.000000 0.106844
1.000000 1.000000 0.104975
0.000000 0.015000 0.255362
0.036106 0.015000 0.253494
0.100288 0.015000 0.251625
0.164469 0.015000 0.249756
0.228651 0.015000 0.247888
0.292833 0.015000 0.246019
0.357015 0.015000 0.244150
0.421197 0.015000 0.242281
0.485379 0.015000 0.240412
0.549561 0.015000 0.238544
0.613742 0.015000 0.236675
0.677924 0.015000 0.234806
0.742106 0.015000 0.232938
0.806288 0.015000 0.231069
0.870470 0.015000 0.229200
0.934652 0.015000 0.227331
0.998834 0.015000 0.225462
0.000000 0.077500 0.251694
