luts/TealOrange.cube
TITLE "TealOrange"
LUT_3D_SIZE 9
DOMAIN_MIN 0.0 0.0 0.0
DOMAIN_MAX 1.0 1.0 1.0
0.000000 0.015000 0.070000
0.098364 0.015000 0.066262
0.226728 0.015000 0.062525
0.355091 0.015000 0.058788
0.483455 0.015000 0.055050
0.611819 0.015000 0.051313
0.740182 0.015000 0.047575
0.868546 0.015000 0.043837
0.996910 0.015000 0.040100
0.000000 0.140000 0.062662
0.104967 0.140000 0.058925
0.233331 0.140000 0.055188
0.361695 0.140000 0.051450
0.490059 0.140000 0.047712
0.618423 0.140000 0.043975
0.746786 0.140000 0.040238
0.875150 0.140000 0.036500
1.000000 0.140000 0.032762
0.000000 0.265000 0.055325
0.111571 0.265000 0.051587
0.239935 0.265000 0.047850
0.368299 0.265000 0.044112
0.496662 0.265000 0.040375
0.625026 0.265000 0.036637
0.753390 0.265000 0.032900
0.881754 0.265000 0.029162
1.000000 0.265000 0.025425
0.000000 0.390000 0.047987
0.118175 0.390000 0.044250
0.246539 0.390000 0.040512
0.374903 0.390000 0.036775
0.503266 0.390000 0.033038
0.631630 0.390000 0.029300
0.759994 0.390000 0.025563
0.888357 0.390000 0.021825
1.000000 0.390000 0.018088
0.000000 0.515000 0.040650
0.124779 0.515000 0.036913
0.253143 0.515000 0.033175
0.381506 0.515000 0.029438
0.509870 0.515000 0.025700
0.638234 0.515000 0.021963
0.766598 0.515000 0.018225
0.894961 0.515000 0.014487
1.000000 0.515000 0.010750
0.003019 0.640000 0.033312
0.131383 0.640000 0.029575
0.259746 0.640000 0.025837
0.388110 0.640000 0.022100
0.516474 0.640000 0.018362
0.644837 0.640000 0.014625
0.773201 0.640000 0.010887
0.901565 0.640000 0.007150
1.000000 0.640000 0.003413
0.009623 0.765000 0.025975
0.137986 0.765000 0.022238
0.266350 0.765000 0.018500
0.394714 0.765000 0.014762
0.523077 0.765000 0.011025
0.651441 0.765000 0.007287
0.779805 0.765000 0.003550
0.908169 0.765000 0.000000
1.000000 0.765000 0.000000
0.016226 0.890000 0.018637
0.144590 0.890000 0.014900
0.272954 0.890000 0.011162
0.401318 0.890000 0.007425
0.529681 0.890000 0.003687
0.658045 0.890000 0.000000
0.786409 0.890000 0.000000
0.914773 0.890000 0.000000
1.000000 0.890000 0.000000
0.022830 1.000000 0.011300
0.151194 1.000000 0.007563
0.279557 1.000000 0.003825
0.407921 1.000000 0.000088
0.536285 1.000000 0.000000
0.664649 1.000000 0.000000
0.793012 1.000000 0.000000
0.921376 1.000000 0.000000
1.000000 1.000000 0.000000
0.000000 0.015000 0.193575
0.099646 0.015000 0.189838
0.228010 0.015000 0.186100
0.356374 0.015000 0.182363
0.484737 0.015000 0.178625
0.613101 0.015000 0.174888
0.741465 0.015000 0.171150
0.869829 0.015000 0.167412
0.998192 0.015000 0.163675
0.000000 0.140000 0.186238
0.106250 0.140000 0.182500
0.234614 0.140000 0.178762
0.362978 0.140000 0.175025
0.491341 0.140000 0.171287
0.619705 0.140000 0.167550
0.748069 0.140000 0.163813
0.876433 0.140000 0.160075
1.000000 0.140000 0.156337
0.000000 0.265000 0.178900
0.112854 0.265000 0.175162
0.241217 0.265000 0.171425
0.369581 0.265000 0.167688
0.497945 0.265000 0.163950
0.626309 0.265000 0.160213
0.754672 0.265000 0.156475
0.883036 0.265000 0.152737
1.000000 0.265000 0.149000
0.000000 0.390000 0.171563
0.119457 0.390000 0.167825
0.247821 0.390000 0.164087
0.376185 0.390000 0.160350
0.504549 0.390000 0.156613
0.632913 0.390000 0.152875
0.761276 0.390000 0.149137
0.889640 0.390000 0.145400
1.000000 0.390000 0.141662
0.000000 0.515000 0.164225
0.126061 0.515000 0.160488
0.254425 0.515000 0.156750
0.382789 0.515000 0.153012
0.511153 0.515000 0.149275
0.639516 0.515000 0.145537
0.767880 0.515000 0.141800
0.896244 0.515000 0.138063
1.000000 0.515000 0.134325
0.004301 0.640000 0.156888
0.132665 0.640000 0.153150
0.261029 0.640000 0.149412
0.389392 0.640000 0.145675
0.517756 0.640000 0.141938
0.646120 0.640000 0.138200
0.774484 0.640000 0.134462
0.902847 0.640000 0.130725
1.000000 0.640000 0.126988
0.010905 0.765000 0.149550
0.139269 0.765000 0.145812
0.267632 0.765000 0.142075
0.395996 0.765000 0.138337
0.524360 0.765000 0.134600
0.652724 0.765000 0.130863
0.781088 0.765000 0.127125
0.909451 0.765000 0.123388
1.000000 0.765000 0.119650
0.017509 0.890000 0.142212
0.145873 0.890000 0.138475
0.274236 0.890000 0.134738
0.402600 0.890000 0.131000
0.530964 0.890000 0.127263
0.659328 0.890000 0.123525
0.787691 0.890000 0.119788
0.916055 0.890000 0.116050
1.000000 0.890000 0.112312
0.024113 1.000000 0.134875
0.152476 1.000000 0.131138
0.280840 1.000000 0.127400
0.409204 1.000000 0.123663
0.537567 1.000000 0.119925
0.665931 1.000000 0.116187
0.794295 1.000000 0.112450
0.922659 1.000000 0.108712
1.000000 1.000000 0.104975
0.000000 0.015000 0.317150
0.100929 0.015000 0.313412
0.229293 0.015000 0.309675
0.357656 0.015000 0.305937
0.486020 0.015000 0.302200
0.614384 0.015000 0.298462
0.742747 0.015000 0.294725
0.871111 0.015000 0.290988
0.999475 0.015000 0.287250
0.000000 0.140000 0.309812
0.107533 0.140000 0.306075
0.235896 0.140000 0.302337
0.364260 0.140000 0.298600
0.492624 0.140000 0.294863
0.620987 0.140000 0.291125
0.749351 0.140000 0.287387
0.877715 0.140000 0.283650
1.000000 0.140000 0.279913
0.000000 0.265000 0.302475
0.114136 0.265000 0.298737
0.242500 0.265000 0.295000
0.370864 0.265000 0.291263
0.499227 0.265000 0.287525
0.627591 0.265000 0.283787
0.755955 0.265000 0.280050
0.884319 0.265000 0.276313
1.000000 0.265000 0.272575
0.000000 0.390000 0.295137
0.120740 0.390000 0.291400
0.249104 0.390000 0.287663
0.377468 0.390000 0.283925
0.505831 0.390000 0.280187
0.634195 0.390000 0.276450
0.762559 0.390000 0.272712
0.890922 0.390000 0.268975
1.000000 0.390000 0.265238
0.000000 0.515000 0.287800
0.127344 0.515000 0.284063
0.255708 0.515000 0.280325
0.384071 0.515000 0.276587
0.512435 0.515000 0.272850
0.640799 0.515000 0.269112
0.769162 0.515000 0.265375
0.897526 0.515000 0.261638
1.000000 0.515000 0.257900
0.005584 0.640000 0.280463
0.133948 0.640000 0.276725
0.262311 0.640000 0.272988
0.390675 0.640000 0.269250
0.519039 0.640000 0.265512
0.647403 0.640000 0.261775
0.775766 0.640000 0.258038
0.904130 0.640000 0.254300
1.000000 0.640000 0.250562
0.012187 0.765000 0.273125
0.140551 0.765000 0.269388
0.268915 0.765000 0.265650
0.397279 0.765000 0.261912
0.525643 0.765000 0.258175
0.654006 0.765000 0.254437
0.782370 0.765000 0.250700
0.910734 0.765000 0.246963
1.000000 0.765000 0.243225
0.018791 0.890000 0.265787
0.147155 0.890000 0.262050
0.275519 0.890000 0.258312
0.403883 0.890000 0.254575
0.532246 0.890000 0.250837
0.660610 0.890000 0.247100
0.788974 0.890000 0.243363
0.917337 0.890000 0.239625
1.000000 0.890000 0.235887
0.025395 1.000000 0.258450
0.153759 1.000000 0.254713
0.282122 1.000000 0.250975
0.410486 1.000000 0.247237
0.538850 1.000000 0.243500
0.667214 1.000000 0.239763
0.795578 1.000000 0.236025
0.923941 1.000000 0.232287
1.000000 1.000000 0.228550
0.000000 0.015000 0.440725
0.102211 0.015000 0.436988
0.230575 0.015000 0.433250
0.358939 0.015000 0.429513
0.487302 0.015000 0.425775
0.615666 0.015000 0.422038
0.744030 0.015000 0.418300
0.872394 0.015000 0.414562
1.000000 0.015000 0.410825
0.000000 0.140000 0.433388
0.108815 0.140000 0.429650
0.237179 0.140000 0.425912
0.365543 0.140000 0.422175
0.493906 0.140000 0.418438
0.622270 0.140000 0.414700
0.750634 0.140000 0.410962
0.878998 0.140000 0.407225
1.000000 0.140000 0.403488
0.000000 0.265000 0.426050
0.115419 0.265000 0.422312
0.243783 0.265000 0.418575
0.372146 0.265000 0.414837
0.500510 0.265000 0.411100
0.628874 0.265000 0.407363
0.757237 0.265000 0.403625
0.885601 0.265000 0.399888
1.000000 0.265000 0.396150
0.000000 0.390000 0.418712
0.122022 0.390000 0.414975
0.250386 0.390000 0.411238
0.378750 0.390000 0.407500
0.507114 0.390000 0.403763
0.635477 0.390000 0.400025
0.763841 0.390000 0.396288
0.892205 0.390000 0.392550
1.000000 0.390000 0.388812
0.000263 0.515000 0.411375
0.128626 0.515000 0.407638
0.256990 0.515000 0.403900
0.385354 0.515000 0.400162
0.513718 0.515000 0.396425
0.642081 0.515000 0.392687
0.770445 0.515000 0.388950
0.898809 0.515000 0.385212
1.000000 0.515000 0.381475
0.006866 0.640000 0.404038
0.135230 0.640000 0.400300
0.263594 0.640000 0.396562
0.391957 0.640000 0.392825
0.520321 0.640000 0.389087
0.648685 0.640000 0.385350
0.777049 0.640000 0.381613
0.905412 0.640000 0.377875
1.000000 0.640000 0.374138
0.013470 0.765000 0.396700
0.141834 0.765000 0.392962
0.270198 0.765000 0.389225
0.398561 0.765000 0.385487
0.526925 0.765000 0.381750
0.655289 0.765000 0.378013
0.783652 0.765000 0.374275
0.912016 0.765000 0.370538
1.000000 0.765000 0.366800
0.020074 0.890000 0.389363
0.148438 0.890000 0.385625
0.276801 0.890000 0.381887
0.405165 0.890000 0.378150
0.533529 0.890000 0.374413
0.661893 0.890000 0.370675
0.790256 0.890000 0.366937
0.918620 0.890000 0.363200
1.000000 0.890000 0.359462
0.026678 1.000000 0.382025
0.155041 1.000000 0.378287
0.283405 1.000000 0.374550
0.411769 1.000000 0.370813
0.540133 1.000000 0.367075
0.668496 1.000000 0.363337
0.796860 1.000000 0.359600
0.925224 1.000000 0.355863
1.000000 1.000000 0.352125
0.000000 0.015000 0.564300
0.103494 0.015000 0.560563
0.231858 0.015000 0.556825
0.360221 0.015000 0.553088
0.488585 0.015000 0.549350
0.616949 0.015000 0.545613
0.745313 0.015000 0.541875
0.873676 0.015000 0.538137
1.000000 0.015000 0.534400
0.000000 0.140000 0.556962
0.110098 0.140000 0.553225
0.238461 0.140000 0.549487
0.366825 0.140000 0.545750
0.495189 0.140000 0.542012
0.623553 0.140000 0.538275
0.751916 0.140000 0.534537
0.880280 0.140000 0.530800
1.000000 0.140000 0.527062
0.000000 0.265000 0.549625
0.116701 0.265000 0.545888
0.245065 0.265000 0.542150
0.373429 0.265000 0.538413
0.501792 0.265000 0.534675
0.630156 0.265000 0.530937
0.758520 0.265000 0.527200
0.886884 0.265000 0.523462
1.000000 0.265000 0.519725
0.000000 0.390000 0.542287
0.123305 0.390000 0.538550
0.251669 0.390000 0.534813
0.380033 0.390000 0.531075
0.508396 0.390000 0.527337
0.636760 0.390000 0.523600
0.765124 0.390000 0.519863
0.893488 0.390000 0.516125
1.000000 0.390000 0.512388
0.001545 0.515000 0.534950
0.129909 0.515000 0.531213
0.258272 0.515000 0.527475
0.386636 0.515000 0.523737
0.515000 0.515000 0.520000
0.643364 0.515000 0.516262
0.771728 0.515000 0.512525
0.900091 0.515000 0.508787
1.000000 0.515000 0.505050
0.008149 0.640000 0.527613
0.136513 0.640000 0.523875
0.264876 0.640000 0.520137
0.393240 0.640000 0.516400
0.521604 0.640000 0.512663
0.649967 0.640000 0.508925
0.778331 0.640000 0.505188
0.906695 0.640000 0.501450
1.000000 0.640000 0.497712
0.014753 0.765000 0.520275
0.143116 0.765000 0.516537
0.271480 0.765000 0.512800
0.399844 0.765000 0.509063
0.528207 0.765000 0.505325
0.656571 0.765000 0.501588
0.784935 0.765000 0.497850
0.913299 0.765000 0.494112
1.000000 0.765000 0.490375
0.021356 0.890000 0.512937
0.149720 0.890000 0.509200
0.278084 0.890000 0.505462
0.406447 0.890000 0.501725
0.534811 0.890000 0.497988
0.663175 0.890000 0.494250
0.791539 0.890000 0.490513
0.919903 0.890000 0.486775
1.000000 0.890000 0.483038
0.027960 1.000000 0.505600
0.156324 1.000000 0.501863
0.284688 1.000000 0.498125
0.413051 1.000000 0.494388
0.541415 1.000000 0.490650
0.669779 1.000000 0.486912
0.798142 1.000000 0.483175
0.926506 1.000000 0.479437
1.000000 1.000000 0.475700
0.000000 0.015000 0.687875
0.104776 0.015000 0.684137
0.233140 0.015000 0.680400
0.361504 0.015000 0.676663
0.489867 0.015000 0.672925
0.618231 0.015000 0.669187
0.746595 0.015000 0.665450
0.874959 0.015000 0.661713
1.000000 0.015000 0.657975
0.000000 0.140000 0.680538
0.111380 0.140000 0.676800
0.239744 0.140000 0.673063
0.368107 0.140000 0.669325
0.496471 0.140000 0.665587
0.624835 0.140000 0.661850
0.753199 0.140000 0.658112
0.881563 0.140000 0.654375
1.000000 0.140000 0.650638
0.000000 0.265000 0.673200
0.117984 0.265000 0.669463
0.246348 0.265000 0.665725
0.374711 0.265000 0.661988
0.503075 0.265000 0.658250
0.631439 0.265000 0.654513
0.759802 0.265000 0.650775
0.888166 0.265000 0.647038
1.000000 0.265000 0.643300
0.000000 0.390000 0.665863
0.124587 0.390000 0.662125
0.252951 0.390000 0.658387
0.381315 0.390000 0.654650
0.509679 0.390000 0.650912
0.638043 0.390000 0.647175
0.766406 0.390000 0.643437
0.894770 0.390000 0.639700
1.000000 0.390000 0.635963
0.002828 0.515000 0.658525
0.131191 0.515000 0.654787
0.259555 0.515000 0.651050
0.387919 0.515000 0.647313
0.516282 0.515000 0.643575
0.644646 0.515000 0.639838
0.773010 0.515000 0.636100
0.901374 0.515000 0.632362
1.000000 0.515000 0.628625
0.009431 0.640000 0.651187
0.137795 0.640000 0.647450
0.266159 0.640000 0.643713
0.394523 0.640000 0.639975
0.522886 0.640000 0.636238
0.651250 0.640000 0.632500
0.779614 0.640000 0.628762
0.907977 0.640000 0.625025
1.000000 0.640000 0.621288
0.016035 0.765000 0.643850
0.144399 0.765000 0.640113
0.272763 0.765000 0.636375
0.401126 0.765000 0.632638
0.529490 0.765000 0.628900
0.657854 0.765000 0.625162
0.786218 0.765000 0.621425
0.914581 0.765000 0.617687
1.000000 0.765000 0.613950
0.022639 0.890000 0.636513
0.151003 0.890000 0.632775
0.279366 0.890000 0.629037
0.407730 0.890000 0.625300
0.536094 0.890000 0.621562
0.664457 0.890000 0.617825
0.792821 0.890000 0.614088
0.921185 0.890000 0.610350
1.000000 0.890000 0.606613
0.029243 1.000000 0.629175
0.157606 1.000000 0.625437
0.285970 1.000000 0.621700
0.414334 1.000000 0.617963
0.542697 1.000000 0.614225
0.671061 1.000000 0.610488
0.799425 1.000000 0.606750
0.927789 1.000000 0.603013
1.000000 1.000000 0.599275
0.000000 0.015000 0.811450
0.106059 0.015000 0.807712
0.234423 0.015000 0.803975
0.362786 0.015000 0.800237
0.491150 0.015000 0.796500
0.619514 0.015000 0.792763
0.747878 0.015000 0.789025
0.876241 0.015000 0.785287
1.000000 0.015000 0.781550
0.000000 0.140000 0.804113
0.112663 0.140000 0.800375
0.241026 0.140000 0.796638
0.369390 0.140000 0.792900
0.497754 0.140000 0.789163
0.626117 0.140000 0.785425
0.754481 0.140000 0.781687
0.882845 0.140000 0.777950
1.000000 0.140000 0.774212
0.000000 0.265000 0.796775
0.119266 0.265000 0.793037
0.247630 0.265000 0.789300
0.375994 0.265000 0.785562
0.504358 0.265000 0.781825
0.632721 0.265000 0.778087
0.761085 0.265000 0.774350
0.889449 0.265000 0.770613
1.000000 0.265000 0.766875
0.000000 0.390000 0.789438
0.125870 0.390000 0.785700
0.254234 0.390000 0.781963
0.382598 0.390000 0.778225
0.510961 0.390000 0.774487
0.639325 0.390000 0.770750
0.767689 0.390000 0.767012
0.896053 0.390000 0.763275
1.000000 0.390000 0.759537
0.004110 0.515000 0.782100
0.132474 0.515000 0.778363
0.260837 0.515000 0.774625
0.389201 0.515000 0.770887
0.517565 0.515000 0.767150
0.645929 0.515000 0.763413
0.774292 0.515000 0.759675
0.902656 0.515000 0.755938
1.000000 0.515000 0.752200
0.010714 0.640000 0.774763
0.139077 0.640000 0.771025
0.267441 0.640000 0.767287
0.395805 0.640000 0.763550
0.524169 0.640000 0.759812
0.652533 0.640000 0.756075
0.780896 0.640000 0.752337
0.909260 0.640000 0.748600
1.000000 0.640000 0.744863
0.017318 0.765000 0.767425
0.145681 0.765000 0.763687
0.274045 0.765000 0.759950
0.402409 0.765000 0.756212
0.530773 0.765000 0.752475
0.659136 0.765000 0.748738
0.787500 0.765000 0.745000
0.915864 0.765000 0.741262
1.000000 0.765000 0.737525
0.023921 0.890000 0.760087
0.152285 0.890000 0.756350
0.280649 0.890000 0.752613
0.409012 0.890000 0.748875
0.537376 0.890000 0.745138
0.665740 0.890000 0.741400
0.794104 0.890000 0.737662
0.922467 0.890000 0.733925
1.000000 0.890000 0.730187
0.030525 1.000000 0.752750
0.158889 1.000000 0.749012
0.287253 1.000000 0.745275
0.415616 1.000000 0.741538
0.543980 1.000000 0.737800
0.672344 1.000000 0.734062
0.800708 1.000000 0.730325
0.929071 1.000000 0.726588
1.000000 1.000000 0.722850
0.000000 0.015000 0.935025
0.107341 0.015000 0.931288
0.235705 0.015000 0.927550
0.364069 0.015000 0.923813
0.492432 0.015000 0.920075
0.620796 0.015000 0.916337
0.749160 0.015000 0.912600
0.877524 0.015000 0.908862
1.000000 0.015000 0.905125
0.000000 0.140000 0.927687
0.113945 0.140000 0.923950
0.242309 0.140000 0.920213
0.370672 0.140000 0.916475
0.499036 0.140000 0.912738
0.627400 0.140000 0.909000
0.755764 0.140000 0.905263
0.884127 0.140000 0.901525
1.000000 0.140000 0.897788
0.000000 0.265000 0.920350
0.120549 0.265000 0.916613
0.248913 0.265000 0.912875
0.377276 0.265000 0.909137
0.505640 0.265000 0.905400
0.634004 0.265000 0.901662
0.762367 0.265000 0.897925
0.890731 0.265000 0.894187
1.000000 0.265000 0.890450
0.000000 0.390000 0.913013
0.127152 0.390000 0.909275
0.255516 0.390000 0.905538
0.383880 0.390000 0.901800
0.512244 0.390000 0.898063
0.640607 0.390000 0.894325
0.768971 0.390000 0.890588
0.897335 0.390000 0.886850
1.000000 0.390000 0.883112
0.005392 0.515000 0.905675
0.133756 0.515000 0.901937
0.262120 0.515000 0.898200
0.390484 0.515000 0.894462
0.518848 0.515000 0.890725
0.647211 0.515000 0.886988
0.775575 0.515000 0.883250
0.903939 0.515000 0.879513
1.000000 0.515000 0.875775
0.011996 0.640000 0.898337
0.140360 0.640000 0.894600
0.268724 0.640000 0.890863
0.397088 0.640000 0.887125
0.525451 0.640000 0.883388
0.653815 0.640000 0.879650
0.782179 0.640000 0.875912
0.910542 0.640000 0.872175
1.000000 0.640000 0.868437
0.018600 0.765000 0.891000
0.146964 0.765000 0.887263
0.275328 0.765000 0.883525
0.403691 0.765000 0.879788
0.532055 0.765000 0.876050
0.660419 0.765000 0.872312
0.788782 0.765000 0.868575
0.917146 0.765000 0.864838
1.000000 0.765000 0.861100
0.025204 0.890000 0.883662
0.153568 0.890000 0.879925
0.281931 0.890000 0.876188
0.410295 0.890000 0.872450
0.538659 0.890000 0.868712
0.667023 0.890000 0.864975
0.795386 0.890000 0.861238
0.923750 0.890000 0.857500
1.000000 0.890000 0.853763
0.031808 1.000000 0.876325
0.160171 1.000000 0.872588
0.288535 1.000000 0.868850
0.416899 1.000000 0.865112
0.545263 1.000000 0.861375
0.673626 1.000000 0.857637
0.801990 1.000000 0.853900
0.930354 1.000000 0.850163
1.000000 1.000000 0.846425
0.000000 0.015000 1.000000
0.108624 0.015000 1.000000
0.236988 0.015000 1.000000
0.365351 0.015000 1.000000
0.493715 0.015000 1.000000
0.622079 0.015000 1.000000
0.750443 0.015000 1.000000
0.878806 0.015000 1.000000
1.000000 0.015000 1.000000
0.000000 0.140000 1.000000
0.115228 0.140000 1.000000
0.243591 0.140000 1.000000
0.371955 0.140000 1.000000
0.500319 0.140000 1.000000
0.628682 0.140000 1.000000
0.757046 0.140000 1.000000
0.885410 0.140000 1.000000
1.000000 0.140000 1.000000
0.000000 0.265000 1.000000
0.121831 0.265000 1.000000
0.250195 0.265000 1.000000
0.378559 0.265000 1.000000
0.506922 0.265000 1.000000
0.635286 0.265000 1.000000
0.763650 0.265000 1.000000
0.892014 0.265000 1.000000
1.000000 0.265000 1.000000
0.000071 0.390000 1.000000
0.128435 0.390000 1.000000
0.256799 0.390000 1.000000
0.385163 0.390000 1.000000
0.513526 0.390000 1.000000
0.641890 0.390000 1.000000
0.770254 0.390000 1.000000
0.898618 0.390000 1.000000
1.000000 0.390000 1.000000
0.006675 0.515000 1.000000
0.135039 0.515000 1.000000
0.263403 0.515000 1.000000
0.391766 0.515000 1.000000
0.520130 0.515000 1.000000
0.648494 0.515000 1.000000
0.776857 0.515000 1.000000
0.905221 0.515000 1.000000
1.000000 0.515000 0.999350
0.013279 0.640000 1.000000
0.141642 0.640000 1.000000
0.270006 0.640000 1.000000
0.398370 0.640000 1.000000
0.526734 0.640000 1.000000
0.655097 0.640000 1.000000
0.783461 0.640000 0.999487
0.911825 0.640000 0.995750
1.000000 0.640000 0.992013
0.019883 0.765000 1.000000
0.148246 0.765000 1.000000
0.276610 0.765000 1.000000
0.404974 0.765000 1.000000
0.533337 0.765000 0.999625
0.661701 0.765000 0.995888
0.790065 0.765000 0.992150
0.918429 0.765000 0.988413
1.000000 0.765000 0.984675
0.026486 0.890000 1.000000
0.154850 0.890000 1.000000
0.283214 0.890000 0.999762
0.411578 0.890000 0.996025
0.539941 0.890000 0.992288
0.668305 0.890000 0.988550
0.796669 0.890000 0.984812
0.925032 0.890000 0.981075
1.000000 0.890000 0.977337
0.033090 1.000000 0.999900
0.161454 1.000000 0.996163
0.289818 1.000000 0.992425
0.418181 1.000000 0.988687
0.546545 1.000000 0.984950
0.674909 1.000000 0.981212
0.803272 1.000000 0.977475
0.931636 1.000000 0.973738
1.000000 1.000000 0.970000
