luts/VintageFade.cube
TITLE "VintageFade"
LUT_3D_SIZE 17
DOMAIN_MIN 0.0 0.0 0.0
DOMAIN_MAX 1.0 1.0 1.0
0.070395 0.050436 0.044946
0.121022 0.053463 0.047882
0.171649 0.056490 0.050819
0.222275 0.059518 0.053755
0.272902 0.062545 0.056692
0.323529 0.065572 0.059628
0.374156 0.068600 0.062565
0.424783 0.071627 0.065501
0.475410 0.074655 0.068438
0.526037 0.077682 0.071375
0.576664 0.080709 0.074311
0.627291 0.083737 0.077248
0.677918 0.086764 0.080184
0.728545 0.089791 0.083121
0.779172 0.092819 0.086057
0.829799 0.095846 0.088994
0.880426 0.098874 0.091930
0.076516 0.102504 0.050711
0.127143 0.105531 0.053647
0.177770 0.108559 0.056584
0.228397 0.111586 0.059520
0.279024 0.114613 0.062457
0.329651 0.117641 0.065393
0.380278 0.120668 0.068330
0.430905 0.123696 0.071266
0.481532 0.126723 0.074203
0.532159 0.129750 0.077140
0.582786 0.132778 0.080076
0.633413 0.135805 0.083013
0.684040 0.138832 0.085949
0.734667 0.141860 0.088886
0.785294 0.144887 0.091822
0.835921 0.147915 0.094759
0.886547 0.150942 0.097695
0.082638 0.154572 0.056476
0.133265 0.157600 0.059412
0.183892 0.160627 0.062349
0.234519 0.163654 0.065285
0.285146 0.166682 0.068222
0.335773 0.169709 0.071158
0.386400 0.172737 0.074095
0.437027 0.175764 0.077032
0.487654 0.178791 0.079968
0.538280 0.181819 0.082905
0.588907 0.184846 0.085841
0.639534 0.187873 0.088778
0.690161 0.190901 0.091714
0.740788 0.193928 0.094651
0.791415 0.196956 0.097587
0.842042 0.199983 0.100524
0.892669 0.203010 0.103461
0.088760 0.206641 0.062241
0.139387 0.209668 0.065177
0.190014 0.212695 0.068114
0.240641 0.215723 0.071050
0.291267 0.218750 0.073987
0.341894 0.221778 0.076924
0.392521 0.224805 0.079860
0.443148 0.227832 0.082797
0.493775 0.230860 0.085733
0.544402 0.233887 0.088670
0.595029 0.236914 0.091606
0.645656 0.239942 0.094543
0.696283 0.242969 0.097479
0.746910 0.245997 0.100416
0.797537 0.249024 0.103353
0.848164 0.252051 0.106289
0.898791 0.255079 0.109226
0.094881 0.258709 0.068006
0.145508 0.261736 0.070942
0.196135 0.264764 0.073879
0.246762 0.267791 0.076815
0.297389 0.270819 0.079752
0.348016 0.273846 0.082689
0.398643 0.276873 0.085625
0.449270 0.279901 0.088562
0.499897 0.282928 0.091498
0.550524 0.285955 0.094435
0.601151 0.288983 0.097371
0.651778 0.292010 0.100308
0.702405 0.295038 0.103244
0.753032 0.298065 0.106181
0.803659 0.301092 0.109118
0.854286 0.304120 0.112054
0.904912 0.307147 0.114991
0.101003 0.310777 0.073771
0.151630 0.313805 0.076707
0.202257 0.316832 0.079644
0.252884 0.319860 0.082581
0.303511 0.322887 0.085517
0.354138 0.325914 0.088454
0.404765 0.328942 0.091390
0.455392 0.331969 0.094327
0.506019 0.334996 0.097263
0.556646 0.338024 0.100200
0.607273 0.341051 0.103136
0.657899 0.344079 0.106073
0.708526 0.347106 0.109010
0.759153 0.350133 0.111946
0.809780 0.353161 0.114883
0.860407 0.356188 0.117819
0.911034 0.359215 0.120756
0.107125 0.362846 0.079536
0.157752 0.365873 0.082473
0.208379 0.368901 0.085409
0.259006 0.371928 0.088346
0.309633 0.374955 0.091282
0.360259 0.377983 0.094219
0.410886 0.381010 0.097155
0.461513 0.384037 0.100092
0.512140 0.387065 0.103028
0.562767 0.390092 0.105965
0.613394 0.393120 0.108902
0.664021 0.396147 0.111838
0.714648 0.399174 0.114775
0.765275 0.402202 0.117711
0.815902 0.405229 0.120648
0.866529 0.408256 0.123584
0.917156 0.411284 0.126521
0.113246 0.414914 0.085301
0.163873 0.417942 0.088238
0.214500 0.420969 0.091174
0.265127 0.423996 0.094111
0.315754 0.427024 0.097047
0.366381 0.430051 0.099984
0.417008 0.433078 0.102920
0.467635 0.436106 0.105857
0.518262 0.439133 0.108793
0.568889 0.442161 0.111730
0.619516 0.445188 0.114667
0.670143 0.448215 0.117603
0.720770 0.451243 0.120540
0.771397 0.454270 0.123476
0.822024 0.457297 0.126413
0.872651 0.460325 0.129349
0.923277 0.463352 0.132286
0.119368 0.466983 0.091066
0.169995 0.470010 0.094003
0.220622 0.473037 0.096939
0.271249 0.476065 0.099876
0.321876 0.479092 0.102812
0.372503 0.482119 0.105749
0.423130 0.485147 0.108685
0.473757 0.488174 0.111622
0.524384 0.491202 0.114559
0.575011 0.494229 0.117495
0.625637 0.497256 0.120432
0.676264 0.500284 0.123368
0.726891 0.503311 0.126305
0.777518 0.506338 0.129241
0.828145 0.509366 0.132178
0.878772 0.512393 0.135114
0.929399 0.515421 0.138051
0.125490 0.519051 0.096831
0.176117 0.522078 0.099768
0.226744 0.525106 0.102704
0.277371 0.528133 0.105641
0.327998 0.531160 0.108577
0.378624 0.534188 0.111514
0.429251 0.537215 0.114451
0.479878 0.540243 0.117387
0.530505 0.543270 0.120324
0.581132 0.546297 0.123260
0.631759 0.549325 0.126197
0.682386 0.552352 0.129133
0.733013 0.555379 0.132070
0.783640 0.558407 0.135006
0.834267 0.561434 0.137943
0.884894 0.564462 0.140880
0.935521 0.567489 0.143816
0.131611 0.571119 0.102596
0.182238 0.574147 0.105533
0.232865 0.577174 0.108469
0.283492 0.580202 0.111406
0.334119 0.583229 0.114342
0.384746 0.586256 0.117279
0.435373 0.589284 0.120216
0.486000 0.592311 0.123152
0.536627 0.595338 0.126089
0.587254 0.598366 0.129025
0.637881 0.601393 0.131962
0.688508 0.604420 0.134898
0.739135 0.607448 0.137835
0.789762 0.610475 0.140771
0.840389 0.613503 0.143708
0.891016 0.616530 0.146645
0.941643 0.619557 0.149581
0.137733 0.623188 0.108361
0.188360 0.626215 0.111298
0.238987 0.629242 0.114234
0.289614 0.632270 0.117171
0.340241 0.635297 0.120108
0.390868 0.638325 0.123044
0.441495 0.641352 0.125981
0.492122 0.644379 0.128917
0.542749 0.647407 0.131854
0.593376 0.650434 0.134790
0.644002 0.653461 0.137727
0.694629 0.656489 0.140663
0.745256 0.659516 0.143600
0.795883 0.662544 0.146537
0.846510 0.665571 0.149473
0.897137 0.668598 0.152410
0.947764 0.671626 0.155346
0.143855 0.675256 0.114126
0.194482 0.678283 0.117063
0.245109 0.681311 0.120000
0.295736 0.684338 0.122936
0.346363 0.687366 0.125873
0.396990 0.690393 0.128809
0.447616 0.693420 0.131746
0.498243 0.696448 0.134682
0.548870 0.699475 0.137619
0.599497 0.702502 0.140555
0.650124 0.705530 0.143492
0.700751 0.708557 0.146429
0.751378 0.711585 0.149365
0.802005 0.714612 0.152302
0.852632 0.717639 0.155238
0.903259 0.720667 0.158175
0.953886 0.723694 0.161111
0.149976 0.727324 0.119892
0.200603 0.730352 0.122828
0.251230 0.733379 0.125765
0.301857 0.736407 0.128701
0.352484 0.739434 0.131638
0.403111 0.742461 0.134574
0.453738 0.745489 0.137511
0.504365 0.748516 0.140447
0.554992 0.751543 0.143384
0.605619 0.754571 0.146320
0.656246 0.757598 0.149257
0.706873 0.760626 0.152194
0.757500 0.763653 0.155130
0.808127 0.766680 0.158067
0.858754 0.769708 0.161003
0.909381 0.772735 0.163940
0.960007 0.775762 0.166876
0.156098 0.779393 0.125657
0.206725 0.782420 0.128593
0.257352 0.785448 0.131530
0.307979 0.788475 0.134466
0.358606 0.791502 0.137403
0.409233 0.794530 0.140339
0.459860 0.797557 0.143276
0.510487 0.800584 0.146212
0.561114 0.803612 0.149149
0.611741 0.806639 0.152086
0.662368 0.809667 0.155022
0.712995 0.812694 0.157959
0.763621 0.815721 0.160895
0.814248 0.818749 0.163832
0.864875 0.821776 0.166768
0.915502 0.824803 0.169705
0.966129 0.827831 0.172641
0.162220 0.831461 0.131422
0.212847 0.834489 0.134358
0.263474 0.837516 0.137295
0.314101 0.840543 0.140231
0.364728 0.843571 0.143168
0.415355 0.846598 0.146104
0.465981 0.849625 0.149041
0.516608 0.852653 0.151978
0.567235 0.855680 0.154914
0.617862 0.858708 0.157851
0.668489 0.861735 0.160787
0.719116 0.864762 0.163724
0.769743 0.867790 0.166660
0.820370 0.870817 0.169597
0.870997 0.873845 0.172533
0.921624 0.876872 0.175470
0.972251 0.879899 0.178407
0.168342 0.883530 0.137187
0.218968 0.886557 0.140123
0.269595 0.889584 0.143060
0.320222 0.892612 0.145996
0.370849 0.895639 0.148933
0.421476 0.898667 0.151870
0.472103 0.901694 0.154806
0.522730 0.904721 0.157743
0.573357 0.907749 0.160679
0.623984 0.910776 0.163616
0.674611 0.913803 0.166552
0.725238 0.916831 0.169489
0.775865 0.919858 0.172425
0.826492 0.922885 0.175362
0.877119 0.925913 0.178298
0.927746 0.928940 0.181235
0.978373 0.931968 0.184172
0.071557 0.051564 0.089787
0.122184 0.054592 0.092724
0.172811 0.057619 0.095660
0.223438 0.060646 0.098597
0.274065 0.063674 0.101533
0.324692 0.066701 0.104470
0.375319 0.069728 0.107407
0.425946 0.072756 0.110343
0.476573 0.075783 0.113280
0.527200 0.078811 0.116216
0.577827 0.081838 0.119153
0.628453 0.084865 0.122089
0.679080 0.087893 0.125026
0.729707 0.090920 0.127962
0.780334 0.093947 0.130899
0.830961 0.096975 0.133836
0.881588 0.100002 0.136772
0.077679 0.103633 0.095552
0.128306 0.106660 0.098489
0.178933 0.109687 0.101425
0.229560 0.112715 0.104362
0.280187 0.115742 0.107299
0.330813 0.118769 0.110235
0.381440 0.121797 0.113172
0.432067 0.124824 0.116108
0.482694 0.127852 0.119045
0.533321 0.130879 0.121981
0.583948 0.133906 0.124918
0.634575 0.136934 0.127854
0.685202 0.139961 0.130791
0.735829 0.142988 0.133728
0.786456 0.146016 0.136664
0.837083 0.149043 0.139601
0.887710 0.152071 0.142537
0.083800 0.155701 0.101317
0.134427 0.158728 0.104254
0.185054 0.161756 0.107191
0.235681 0.164783 0.110127
0.286308 0.167810 0.113064
0.336935 0.170838 0.116000
0.387562 0.173865 0.118937
0.438189 0.176893 0.121873
0.488816 0.179920 0.124810
0.539443 0.182947 0.127746
0.590070 0.185975 0.130683
0.640697 0.189002 0.133620
0.691324 0.192029 0.136556
0.741951 0.195057 0.139493
0.792578 0.198084 0.142429
0.843205 0.201112 0.145366
0.893832 0.204139 0.148302
0.089922 0.207769 0.107083
0.140549 0.210797 0.110019
0.191176 0.213824 0.112956
0.241803 0.216851 0.115892
0.292430 0.219879 0.118829
0.343057 0.222906 0.121765
0.393684 0.225934 0.124702
0.444311 0.228961 0.127638
0.494938 0.231988 0.130575
0.545565 0.235016 0.133511
0.596192 0.238043 0.136448
0.646818 0.241070 0.139385
0.697445 0.244098 0.142321
0.748072 0.247125 0.145258
0.798699 0.250153 0.148194
0.849326 0.253180 0.151131
0.899953 0.256207 0.154067
0.096044 0.259838 0.112848
0.146671 0.262865 0.115784
0.197298 0.265892 0.118721
0.247925 0.268920 0.121657
0.298552 0.271947 0.124594
0.349179 0.274975 0.127530
0.399805 0.278002 0.130467
0.450432 0.281029 0.133403
0.501059 0.284057 0.136340
0.551686 0.287084 0.139277
0.602313 0.290111 0.142213
0.652940 0.293139 0.145150
0.703567 0.296166 0.148086
0.754194 0.299194 0.151023
0.804821 0.302221 0.153959
0.855448 0.305248 0.156896
0.906075 0.308276 0.159832
0.102166 0.311906 0.118613
0.152792 0.314933 0.121549
0.203419 0.317961 0.124486
0.254046 0.320988 0.127422
0.304673 0.324016 0.130359
0.355300 0.327043 0.133295
0.405927 0.330070 0.136232
0.456554 0.333098 0.139169
0.507181 0.336125 0.142105
0.557808 0.339152 0.145042
0.608435 0.342180 0.147978
0.659062 0.345207 0.150915
0.709689 0.348235 0.153851
0.760316 0.351262 0.156788
0.810943 0.354289 0.159724
0.861570 0.357317 0.162661
0.912197 0.360344 0.165598
0.108287 0.363974 0.124378
0.158914 0.367002 0.127314
0.209541 0.370029 0.130251
0.260168 0.373057 0.133187
0.310795 0.376084 0.136124
0.361422 0.379111 0.139060
0.412049 0.382139 0.141997
0.462676 0.385166 0.144934
0.513303 0.388193 0.147870
0.563930 0.391221 0.150807
0.614557 0.394248 0.153743
0.665184 0.397276 0.156680
0.715810 0.400303 0.159616
0.766437 0.403330 0.162553
0.817064 0.406358 0.165489
0.867691 0.409385 0.168426
0.918318 0.412412 0.171363
0.114409 0.416043 0.130143
0.165036 0.419070 0.133079
0.215663 0.422098 0.136016
0.266290 0.425125 0.138952
0.316917 0.428152 0.141889
0.367544 0.431180 0.144826
0.418170 0.434207 0.147762
0.468797 0.437234 0.150699
0.519424 0.440262 0.153635
0.570051 0.443289 0.156572
0.620678 0.446317 0.159508
0.671305 0.449344 0.162445
0.721932 0.452371 0.165381
0.772559 0.455399 0.168318
0.823186 0.458426 0.171255
0.873813 0.461453 0.174191
0.924440 0.464481 0.177128
0.120531 0.468111 0.135908
0.171157 0.471139 0.138844
0.221784 0.474166 0.141781
0.272411 0.477193 0.144718
0.323038 0.480221 0.147654
0.373665 0.483248 0.150591
0.424292 0.486275 0.153527
0.474919 0.489303 0.156464
0.525546 0.492330 0.159400
0.576173 0.495358 0.162337
0.626800 0.498385 0.165273
0.677427 0.501412 0.168210
0.728054 0.504440 0.171147
0.778681 0.507467 0.174083
0.829308 0.510494 0.177020
0.879935 0.513522 0.179956
0.930562 0.516549 0.182893
0.126652 0.520180 0.141673
0.177279 0.523207 0.144609
0.227906 0.526234 0.147546
0.278533 0.529262 0.150483
0.329160 0.532289 0.153419
0.379787 0.535316 0.156356
0.430414 0.538344 0.159292
0.481041 0.541371 0.162229
0.531668 0.544399 0.165165
0.582295 0.547426 0.168102
0.632922 0.550453 0.171038
0.683549 0.553481 0.173975
0.734176 0.556508 0.176912
0.784802 0.559535 0.179848
0.835429 0.562563 0.182785
0.886056 0.565590 0.185721
0.936683 0.568618 0.188658
0.132774 0.572248 0.147438
0.183401 0.575275 0.150375
0.234028 0.578303 0.153311
0.284655 0.581330 0.156248
0.335282 0.584358 0.159184
0.385909 0.587385 0.162121
0.436536 0.590412 0.165057
0.487162 0.593440 0.167994
0.537789 0.596467 0.170930
0.588416 0.599494 0.173867
0.639043 0.602522 0.176804
0.689670 0.605549 0.179740
0.740297 0.608576 0.182677
0.790924 0.611604 0.185613
0.841551 0.614631 0.188550
0.892178 0.617659 0.191486
0.942805 0.620686 0.194423
0.138896 0.624316 0.153203
0.189523 0.627344 0.156140
0.240149 0.630371 0.159076
0.290776 0.633398 0.162013
0.341403 0.636426 0.164949
0.392030 0.639453 0.167886
0.442657 0.642481 0.170822
0.493284 0.645508 0.173759
0.543911 0.648535 0.176696
0.594538 0.651563 0.179632
0.645165 0.654590 0.182569
0.695792 0.657617 0.185505
0.746419 0.660645 0.188442
0.797046 0.663672 0.191378
0.847673 0.666700 0.194315
0.898300 0.669727 0.197251
0.948927 0.672754 0.200188
0.145017 0.676385 0.158968
0.195644 0.679412 0.161905
0.246271 0.682439 0.164841
0.296898 0.685467 0.167778
0.347525 0.688494 0.170714
0.398152 0.691522 0.173651
0.448779 0.694549 0.176587
0.499406 0.697576 0.179524
0.550033 0.700604 0.182461
0.600660 0.703631 0.185397
0.651287 0.706658 0.188334
0.701914 0.709686 0.191270
0.752541 0.712713 0.194207
0.803167 0.715741 0.197143
0.853794 0.718768 0.200080
0.904421 0.721795 0.203016
0.955048 0.724823 0.205953
0.151139 0.728453 0.164733
0.201766 0.731480 0.167670
0.252393 0.734508 0.170606
0.303020 0.737535 0.173543
0.353647 0.740563 0.176479
0.404274 0.743590 0.179416
0.454901 0.746617 0.182353
0.505527 0.749645 0.185289
0.556154 0.752672 0.188226
0.606781 0.755699 0.191162
0.657408 0.758727 0.194099
0.708035 0.761754 0.197035
0.758662 0.764782 0.199972
0.809289 0.767809 0.202908
0.859916 0.770836 0.205845
0.910543 0.773864 0.208782
0.961170 0.776891 0.211718
0.157261 0.780521 0.170498
0.207888 0.783549 0.173435
0.258514 0.786576 0.176371
0.309141 0.789604 0.179308
0.359768 0.792631 0.182245
0.410395 0.795658 0.185181
0.461022 0.798686 0.188118
0.511649 0.801713 0.191054
0.562276 0.804740 0.193991
0.612903 0.807768 0.196927
0.663530 0.810795 0.199864
0.714157 0.813823 0.202800
0.764784 0.816850 0.205737
0.815411 0.819877 0.208674
0.866038 0.822905 0.211610
0.916665 0.825932 0.214547
0.967292 0.828959 0.217483
0.163382 0.832590 0.176263
0.214009 0.835617 0.179200
0.264636 0.838645 0.182136
0.315263 0.841672 0.185073
0.365890 0.844699 0.188010
0.416517 0.847727 0.190946
0.467144 0.850754 0.193883
0.517771 0.853781 0.196819
0.568398 0.856809 0.199756
0.619025 0.859836 0.202692
0.669652 0.862864 0.205629
0.720279 0.865891 0.208565
0.770906 0.868918 0.211502
0.821533 0.871946 0.214439
0.872159 0.874973 0.217375
0.922786 0.878000 0.220312
0.973413 0.881028 0.223248
0.169504 0.884658 0.182028
0.220131 0.887686 0.184965
0.270758 0.890713 0.187902
0.321385 0.893740 0.190838
0.372012 0.896768 0.193775
0.422639 0.899795 0.196711
0.473266 0.902822 0.199648
0.523893 0.905850 0.202584
0.574520 0.908877 0.205521
0.625146 0.911905 0.208457
0.675773 0.914932 0.211394
0.726400 0.917959 0.214331
0.777027 0.920987 0.217267
0.827654 0.924014 0.220204
0.878281 0.927041 0.223140
0.928908 0.930069 0.226077
0.979535 0.933096 0.229013
0.072720 0.052693 0.134629
0.123347 0.055720 0.137566
0.173973 0.058748 0.140502
0.224600 0.061775 0.143439
0.275227 0.064802 0.146375
0.325854 0.067830 0.149312
0.376481 0.070857 0.152248
0.427108 0.073884 0.155185
0.477735 0.076912 0.158121
0.528362 0.079939 0.161058
0.578989 0.082967 0.163995
0.629616 0.085994 0.166931
0.680243 0.089021 0.169868
0.730870 0.092049 0.172804
0.781497 0.095076 0.175741
0.832124 0.098103 0.178677
0.882751 0.101131 0.181614
0.078841 0.104761 0.140394
0.129468 0.107789 0.143331
0.180095 0.110816 0.146267
0.230722 0.113843 0.149204
0.281349 0.116871 0.152140
0.331976 0.119898 0.155077
0.382603 0.122925 0.158013
0.433230 0.125953 0.160950
0.483857 0.128980 0.163887
0.534484 0.132008 0.166823
0.585111 0.135035 0.169760
0.635738 0.138062 0.172696
0.686365 0.141090 0.175633
0.736992 0.144117 0.178569
0.787618 0.147144 0.181506
0.838245 0.150172 0.184442
0.888872 0.153199 0.187379
0.084963 0.156830 0.146159
0.135590 0.159857 0.149096
0.186217 0.162884 0.152032
0.236844 0.165912 0.154969
0.287471 0.168939 0.157905
0.338098 0.171966 0.160842
0.388725 0.174994 0.163778
0.439352 0.178021 0.166715
0.489978 0.181049 0.169652
0.540605 0.184076 0.172588
0.591232 0.187103 0.175525
0.641859 0.190131 0.178461
0.692486 0.193158 0.181398
0.743113 0.196185 0.184334
0.793740 0.199213 0.187271
0.844367 0.202240 0.190207
0.894994 0.205268 0.193144
0.091085 0.208898 0.151924
0.141712 0.211925 0.154861
0.192338 0.214953 0.157797
0.242965 0.217980 0.160734
0.293592 0.221007 0.163670
0.344219 0.224035 0.166607
0.394846 0.227062 0.169544
0.445473 0.230090 0.172480
0.496100 0.233117 0.175417
0.546727 0.236144 0.178353
0.597354 0.239172 0.181290
0.647981 0.242199 0.184226
0.698608 0.245226 0.187163
0.749235 0.248254 0.190099
0.799862 0.251281 0.193036
0.850489 0.254309 0.195973
0.901116 0.257336 0.198909
0.097206 0.260966 0.157689
0.147833 0.263994 0.160626
0.198460 0.267021 0.163562
0.249087 0.270048 0.166499
0.299714 0.273076 0.169436
0.350341 0.276103 0.172372
0.400968 0.279131 0.175309
0.451595 0.282158 0.178245
0.502222 0.285185 0.181182
0.552849 0.288213 0.184118
0.603476 0.291240 0.187055
0.654103 0.294267 0.189991
0.704730 0.297295 0.192928
0.755357 0.300322 0.195865
0.805983 0.303350 0.198801
0.856610 0.306377 0.201738
0.907237 0.309404 0.204674
0.103328 0.313035 0.163454
0.153955 0.316062 0.166391
0.204582 0.319089 0.169327
0.255209 0.322117 0.172264
0.305836 0.325144 0.175201
0.356463 0.328172 0.178137
0.407090 0.331199 0.181074
0.457717 0.334226 0.184010
0.508344 0.337254 0.186947
0.558970 0.340281 0.189883
0.609597 0.343308 0.192820
0.660224 0.346336 0.195756
0.710851 0.349363 0.198693
0.761478 0.352391 0.201630
0.812105 0.355418 0.204566
0.862732 0.358445 0.207503
0.913359 0.361473 0.210439
0.109450 0.365103 0.169219
0.160077 0.368130 0.172156
0.210704 0.371158 0.175093
0.261330 0.374185 0.178029
0.311957 0.377213 0.180966
0.362584 0.380240 0.183902
0.413211 0.383267 0.186839
0.463838 0.386295 0.189775
0.514465 0.389322 0.192712
0.565092 0.392349 0.195648
0.615719 0.395377 0.198585
0.666346 0.398404 0.201522
0.716973 0.401432 0.204458
0.767600 0.404459 0.207395
0.818227 0.407486 0.210331
0.868854 0.410514 0.213268
0.919481 0.413541 0.216204
0.115571 0.417171 0.174985
0.166198 0.420199 0.177921
0.216825 0.423226 0.180858
0.267452 0.426254 0.183794
0.318079 0.429281 0.186731
0.368706 0.432308 0.189667
0.419333 0.435336 0.192604
0.469960 0.438363 0.195540
0.520587 0.441390 0.198477
0.571214 0.444418 0.201414
0.621841 0.447445 0.204350
0.672468 0.450473 0.207287
0.723095 0.453500 0.210223
0.773722 0.456527 0.213160
0.824349 0.459555 0.216096
0.874975 0.462582 0.219033
0.925602 0.465609 0.221969
0.121693 0.469240 0.180750
0.172320 0.472267 0.183686
0.222947 0.475295 0.186623
0.273574 0.478322 0.189559
0.324201 0.481349 0.192496
0.374828 0.484377 0.195432
0.425455 0.487404 0.198369
0.476082 0.490431 0.201305
0.526709 0.493459 0.204242
0.577335 0.496486 0.207179
0.627962 0.499514 0.210115
0.678589 0.502541 0.213052
0.729216 0.505568 0.215988
0.779843 0.508596 0.218925
0.830470 0.511623 0.221861
0.881097 0.514650 0.224798
0.931724 0.517678 0.227734
0.127815 0.521308 0.186515
0.178442 0.524336 0.189451
0.229069 0.527363 0.192388
0.279695 0.530390 0.195324
0.330322 0.533418 0.198261
0.380949 0.536445 0.201197
0.431576 0.539472 0.204134
0.482203 0.542500 0.207071
0.532830 0.545527 0.210007
0.583457 0.548555 0.212944
0.634084 0.551582 0.215880
0.684711 0.554609 0.218817
0.735338 0.557637 0.221753
0.785965 0.560664 0.224690
0.836592 0.563691 0.227626
0.887219 0.566719 0.230563
0.937846 0.569746 0.233500
0.133936 0.573377 0.192280
0.184563 0.576404 0.195216
0.235190 0.579431 0.198153
0.285817 0.582459 0.201089
0.336444 0.585486 0.204026
0.387071 0.588513 0.206963
0.437698 0.591541 0.209899
0.488325 0.594568 0.212836
0.538952 0.597596 0.215772
0.589579 0.600623 0.218709
0.640206 0.603650 0.221645
0.690833 0.606678 0.224582
0.741460 0.609705 0.227518
0.792087 0.612732 0.230455
0.842714 0.615760 0.233392
0.893340 0.618787 0.236328
0.943967 0.621815 0.239265
0.140058 0.625445 0.198045
0.190685 0.628472 0.200981
0.241312 0.631500 0.203918
0.291939 0.634527 0.206854
0.342566 0.637554 0.209791
0.393193 0.640582 0.212728
0.443820 0.643609 0.215664
0.494447 0.646637 0.218601
0.545074 0.649664 0.221537
0.595700 0.652691 0.224474
0.646327 0.655719 0.227410
0.696954 0.658746 0.230347
0.747581 0.661773 0.233283
0.798208 0.664801 0.236220
0.848835 0.667828 0.239157
0.899462 0.670856 0.242093
0.950089 0.673883 0.245030
0.146180 0.677513 0.203810
0.196807 0.680541 0.206746
0.247434 0.683568 0.209683
0.298061 0.686595 0.212620
0.348687 0.689623 0.215556
0.399314 0.692650 0.218493
0.449941 0.695678 0.221429
0.500568 0.698705 0.224366
0.551195 0.701732 0.227302
0.601822 0.704760 0.230239
0.652449 0.707787 0.233175
0.703076 0.710814 0.236112
0.753703 0.713842 0.239049
0.804330 0.716869 0.241985
0.854957 0.719896 0.244922
0.905584 0.722924 0.247858
0.956211 0.725951 0.250795
0.152301 0.729582 0.209575
0.202928 0.732609 0.212512
0.253555 0.735636 0.215448
0.304182 0.738664 0.218385
0.354809 0.741691 0.221321
0.405436 0.744719 0.224258
0.456063 0.747746 0.227194
0.506690 0.750773 0.230131
0.557317 0.753801 0.233067
0.607944 0.756828 0.236004
0.658571 0.759855 0.238941
0.709198 0.762883 0.241877
0.759825 0.765910 0.244814
0.810452 0.768938 0.247750
0.861079 0.771965 0.250687
0.911705 0.774992 0.253623
0.962332 0.778020 0.256560
0.158423 0.781650 0.215340
0.209050 0.784677 0.218277
0.259677 0.787705 0.221213
0.310304 0.790732 0.224150
0.360931 0.793760 0.227086
0.411558 0.796787 0.230023
0.462185 0.799814 0.232959
0.512812 0.802842 0.235896
0.563439 0.805869 0.238833
0.614065 0.808896 0.241769
0.664693 0.811924 0.244706
0.715319 0.814951 0.247642
0.765946 0.817979 0.250579
0.816573 0.821006 0.253515
0.867200 0.824033 0.256452
0.917827 0.827061 0.259388
0.968454 0.830088 0.262325
0.164545 0.833718 0.221105
0.215172 0.836746 0.224042
0.265799 0.839773 0.226978
0.316426 0.842801 0.229915
0.367052 0.845828 0.232851
0.417679 0.848855 0.235788
0.468306 0.851883 0.238724
0.518933 0.854910 0.241661
0.569560 0.857937 0.244598
0.620187 0.860965 0.247534
0.670814 0.863992 0.250471
0.721441 0.867020 0.253407
0.772068 0.870047 0.256344
0.822695 0.873074 0.259280
0.873322 0.876102 0.262217
0.923949 0.879129 0.265153
0.974576 0.882156 0.268090
0.170666 0.885787 0.226870
0.221293 0.888814 0.229807
0.271920 0.891842 0.232743
0.322547 0.894869 0.235680
0.373174 0.897896 0.238616
0.423801 0.900924 0.241553
0.474428 0.903951 0.244490
0.525055 0.906978 0.247426
0.575682 0.910006 0.250363
0.626309 0.913033 0.253299
0.676936 0.916061 0.256236
0.727563 0.919088 0.259172
0.778190 0.922115 0.262109
0.828817 0.925143 0.265045
0.879444 0.928170 0.267982
0.930071 0.931197 0.270918
0.980697 0.934225 0.273855
0.073882 0.053821 0.179471
0.124509 0.056849 0.182407
0.175136 0.059876 0.185344
0.225763 0.062904 0.188280
0.276390 0.065931 0.191217
0.327017 0.068958 0.194154
0.377644 0.071986 0.197090
0.428271 0.075013 0.200027
0.478898 0.078040 0.202963
0.529525 0.081068 0.205900
0.580151 0.084095 0.208836
0.630778 0.087123 0.211773
0.681405 0.090150 0.214709
0.732032 0.093177 0.217646
0.782659 0.096205 0.220583
0.833286 0.099232 0.223519
0.883913 0.102259 0.226456
0.080004 0.105890 0.185236
