luts/VintageFade.cube
TITLE "VintageFade"
LUT_3D_SIZE 5
DOMAIN_MIN 0.0 0.0 0.0
DOMAIN_MAX 1.0 1.0 1.0
0.070395 0.050436 0.044946
0.272902 0.062545 0.056692
0.475410 0.074655 0.068438
0.677918 0.086764 0.080184
0.880426 0.098874 0.091930
0.094881 0.258709 0.068006
0.297389 0.270819 0.079752
0.499897 0.282928 0.091498
0.702405 0.295038 0.103244
0.904912 0.307147 0.114991
0.119368 0.466983 0.091066
0.321876 0.479092 0.102812
0.524384 0.491202 0.114559
0.726891 0.503311 0.126305
0.929399 0.515421 0.138051
0.143855 0.675256 0.114126
0.346363 0.687366 0.125873
0.548870 0.699475 0.137619
0.751378 0.711585 0.149365
0.953886 0.723694 0.161111
0.168342 0.883530 0.137187
0.370849 0.895639 0.148933
0.573357 0.907749 0.160679
0.775865 0.919858 0.172425
0.978373 0.931968 0.184172
0.075044 0.054950 0.224312
0.277552 0.067060 0.236059
0.480060 0.079169 0.247805
0.682568 0.091278 0.259551
0.885076 0.103388 0.271297
0.099531 0.263223 0.247373
0.302039 0.275333 0.259119
0.504547 0.287443 0.270865
0.707054 0.299552 0.282611
0.909562 0.311661 0.294358
0.124018 0.471497 0.270433
0.326526 0.483607 0.282179
0.529033 0.495716 0.293926
0.731541 0.507825 0.305672
0.934049 0.519935 0.317418
0.148505 0.679770 0.293493
0.351012 0.691880 0.305240
0.553520 0.703989 0.316986
0.756028 0.716099 0.328732
0.958536 0.728208 0.340478
0.172991 0.888044 0.316554
0.375499 0.900154 0.328300
0.578007 0.912263 0.340046
0.780515 0.924372 0.351792
0.983022 0.936482 0.363539
0.079694 0.059464 0.403679
0.282202 0.071574 0.415426
0.484710 0.083683 0.427172
0.687218 0.095793 0.438918
0.889725 0.107902 0.450664
0.104181 0.267738 0.426740
0.306689 0.279847 0.438486
0.509197 0.291957 0.450232
0.711704 0.304066 0.461978
0.914212 0.316176 0.473725
0.128668 0.476011 0.449800
0.331176 0.488121 0.461546
0.533683 0.500230 0.473293
0.736191 0.512340 0.485039
0.938699 0.524449 0.496785
0.153154 0.684285 0.472860
0.355662 0.696394 0.484607
0.558170 0.708504 0.496353
0.760678 0.720613 0.508099
0.963186 0.732723 0.519845
0.177641 0.892558 0.495921
0.380149 0.904668 0.507667
0.582657 0.916777 0.519413
0.785164 0.928887 0.531159
0.987672 0.940996 0.542906
0.084344 0.063979 0.583046
0.286852 0.076088 0.594793
0.489360 0.088198 0.606539
0.691867 0.100307 0.618285
0.894375 0.112417 0.630031
0.108831 0.272252 0.606107
0.311339 0.284362 0.617853
0.513846 0.296471 0.629599
0.716354 0.308581 0.641345
0.918862 0.320690 0.653092
0.133318 0.480526 0.629167
0.335825 0.492635 0.640913
0.538333 0.504745 0.652659
0.740841 0.516854 0.664406
0.943349 0.528964 0.676152
0.157804 0.688799 0.652227
0.360312 0.700909 0.663974
0.562820 0.713018 0.675720
0.765328 0.725128 0.687466
0.967835 0.737237 0.699212
0.182291 0.897073 0.675288
0.384799 0.909182 0.687034
0.587306 0.921292 0.698780
0.789814 0.933401 0.710526
0.992322 0.945511 0.722272
0.088994 0.068493 0.762413
0.291502 0.080603 0.774160
0.494010 0.092712 0.785906
0.696517 0.104822 0.797652
0.899025 0.116931 0.809398
0.113481 0.276767 0.785474
0.315988 0.288876 0.797220
0.518496 0.300986 0.808966
0.721004 0.313095 0.820712
0.923512 0.325205 0.832459
0.137967 0.485040 0.808534
0.340475 0.497150 0.820280
0.542983 0.509259 0.832026
0.745491 0.521369 0.843773
0.947998 0.533478 0.855519
0.162454 0.693314 0.831594
0.364962 0.705423 0.843341
0.567470 0.717533 0.855087
0.769977 0.729642 0.866833
0.972485 0.741752 0.878579
0.186941 0.901587 0.854655
0.389449 0.913697 0.866401
0.591956 0.925806 0.878147
0.794464 0.937916 0.889893
0.996972 0.950025 0.901639
