luts/VintageFade.cube
TITLE "VintageFade"
LUT_3D_SIZE 9
DOMAIN_MIN 0.0 0.0 0.0
DOMAIN_MAX 1.0 1.0 1.0
0.070395 0.050436 0.044946
0.171649 0.056490 0.050819
0.272902 0.062545 0.056692
0.374156 0.068600 0.062565
0.475410 0.074655 0.068438
0.576664 0.080709 0.074311
0.677918 0.086764 0.080184
0.779172 0.092819 0.086057
0.880426 0.098874 0.091930
0.082638 0.154572 0.056476
0.183892 0.160627 0.062349
0.285146 0.166682 0.068222
0.386400 0.172737 0.074095
0.487654 0.178791 0.079968
0.588907 0.184846 0.085841
0.690161 0.190901 0.091714
0.791415 0.196956 0.097587
0.892669 0.203010 0.103461
0.094881 0.258709 0.068006
0.196135 0.264764 0.073879
0.297389 0.270819 0.079752
0.398643 0.276873 0.085625
0.499897 0.282928 0.091498
0.601151 0.288983 0.097371
0.702405 0.295038 0.103244
0.803659 0.301092 0.109118
0.904912 0.307147 0.114991
0.107125 0.362846 0.079536
0.208379 0.368901 0.085409
0.309633 0.374955 0.091282
0.410886 0.381010 0.097155
0.512140 0.387065 0.103028
0.613394 0.393120 0.108902
0.714648 0.399174 0.114775
0.815902 0.405229 0.120648
0.917156 0.411284 0.126521
0.119368 0.466983 0.091066
0.220622 0.473037 0.096939
0.321876 0.479092 0.102812
0.423130 0.485147 0.108685
0.524384 0.491202 0.114559
0.625637 0.497256 0.120432
0.726891 0.503311 0.126305
0.828145 0.509366 0.132178
0.929399 0.515421 0.138051
0.131611 0.571119 0.102596
0.232865 0.577174 0.108469
0.334119 0.583229 0.114342
0.435373 0.589284 0.120216
0.536627 0.595338 0.126089
0.637881 0.601393 0.131962
0.739135 0.607448 0.137835
0.840389 0.613503 0.143708
0.941643 0.619557 0.149581
0.143855 0.675256 0.114126
0.245109 0.681311 0.120000
0.346363 0.687366 0.125873
0.447616 0.693420 0.131746
0.548870 0.699475 0.137619
0.650124 0.705530 0.143492
0.751378 0.711585 0.149365
0.852632 0.717639 0.155238
0.953886 0.723694 0.161111
0.156098 0.779393 0.125657
0.257352 0.785448 0.131530
0.358606 0.791502 0.137403
0.459860 0.797557 0.143276
0.561114 0.803612 0.149149
0.662368 0.809667 0.155022
0.763621 0.815721 0.160895
0.864875 0.821776 0.166768
0.966129 0.827831 0.172641
0.168342 0.883530 0.137187
0.269595 0.889584 0.143060
0.370849 0.895639 0.148933
0.472103 0.901694 0.154806
0.573357 0.907749 0.160679
0.674611 0.913803 0.166552
0.775865 0.919858 0.172425
0.877119 0.925913 0.178298
0.978373 0.931968 0.184172
0.072720 0.052693 0.134629
0.173973 0.058748 0.140502
0.275227 0.064802 0.146375
0.376481 0.070857 0.152248
0.477735 0.076912 0.158121
0.578989 0.082967 0.163995
0.680243 0.089021 0.169868
0.781497 0.095076 0.175741
0.882751 0.101131 0.181614
0.084963 0.156830 0.146159
0.186217 0.162884 0.152032
0.287471 0.168939 0.157905
0.388725 0.174994 0.163778
0.489978 0.181049 0.169652
0.591232 0.187103 0.175525
0.692486 0.193158 0.181398
0.793740 0.199213 0.187271
0.894994 0.205268 0.193144
0.097206 0.260966 0.157689
0.198460 0.267021 0.163562
0.299714 0.273076 0.169436
0.400968 0.279131 0.175309
0.502222 0.285185 0.181182
0.603476 0.291240 0.187055
0.704730 0.297295 0.192928
0.805983 0.303350 0.198801
0.907237 0.309404 0.204674
0.109450 0.365103 0.169219
0.210704 0.371158 0.175093
0.311957 0.377213 0.180966
0.413211 0.383267 0.186839
0.514465 0.389322 0.192712
0.615719 0.395377 0.198585
0.716973 0.401432 0.204458
0.818227 0.407486 0.210331
0.919481 0.413541 0.216204
0.121693 0.469240 0.180750
0.222947 0.475295 0.186623
0.324201 0.481349 0.192496
0.425455 0.487404 0.198369
0.526709 0.493459 0.204242
0.627962 0.499514 0.210115
0.729216 0.505568 0.215988
0.830470 0.511623 0.221861
0.931724 0.517678 0.227734
0.133936 0.573377 0.192280
0.235190 0.579431 0.198153
0.336444 0.585486 0.204026
0.437698 0.591541 0.209899
0.538952 0.597596 0.215772
0.640206 0.603650 0.221645
0.741460 0.609705 0.227518
0.842714 0.615760 0.233392
0.943967 0.621815 0.239265
0.146180 0.677513 0.203810
0.247434 0.683568 0.209683
0.348687 0.689623 0.215556
0.449941 0.695678 0.221429
0.551195 0.701732 0.227302
0.652449 0.707787 0.233175
0.753703 0.713842 0.239049
0.854957 0.719896 0.244922
0.956211 0.725951 0.250795
0.158423 0.781650 0.215340
0.259677 0.787705 0.221213
0.360931 0.793760 0.227086
0.462185 0.799814 0.232959
0.563439 0.805869 0.238833
0.664693 0.811924 0.244706
0.765946 0.817979 0.250579
0.867200 0.824033 0.256452
0.968454 0.830088 0.262325
0.170666 0.885787 0.226870
0.271920 0.891842 0.232743
0.373174 0.897896 0.238616
0.474428 0.903951 0.244490
0.575682 0.910006 0.250363
0.676936 0.916061 0.256236
0.778190 0.922115 0.262109
0.879444 0.928170 0.267982
0.980697 0.934225 0.273855
0.075044 0.054950 0.224312
0.176298 0.061005 0.230186
0.277552 0.067060 0.236059
0.378806 0.073114 0.241932
0.480060 0.079169 0.247805
0.581314 0.085224 0.253678
0.682568 0.091278 0.259551
0.783822 0.097333 0.265424
0.885076 0.103388 0.271297
0.087288 0.159087 0.235843
0.188542 0.165141 0.241716
0.289796 0.171196 0.247589
0.391049 0.177251 0.253462
0.492303 0.183306 0.259335
0.593557 0.189360 0.265208
0.694811 0.195415 0.271081
0.796065 0.201470 0.276954
0.897319 0.207525 0.282827
0.099531 0.263223 0.247373
0.200785 0.269278 0.253246
0.302039 0.275333 0.259119
0.403293 0.281388 0.264992
0.504547 0.287443 0.270865
0.605801 0.293497 0.276738
0.707054 0.299552 0.282611
0.808308 0.305607 0.288485
0.909562 0.311661 0.294358
0.111775 0.367360 0.258903
0.213028 0.373415 0.264776
0.314282 0.379470 0.270649
0.415536 0.385524 0.276522
0.516790 0.391579 0.282395
0.618044 0.397634 0.288268
0.719298 0.403689 0.294142
0.820552 0.409743 0.300015
0.921806 0.415798 0.305888
0.124018 0.471497 0.270433
0.225272 0.477552 0.276306
0.326526 0.483607 0.282179
0.427780 0.489661 0.288052
0.529033 0.495716 0.293926
0.630287 0.501771 0.299799
0.731541 0.507825 0.305672
0.832795 0.513880 0.311545
0.934049 0.519935 0.317418
0.136261 0.575634 0.281963
0.237515 0.581689 0.287836
0.338769 0.587743 0.293709
0.440023 0.593798 0.299583
0.541277 0.599853 0.305456
0.642531 0.605907 0.311329
0.743785 0.611962 0.317202
0.845038 0.618017 0.323075
0.946292 0.624072 0.328948
0.148505 0.679770 0.293493
0.249759 0.685825 0.299366
0.351012 0.691880 0.305240
0.452266 0.697935 0.311113
0.553520 0.703989 0.316986
0.654774 0.710044 0.322859
0.756028 0.716099 0.328732
0.857282 0.722154 0.334605
0.958536 0.728208 0.340478
0.160748 0.783907 0.305024
0.262002 0.789962 0.310897
0.363256 0.796017 0.316770
0.464510 0.802071 0.322643
0.565763 0.808126 0.328516
0.667017 0.814181 0.334389
0.768271 0.820236 0.340262
0.869525 0.826290 0.346135
0.970779 0.832345 0.352008
0.172991 0.888044 0.316554
0.274245 0.894099 0.322427
0.375499 0.900154 0.328300
0.476753 0.906208 0.334173
0.578007 0.912263 0.340046
0.679261 0.918318 0.345919
0.780515 0.924372 0.351792
0.881769 0.930427 0.357665
0.983022 0.936482 0.363539
0.077369 0.057207 0.313996
0.178623 0.063262 0.319869
0.279877 0.069317 0.325742
0.381131 0.075371 0.331615
0.482385 0.081426 0.337488
0.583639 0.087481 0.343362
0.684893 0.093536 0.349235
0.786147 0.099590 0.355108
0.887401 0.105645 0.360981
0.089613 0.161344 0.325526
0.190867 0.167399 0.331399
0.292121 0.173453 0.337272
0.393374 0.179508 0.343145
0.494628 0.185563 0.349019
0.595882 0.191618 0.354892
0.697136 0.197672 0.360765
0.798390 0.203727 0.366638
0.899644 0.209782 0.372511
0.101856 0.265481 0.337056
0.203110 0.271535 0.342929
0.304364 0.277590 0.348803
0.405618 0.283645 0.354676
0.506872 0.289700 0.360549
0.608126 0.295754 0.366422
0.709379 0.301809 0.372295
0.810633 0.307864 0.378168
0.911887 0.313919 0.384041
0.114099 0.369617 0.348586
0.215353 0.375672 0.354460
0.316607 0.381727 0.360333
0.417861 0.387782 0.366206
0.519115 0.393836 0.372079
0.620369 0.399891 0.377952
0.721623 0.405946 0.383825
0.822877 0.412001 0.389698
0.924131 0.418055 0.395571
0.126343 0.473754 0.360117
0.227597 0.479809 0.365990
0.328851 0.485864 0.371863
0.430104 0.491918 0.377736
0.531358 0.497973 0.383609
0.632612 0.504028 0.389482
0.733866 0.510083 0.395355
0.835120 0.516137 0.401228
0.936374 0.522192 0.407101
0.138586 0.577891 0.371647
0.239840 0.583946 0.377520
0.341094 0.590000 0.383393
0.442348 0.596055 0.389266
0.543602 0.602110 0.395139
0.644856 0.608165 0.401012
0.746109 0.614219 0.406885
0.847363 0.620274 0.412758
0.948617 0.626329 0.418632
0.150830 0.682028 0.383177
0.252083 0.688082 0.389050
0.353337 0.694137 0.394923
0.454591 0.700192 0.400796
0.555845 0.706247 0.406669
0.657099 0.712301 0.412542
0.758353 0.718356 0.418416
0.859607 0.724411 0.424289
0.960861 0.730466 0.430162
0.163073 0.786164 0.394707
0.264327 0.792219 0.400580
0.365581 0.798274 0.406453
0.466835 0.804329 0.412326
0.568088 0.810383 0.418199
0.669342 0.816438 0.424073
0.770596 0.822493 0.429946
0.871850 0.828548 0.435819
0.973104 0.834602 0.441692
0.175316 0.890301 0.406237
0.276570 0.896356 0.412110
0.377824 0.902411 0.417983
0.479078 0.908465 0.423857
0.580332 0.914520 0.429730
0.681586 0.920575 0.435603
0.782840 0.926630 0.441476
0.884093 0.932684 0.447349
0.985347 0.938739 0.453222
0.079694 0.059464 0.403679
0.180948 0.065519 0.409553
0.282202 0.071574 0.415426
0.383456 0.077629 0.421299
0.484710 0.083683 0.427172
0.585964 0.089738 0.433045
0.687218 0.095793 0.438918
0.788472 0.101848 0.444791
0.889725 0.107902 0.450664
0.091938 0.163601 0.415210
0.193192 0.169656 0.421083
0.294445 0.175711 0.426956
0.395699 0.181765 0.432829
0.496953 0.187820 0.438702
0.598207 0.193875 0.444575
0.699461 0.199930 0.450448
0.800715 0.205984 0.456321
0.901969 0.212039 0.462195
0.104181 0.267738 0.426740
0.205435 0.273793 0.432613
0.306689 0.279847 0.438486
0.407943 0.285902 0.444359
0.509197 0.291957 0.450232
0.610451 0.298012 0.456105
0.711704 0.304066 0.461978
0.812958 0.310121 0.467852
0.914212 0.316176 0.473725
0.116424 0.371875 0.438270
0.217678 0.377929 0.444143
0.318932 0.383984 0.450016
0.420186 0.390039 0.455889
0.521440 0.396094 0.461762
0.622694 0.402148 0.467635
0.723948 0.408203 0.473509
0.825202 0.414258 0.479382
0.926455 0.420313 0.485255
0.128668 0.476011 0.449800
0.229922 0.482066 0.455673
0.331176 0.488121 0.461546
0.432429 0.494176 0.467419
0.533683 0.500230 0.473293
0.634937 0.506285 0.479166
0.736191 0.512340 0.485039
0.837445 0.518395 0.490912
0.938699 0.524449 0.496785
0.140911 0.580148 0.461330
0.242165 0.586203 0.467203
0.343419 0.592258 0.473076
0.444673 0.598312 0.478950
0.545927 0.604367 0.484823
0.647180 0.610422 0.490696
0.748434 0.616477 0.496569
0.849688 0.622531 0.502442
0.950942 0.628586 0.508315
0.153154 0.684285 0.472860
0.254408 0.690340 0.478733
0.355662 0.696394 0.484607
0.456916 0.702449 0.490480
0.558170 0.708504 0.496353
0.659424 0.714559 0.502226
0.760678 0.720613 0.508099
0.861932 0.726668 0.513972
0.963186 0.732723 0.519845
0.165398 0.788422 0.484391
0.266652 0.794476 0.490264
0.367906 0.800531 0.496137
0.469159 0.806586 0.502010
0.570413 0.812641 0.507883
0.671667 0.818695 0.513756
0.772921 0.824750 0.519629
0.874175 0.830805 0.525502
0.975429 0.836860 0.531375
0.177641 0.892558 0.495921
0.278895 0.898613 0.501794
0.380149 0.904668 0.507667
0.481403 0.910723 0.513540
0.582657 0.916777 0.519413
0.683911 0.922832 0.525286
0.785164 0.928887 0.531159
0.886418 0.934942 0.537032
0.987672 0.940996 0.542906
0.082019 0.061722 0.493363
0.183273 0.067776 0.499236
0.284527 0.073831 0.505109
0.385781 0.079886 0.510982
0.487035 0.085941 0.516855
0.588289 0.091995 0.522729
0.689543 0.098050 0.528602
0.790796 0.104105 0.534475
0.892050 0.110160 0.540348
0.094263 0.165858 0.504893
0.195516 0.171913 0.510766
0.296770 0.177968 0.516639
0.398024 0.184023 0.522512
0.499278 0.190077 0.528386
0.600532 0.196132 0.534259
0.701786 0.202187 0.540132
0.803040 0.208242 0.546005
0.904294 0.214296 0.551878
0.106506 0.269995 0.516423
0.207760 0.276050 0.522296
0.309014 0.282105 0.528170
0.410268 0.288159 0.534043
0.511522 0.294214 0.539916
0.612775 0.300269 0.545789
0.714029 0.306324 0.551662
0.815283 0.312378 0.557535
0.916537 0.318433 0.563408
0.118749 0.374132 0.527953
0.220003 0.380187 0.533827
0.321257 0.386241 0.539700
0.422511 0.392296 0.545573
0.523765 0.398351 0.551446
0.625019 0.404406 0.557319
0.726273 0.410460 0.563192
0.827526 0.416515 0.569065
0.928780 0.422570 0.574938
0.130993 0.478269 0.539484
0.232247 0.484323 0.545357
0.333500 0.490378 0.551230
0.434754 0.496433 0.557103
0.536008 0.502488 0.562976
0.637262 0.508542 0.568849
0.738516 0.514597 0.574722
0.839770 0.520652 0.580595
0.941024 0.526707 0.586468
0.143236 0.582405 0.551014
0.244490 0.588460 0.556887
0.345744 0.594515 0.562760
0.446998 0.600570 0.568633
0.548252 0.606624 0.574506
0.649505 0.612679 0.580379
0.750759 0.618734 0.586252
0.852013 0.624789 0.592125
0.953267 0.630843 0.597999
0.155479 0.686542 0.562544
0.256733 0.692597 0.568417
0.357987 0.698652 0.574290
0.459241 0.704706 0.580163
0.560495 0.710761 0.586036
0.661749 0.716816 0.591909
0.763003 0.722871 0.597782
0.864257 0.728925 0.603656
0.965510 0.734980 0.609529
0.167723 0.790679 0.574074
0.268977 0.796734 0.579947
0.370230 0.802788 0.585820
0.471484 0.808843 0.591693
0.572738 0.814898 0.597566
0.673992 0.820953 0.603440
0.775246 0.827007 0.609313
0.876500 0.833062 0.615186
0.977754 0.839117 0.621059
0.179966 0.894816 0.585604
0.281220 0.900870 0.591477
0.382474 0.906925 0.597350
0.483728 0.912980 0.603224
0.584982 0.919035 0.609097
0.686236 0.925089 0.614970
0.787489 0.931144 0.620843
0.888743 0.937199 0.626716
0.989997 0.943254 0.632589
0.084344 0.063979 0.583046
0.185598 0.070034 0.588920
0.286852 0.076088 0.594793
0.388106 0.082143 0.600666
0.489360 0.088198 0.606539
0.590614 0.094253 0.612412
0.691867 0.100307 0.618285
0.793121 0.106362 0.624158
0.894375 0.112417 0.630031
0.096588 0.168116 0.594577
0.197841 0.174170 0.600450
0.299095 0.180225 0.606323
0.400349 0.186280 0.612196
0.501603 0.192335 0.618069
0.602857 0.198389 0.623942
0.704111 0.204444 0.629815
0.805365 0.210499 0.635688
0.906619 0.216554 0.641561
0.108831 0.272252 0.606107
0.210085 0.278307 0.611980
0.311339 0.284362 0.617853
0.412593 0.290417 0.623726
0.513846 0.296471 0.629599
0.615100 0.302526 0.635472
0.716354 0.308581 0.641345
0.817608 0.314636 0.647218
0.918862 0.320690 0.653092
0.121074 0.376389 0.617637
0.222328 0.382444 0.623510
0.323582 0.388499 0.629383
0.424836 0.394553 0.635256
0.526090 0.400608 0.641129
0.627344 0.406663 0.647002
0.728597 0.412718 0.652876
0.829851 0.418772 0.658749
0.931105 0.424827 0.664622
0.133318 0.480526 0.629167
0.234571 0.486581 0.635040
0.335825 0.492635 0.640913
0.437079 0.498690 0.646786
0.538333 0.504745 0.652659
0.639587 0.510800 0.658533
0.740841 0.516854 0.664406
0.842095 0.522909 0.670279
0.943349 0.528964 0.676152
0.145561 0.584663 0.640697
0.246815 0.590717 0.646570
0.348069 0.596772 0.652443
0.449323 0.602827 0.658316
0.550576 0.608882 0.664190
0.651830 0.614936 0.670063
0.753084 0.620991 0.675936
0.854338 0.627046 0.681809
0.955592 0.633101 0.687682
0.157804 0.688799 0.652227
0.259058 0.694854 0.658100
0.360312 0.700909 0.663974
0.461566 0.706964 0.669847
0.562820 0.713018 0.675720
0.664074 0.719073 0.681593
0.765328 0.725128 0.687466
0.866581 0.731183 0.693339
0.967835 0.737237 0.699212
0.170048 0.792936 0.663758
0.271302 0.798991 0.669631
0.372555 0.805046 0.675504
0.473809 0.811100 0.681377
0.575063 0.817155 0.687250
0.676317 0.823210 0.693123
0.777571 0.829265 0.698996
0.878825 0.835319 0.704869
0.980079 0.841374 0.710742
0.182291 0.897073 0.675288
0.283545 0.903128 0.681161
0.384799 0.909182 0.687034
0.486053 0.915237 0.692907
0.587306 0.921292 0.698780
0.688560 0.927347 0.704653
0.789814 0.933401 0.710526
0.891068 0.939456 0.716399
0.992322 0.945511 0.722272
0.086669 0.066236 0.672730
0.187923 0.072291 0.678603
0.289177 0.078345 0.684476
0.390431 0.084400 0.690349
0.491685 0.090455 0.696222
0.592939 0.096510 0.702096
0.694192 0.102565 0.707969
0.795446 0.108619 0.713842
0.896700 0.114674 0.719715
0.098912 0.170373 0.684260
0.200166 0.176427 0.690133
0.301420 0.182482 0.696006
0.402674 0.188537 0.701879
0.503928 0.194592 0.707753
0.605182 0.200646 0.713626
0.706436 0.206701 0.719499
0.807690 0.212756 0.725372
0.908943 0.218811 0.731245
0.111156 0.274510 0.695790
0.212410 0.280564 0.701663
0.313664 0.286619 0.707536
0.414917 0.292674 0.713410
0.516171 0.298728 0.719283
0.617425 0.304783 0.725156
0.718679 0.310838 0.731029
0.819933 0.316893 0.736902
0.921187 0.322948 0.742775
0.123399 0.378646 0.707320
0.224653 0.384701 0.713193
0.325907 0.390756 0.719067
0.427161 0.396810 0.724940
0.528415 0.402865 0.730813
0.629669 0.408920 0.736686
0.730922 0.414975 0.742559
0.832176 0.421030 0.748432
0.933430 0.427084 0.754305
0.135642 0.482783 0.718851
0.236896 0.488838 0.724724
0.338150 0.494893 0.730597
0.439404 0.500947 0.736470
0.540658 0.507002 0.742343
0.641912 0.513057 0.748216
0.743166 0.519112 0.754089
0.844420 0.525166 0.759962
0.945674 0.531221 0.765835
0.147886 0.586920 0.730381
0.249140 0.592975 0.736254
0.350394 0.599029 0.742127
0.451647 0.605084 0.748000
0.552901 0.611139 0.753873
0.654155 0.617194 0.759746
0.755409 0.623248 0.765619
0.856663 0.629303 0.771492
0.957917 0.635358 0.777366
0.160129 0.691056 0.741911
0.261383 0.697111 0.747784
0.362637 0.703166 0.753657
0.463891 0.709221 0.759530
0.565145 0.715275 0.765403
0.666399 0.721330 0.771276
0.767653 0.727385 0.777149
0.868906 0.733440 0.783023
0.970160 0.739494 0.788896
0.172373 0.795193 0.753441
0.273626 0.801248 0.759314
0.374880 0.807303 0.765187
0.476134 0.813357 0.771060
0.577388 0.819412 0.776933
0.678642 0.825467 0.782806
0.779896 0.831522 0.788680
0.881150 0.837576 0.794553
0.982404 0.843631 0.800426
0.184616 0.899330 0.764971
0.285870 0.905385 0.770844
0.387124 0.911439 0.776717
0.488378 0.917494 0.782590
0.589631 0.923549 0.788464
0.690885 0.929604 0.794337
0.792139 0.935659 0.800210
0.893393 0.941713 0.806083
0.994647 0.947768 0.811956
0.088994 0.068493 0.762413
0.190248 0.074548 0.768287
0.291502 0.080603 0.774160
0.392756 0.086657 0.780033
0.494010 0.092712 0.785906
0.595263 0.098767 0.791779
0.696517 0.104822 0.797652
0.797771 0.110876 0.803525
0.899025 0.116931 0.809398
0.101237 0.172630 0.773944
0.202491 0.178685 0.779817
0.303745 0.184739 0.785690
0.404999 0.190794 0.791563
0.506253 0.196849 0.797436
0.607507 0.202904 0.803309
0.708761 0.208958 0.809182
0.810014 0.215013 0.815055
0.911268 0.221068 0.820928
0.113481 0.276767 0.785474
0.214735 0.282821 0.791347
0.315988 0.288876 0.797220
0.417242 0.294931 0.803093
0.518496 0.300986 0.808966
0.619750 0.307040 0.814839
0.721004 0.313095 0.820712
0.822258 0.319150 0.826585
0.923512 0.325205 0.832459
0.125724 0.380903 0.797004
0.226978 0.386958 0.802877
0.328232 0.393013 0.808750
0.429486 0.399068 0.814623
0.530740 0.405122 0.820496
0.631993 0.411177 0.826369
0.733247 0.417232 0.832242
0.834501 0.423287 0.838116
0.935755 0.429341 0.843989
0.137967 0.485040 0.808534
0.239221 0.491095 0.814407
0.340475 0.497150 0.820280
0.441729 0.503204 0.826153
0.542983 0.509259 0.832026
0.644237 0.515314 0.837900
0.745491 0.521369 0.843773
0.846745 0.527423 0.849646
0.947998 0.533478 0.855519
0.150211 0.589177 0.820064
0.251465 0.595232 0.825937
0.352719 0.601286 0.831810
0.453972 0.607341 0.837683
0.555226 0.613396 0.843557
0.656480 0.619451 0.849430
0.757734 0.625505 0.855303
0.858988 0.631560 0.861176
0.960242 0.637615 0.867049
0.162454 0.693314 0.831594
0.263708 0.699368 0.837467
0.364962 0.705423 0.843341
0.466216 0.711478 0.849214
0.567470 0.717533 0.855087
0.668724 0.723587 0.860960
0.769977 0.729642 0.866833
0.871231 0.735697 0.872706
0.972485 0.741752 0.878579
0.174697 0.797450 0.843124
0.275951 0.803505 0.848998
0.377205 0.809560 0.854871
0.478459 0.815615 0.860744
0.579713 0.821669 0.866617
0.680967 0.827724 0.872490
0.782221 0.833779 0.878363
0.883475 0.839834 0.884236
0.984729 0.845888 0.890109
0.186941 0.901587 0.854655
0.288195 0.907642 0.860528
0.389449 0.913697 0.866401
0.490702 0.919751 0.872274
0.591956 0.925806 0.878147
0.693210 0.931861 0.884020
0.794464 0.937916 0.889893
0.895718 0.943970 0.895766
0.996972 0.950025 0.901639
