luts/WarmFilm.cube
TITLE "WarmFilm"
LUT_3D_SIZE 17
DOMAIN_MIN 0.0 0.0 0.0
DOMAIN_MAX 1.0 1.0 1.0
0.000000 0.000000 0.000000
0.000000 0.000000 0.000000
0.000000 0.000000 0.000000
0.000000 0.000000 0.000000
0.025857 0.000000 0.000000
0.104032 0.000000 0.000000
0.182207 0.000000 0.000000
0.260382 0.000000 0.000000
0.338557 0.000000 0.000000
0.416732 0.000000 0.000000
0.494907 0.000000 0.000000
0.573082 0.000000 0.000000
0.651257 0.000000 0.000000
0.729432 0.000000 0.000000
0.807607 0.000000 0.000000
0.878997 0.000000 0.000000
0.878997 0.000000 0.000000
0.000000 0.000000 0.000000
0.000000 0.000000 0.000000
0.008474 0.003702 0.000000
0.059140 0.017714 0.000000
0.118897 0.027095 0.000000
0.183878 0.033816 0.000000
0.252137 0.038867 0.000000
0.322586 0.042802 0.000000
0.394573 0.045955 0.000000
0.467679 0.048536 0.000000
0.541627 0.050690 0.000000
0.616222 0.052513 0.000000
0.691327 0.054077 0.000000
0.766840 0.055433 0.000000
0.842684 0.056620 0.000000
0.912186 0.057582 0.000000
0.912186 0.057582 0.000000
0.000260 0.002733 0.000000
0.020108 0.032443 0.000000
0.059654 0.052120 0.000000
0.110360 0.066111 0.000000
0.168001 0.076571 0.000000
0.230245 0.084686 0.000000
0.295700 0.091165 0.000000
0.363484 0.096458 0.000000
0.433011 0.100863 0.000000
0.503877 0.104586 0.000000
0.575792 0.107774 0.000000
0.648547 0.110535 0.000000
0.721982 0.112950 0.000000
0.795978 0.115078 0.000000
0.870440 0.116970 0.000000
0.938783 0.118521 0.000000
0.938783 0.118521 0.000000
0.004748 0.074935 0.000000
0.039998 0.096800 0.000000
0.086264 0.113053 0.000000
0.139787 0.125610 0.000000
0.198346 0.135602 0.000000
0.260539 0.143742 0.000000
0.325443 0.150502 0.000000
0.392421 0.156206 0.000000
0.461023 0.161082 0.000000
0.530919 0.165299 0.000000
0.601864 0.168982 0.000000
0.673670 0.172226 0.000000
0.746192 0.175105 0.000000
0.819315 0.177679 0.000000
0.892949 0.179992 0.000000
0.960575 0.181909 0.000000
0.960575 0.181909 0.000000
0.007046 0.148252 0.000000
0.051298 0.165531 0.000000
0.102571 0.179234 0.000000
0.158890 0.190367 0.000000
0.218957 0.199591 0.000000
0.281883 0.207358 0.000000
0.347042 0.213988 0.000000
0.413976 0.219714 0.000000
0.482345 0.224709 0.000000
0.551891 0.229104 0.000000
0.622414 0.233002 0.000000
0.693757 0.236482 0.000000
0.765795 0.239608 0.000000
0.838427 0.242431 0.000000
0.911571 0.244994 0.000000
0.978756 0.247136 0.000000
0.978756 0.247136 0.000000
0.008441 0.222028 0.000000
0.058585 0.236307 0.000000
0.113590 0.248109 0.000000
0.172291 0.258028 0.000000
0.233871 0.266482 0.000000
0.297733 0.273772 0.000000
0.363439 0.280123 0.000000
0.430653 0.285706 0.000000
0.499117 0.290653 0.000000
0.568629 0.295065 0.000000
0.639028 0.299026 0.000000
0.710185 0.302601 0.000000
0.781993 0.305844 0.000000
0.854366 0.308800 0.000000
0.927232 0.311504 0.000000
0.994154 0.313780 0.000000
0.994154 0.313780 0.000000
0.009379 0.296038 0.000000
0.063675 0.308202 0.000000
0.121533 0.318551 0.000000
0.182212 0.327462 0.000000
0.245162 0.335217 0.000000
0.309969 0.342027 0.000000
0.376312 0.348054 0.000000
0.443940 0.353426 0.000000
0.512656 0.358244 0.000000
0.582298 0.362590 0.000000
0.652738 0.366530 0.000000
0.723869 0.370119 0.000000
0.795601 0.373400 0.000000
0.867862 0.376413 0.000000
0.940588 0.379189 0.000000
1.000000 0.381539 0.000000
1.000000 0.381539 0.000000
0.010053 0.370182 0.000000
0.067430 0.380776 0.000000
0.127530 0.389983 0.000000
0.189852 0.398058 0.000000
0.254009 0.405199 0.000000
0.319699 0.411558 0.000000
0.386686 0.417257 0.000000
0.454776 0.422394 0.000000
0.523814 0.427048 0.000000
0.593672 0.431284 0.000000
0.664245 0.435157 0.000000
0.735444 0.438710 0.000000
0.807195 0.441982 0.000000
0.879436 0.445005 0.000000
0.952111 0.447806 0.000000
1.000000 0.450191 0.000000
1.000000 0.450191 0.000000
0.010560 0.444412 0.000000
0.070316 0.453794 0.000000
0.132219 0.462082 0.000000
0.195917 0.469457 0.000000
0.261126 0.476061 0.000000
0.327623 0.482009 0.000000
0.395224 0.487395 0.000000
0.463781 0.492295 0.000000
0.533168 0.496771 0.000000
0.603283 0.500876 0.000000
0.674039 0.504655 0.000000
0.745363 0.508145 0.000000
0.817192 0.511378 0.000000
0.889471 0.514381 0.000000
0.962155 0.517178 0.000000
1.000000 0.519569 0.000000
1.000000 0.519569 0.000000
0.010956 0.518698 0.000000
0.072602 0.527117 0.000000
0.135986 0.534651 0.000000
0.200848 0.541432 0.000000
0.266977 0.547568 0.000000
0.334200 0.553147 0.000000
0.402375 0.558240 0.000000
0.471383 0.562910 0.000000
0.541123 0.567206 0.000000
0.611512 0.571172 0.000000
0.682478 0.574844 0.000000
0.753958 0.578255 0.000000
0.825899 0.581430 0.000000
0.898256 0.584394 0.000000
0.970988 0.587166 0.000000
1.000000 0.589546 0.000000
1.000000 0.589546 0.000000
0.011273 0.593023 0.000000
0.074458 0.600659 0.000000
0.139078 0.607564 0.000000
0.204937 0.613837 0.000000
0.271871 0.619563 0.000000
0.339747 0.624809 0.000000
0.408451 0.629633 0.000000
0.477886 0.634085 0.000000
0.547972 0.638205 0.000000
0.618637 0.642030 0.000000
0.689823 0.645590 0.000000
0.761476 0.648912 0.000000
0.833552 0.652019 0.000000
0.906010 0.654931 0.000000
0.978816 0.657666 0.000000
1.000000 0.660022 0.000000
1.000000 0.660022 0.000000
0.011533 0.667378 0.000000
0.075995 0.674364 0.000000
0.141662 0.680735 0.000000
0.208381 0.686570 0.000000
0.276026 0.691934 0.000000
0.344489 0.696881 0.000000
0.413677 0.701458 0.000000
0.483513 0.705706 0.000000
0.553929 0.709658 0.000000
0.624867 0.713345 0.000000
0.696275 0.716792 0.000000
0.768109 0.720021 0.000000
0.840331 0.723054 0.000000
0.912905 0.725907 0.000000
0.985801 0.728596 0.000000
1.000000 0.730919 0.000000
1.000000 0.730919 0.000000
0.011751 0.741755 0.000000
0.077289 0.748192 0.000000
0.143853 0.754106 0.000000
0.211323 0.759559 0.000000
0.279597 0.764602 0.000000
0.348588 0.769280 0.000000
0.418221 0.773632 0.000000
0.488430 0.777689 0.000000
0.559159 0.781482 0.000000
0.630359 0.785034 0.000000
0.701987 0.788369 0.000000
0.774004 0.791506 0.000000
0.846377 0.794462 0.000000
0.919075 0.797251 0.000000
0.992073 0.799888 0.000000
1.000000 0.802174 0.000000
1.000000 0.802174 0.000000
0.011935 0.816149 0.000000
0.078392 0.822118 0.000000
0.145734 0.827635 0.000000
0.213864 0.832752 0.000000
0.282699 0.837510 0.000000
0.352168 0.841945 0.000000
0.422207 0.846089 0.000000
0.492762 0.849970 0.000000
0.563787 0.853612 0.000000
0.635238 0.857037 0.000000
0.707080 0.860263 0.000000
0.779278 0.863307 0.000000
0.851804 0.866185 0.000000
0.924630 0.868909 0.000000
0.997735 0.871492 0.000000
1.000000 0.873736 0.000000
1.000000 0.873736 0.000000
0.012092 0.890556 0.000000
0.079345 0.896120 0.000000
0.147368 0.901291 0.000000
0.216082 0.906110 0.000000
0.285419 0.910612 0.000000
0.355320 0.914826 0.000000
0.425732 0.918781 0.000000
0.496609 0.922498 0.000000
0.567911 0.925999 0.000000
0.639601 0.929302 0.000000
0.711649 0.932423 0.000000
0.784024 0.935378 0.000000
0.856701 0.938178 0.000000
0.929658 0.940836 0.000000
1.000000 0.943362 0.000000
1.000000 0.945562 0.000000
1.000000 0.945562 0.000000
0.012229 0.964974 0.000000
0.080176 0.970184 0.000000
0.148800 0.975049 0.000000
0.218034 0.979603 0.000000
0.287824 0.983874 0.000000
0.358118 0.987889 0.000000
0.428872 0.991669 0.000000
0.500048 0.995234 0.000000
0.571609 0.998602 0.000000
0.643526 1.000000 0.000000
0.715770 1.000000 0.000000
0.788317 1.000000 0.000000
0.861143 1.000000 0.000000
0.934229 1.000000 0.000000
1.000000 1.000000 0.000000
1.000000 1.000000 0.000000
1.000000 1.000000 0.000000
0.012331 1.000000 0.000000
0.080797 1.000000 0.000000
0.149874 1.000000 0.000000
0.219505 1.000000 0.000000
0.289641 1.000000 0.000000
0.360239 1.000000 0.000000
0.431261 1.000000 0.000000
0.502670 1.000000 0.000000
0.574438 1.000000 0.000000
0.646536 1.000000 0.000000
0.718939 1.000000 0.000000
0.791625 1.000000 0.000000
0.864574 1.000000 0.000000
0.937766 1.000000 0.000000
1.000000 1.000000 0.000000
1.000000 1.000000 0.000000
1.000000 1.000000 0.000000
0.000000 0.000000 0.000000
0.000000 0.000000 0.000000
0.000000 0.000000 0.000000
0.000000 0.000000 0.000000
0.047932 0.000000 0.009950
0.122102 0.000000 0.020454
0.197502 0.000000 0.027732
0.273641 0.000000 0.033073
0.350258 0.000000 0.037158
0.427203 0.000000 0.040385
0.504382 0.000000 0.042998
0.581734 0.000000 0.045157
0.659217 0.000000 0.046970
0.736803 0.000000 0.048516
0.814470 0.000000 0.049848
0.885454 0.000000 0.050914
0.885454 0.000000 0.050914
0.000000 0.000000 0.000000
0.000000 0.000000 0.000000
0.020708 0.009047 0.008240
0.070793 0.021204 0.019315
0.129679 0.029552 0.026919
0.193791 0.035639 0.032463
0.261259 0.040273 0.036685
0.331008 0.043920 0.040006
0.402381 0.046864 0.042688
0.474949 0.049291 0.044899
0.548422 0.051326 0.046752
0.622598 0.053056 0.048329
0.697331 0.054546 0.049686
0.772510 0.055843 0.050867
0.848056 0.056981 0.051903
0.917310 0.057905 0.052745
0.917310 0.057905 0.052745
0.001341 0.014111 0.006427
0.024658 0.039784 0.018119
0.065520 0.057245 0.026072
0.116671 0.069892 0.031832
0.174371 0.079474 0.036196
0.236496 0.086985 0.039617
0.301751 0.093031 0.042370
0.369303 0.098002 0.044635
0.438589 0.102162 0.046529
0.509216 0.105694 0.048138
0.580903 0.108731 0.049521
0.653440 0.111369 0.050723
0.726671 0.113683 0.051776
0.800475 0.115729 0.052708
0.874758 0.117550 0.053538
0.942948 0.119047 0.054220
0.942948 0.119047 0.054220
0.005257 0.082961 0.025189
0.042429 0.102683 0.031178
0.089695 0.117550 0.035692
0.143737 0.129159 0.039217
0.202546 0.138474 0.042045
0.264837 0.146114 0.044365
0.329749 0.152494 0.046302
0.396682 0.157901 0.047944
0.465206 0.162543 0.049353
0.535007 0.166571 0.050576
0.605847 0.170100 0.051647
0.677543 0.173216 0.052594
0.749954 0.175988 0.053435
0.822968 0.178471 0.054189
0.896495 0.180707 0.054868
0.964027 0.182563 0.055432
0.964027 0.182563 0.055432
0.007340 0.154448 0.035171
0.052808 0.170403 0.038805
0.104821 0.183165 0.041711
0.161593 0.193605 0.044088
0.221934 0.202304 0.046069
0.285019 0.209665 0.047745
0.350262 0.215973 0.049182
0.417229 0.221440 0.050427
0.485598 0.226224 0.051516
0.555120 0.230444 0.052477
0.625605 0.234196 0.053332
0.696899 0.237552 0.054096
0.768881 0.240573 0.054784
0.841454 0.243306 0.055406
0.914535 0.245791 0.055972
0.981663 0.247870 0.056446
0.981663 0.247870 0.056446
0.008633 0.227074 0.041368
0.059613 0.240453 0.043805
0.115177 0.251576 0.045832
0.174256 0.260971 0.047543
0.236090 0.269010 0.049008
0.300122 0.275968 0.050275
0.365937 0.282049 0.051383
0.433218 0.287408 0.052360
0.501719 0.292168 0.053227
0.571245 0.296423 0.054002
0.641642 0.300249 0.054699
0.712784 0.303709 0.055329
0.784570 0.306852 0.055902
0.856914 0.309721 0.056424
0.929747 0.312349 0.056903
0.996636 0.314563 0.057307
0.996636 0.314563 0.057307
0.009514 0.300293 0.045589
0.064419 0.311806 0.047337
0.122713 0.321643 0.048830
0.183705 0.330145 0.050121
0.246880 0.337567 0.051248
0.311849 0.344101 0.052240
0.378306 0.349899 0.053120
0.446014 0.355077 0.053906
0.514784 0.359731 0.054613
0.584460 0.363936 0.055251
0.654918 0.367754 0.055831
0.726055 0.371236 0.056359
0.797785 0.374425 0.056843
0.870036 0.377356 0.057288
0.942748 0.380059 0.057699
1.000000 0.382351 0.058047
1.000000 0.382351 0.058047
0.010153 0.373860 0.048649
0.067994 0.383962 0.049964
0.128442 0.392770 0.051110
0.191024 0.400516 0.052118
0.255378 0.407383 0.053012
0.321217 0.413512 0.053809
0.388315 0.419015 0.054525
0.456488 0.423984 0.055172
0.525586 0.428493 0.055759
0.595488 0.432604 0.056294
0.666091 0.436366 0.056783
0.737309 0.439822 0.057233
0.809070 0.443009 0.057648
0.881314 0.445955 0.058031
0.953987 0.448689 0.058387
1.000000 0.451017 0.058690
1.000000 0.451017 0.058690
0.010637 0.447651 0.050970
0.070758 0.456648 0.051995
0.132945 0.464616 0.052902
0.196862 0.471721 0.053711
0.262243 0.478097 0.054437
0.328874 0.483850 0.055092
0.396580 0.489067 0.055686
0.465218 0.493820 0.056227
0.534668 0.498168 0.056722
0.604830 0.502161 0.057177
0.675622 0.505840 0.057596
0.746972 0.509242 0.057983
0.818818 0.512396 0.058342
0.891109 0.515328 0.058676
0.963799 0.518061 0.058987
1.000000 0.520400 0.059254
1.000000 0.520400 0.059254
0.011017 0.521591 0.052790
0.072958 0.529701 0.053611
0.136577 0.536973 0.054347
0.201626 0.543529 0.055011
0.267905 0.549472 0.055612
0.335249 0.554883 0.056160
0.403521 0.559830 0.056660
0.472606 0.564371 0.057120
0.542408 0.568553 0.057543
0.612846 0.572418 0.057935
0.683850 0.576001 0.058297
0.755360 0.579330 0.058634
0.827324 0.582433 0.058948
0.899697 0.585331 0.059241
0.972441 0.588045 0.059516
1.000000 0.590375 0.059752
1.000000 0.590375 0.059752
0.011323 0.595638 0.054256
0.074751 0.603020 0.054929
0.139568 0.609705 0.055537
0.205588 0.615789 0.056092
0.272655 0.621349 0.056598
0.340639 0.626449 0.057063
0.409432 0.631145 0.057490
0.478940 0.635483 0.057886
0.549085 0.639502 0.058252
0.619800 0.643236 0.058592
0.691025 0.646715 0.058909
0.762709 0.649963 0.059205
0.834810 0.653004 0.059482
0.907288 0.655855 0.059741
0.980109 0.658535 0.059985
1.000000 0.660845 0.060196
1.000000 0.660845 0.060196
0.011575 0.669763 0.055462
0.076240 0.676536 0.056023
0.142075 0.682722 0.056535
0.208935 0.688394 0.057005
0.276697 0.693614 0.057437
0.345257 0.698435 0.057836
0.414527 0.702899 0.058206
0.484431 0.707045 0.058549
0.554904 0.710906 0.058869
0.625888 0.714511 0.059167
0.697335 0.717883 0.059447
0.769202 0.721046 0.059709
0.841450 0.724017 0.059955
0.914046 0.726814 0.060186
0.986959 0.729452 0.060405
1.000000 0.731732 0.060593
1.000000 0.731732 0.060593
0.011785 0.743948 0.056471
0.077496 0.750204 0.056946
0.144206 0.755959 0.057383
0.211799 0.761271 0.057786
0.280177 0.766189 0.058160
0.349256 0.770755 0.058506
0.418963 0.775005 0.058829
0.489236 0.778972 0.059130
0.560019 0.782683 0.059412
0.631264 0.786161 0.059676
0.702930 0.789429 0.059924
0.774979 0.792503 0.060157
0.847379 0.795402 0.060377
0.920100 0.798140 0.060585
0.993116 0.800730 0.060781
1.000000 0.802975 0.060952
1.000000 0.802975 0.060952
0.011964 0.818177 0.057328
0.078571 0.823991 0.057736
0.146040 0.829371 0.058113
0.214278 0.834364 0.058463
0.283206 0.839011 0.058788
0.352754 0.843347 0.059092
0.422861 0.847401 0.059376
0.493476 0.851200 0.059642
0.564551 0.854768 0.059892
0.636045 0.858125 0.060128
0.707924 0.861290 0.060349
0.780154 0.864277 0.060559
0.852706 0.867103 0.060757
0.925556 0.869779 0.060944
0.998680 0.872317 0.061122
1.000000 0.874523 0.061277
1.000000 0.874523 0.061277
0.012118 0.892443 0.058066
0.079500 0.897872 0.058419
0.147635 0.902923 0.058747
0.216445 0.907633 0.059054
0.285866 0.912037 0.059340
0.355839 0.916162 0.059609
0.426314 0.920036 0.059861
0.497245 0.923679 0.060098
0.568594 0.927113 0.060321
0.640326 0.930354 0.060532
0.712408 0.933419 0.060732
0.784814 0.936321 0.060920
0.857518 0.939073 0.061099
0.930498 0.941686 0.061270
1.000000 0.944171 0.061431
1.000000 0.946336 0.061572
1.000000 0.946336 0.061572
0.012252 0.966738 0.058706
0.080312 0.971830 0.059015
0.149035 0.976589 0.059304
0.218356 0.981046 0.059575
0.288220 0.985230 0.059829
0.358580 0.989165 0.060068
0.429392 0.992871 0.060293
0.500618 0.996370 0.060506
0.572224 0.999677 0.060706
0.644180 1.000000 0.060897
0.716458 1.000000 0.061077
0.789034 1.000000 0.061248
0.861886 1.000000 0.061411
0.934995 1.000000 0.061566
1.000000 1.000000 0.061713
1.000000 1.000000 0.061842
1.000000 1.000000 0.061842
0.012351 1.000000 0.059184
0.080920 1.000000 0.059462
0.150086 1.000000 0.059723
0.219796 1.000000 0.059968
0.290002 1.000000 0.060199
0.360661 1.000000 0.060417
0.431736 1.000000 0.060622
0.503194 1.000000 0.060817
0.575003 1.000000 0.061001
0.647138 1.000000 0.061176
0.719574 1.000000 0.061342
0.792288 1.000000 0.061501
0.865262 1.000000 0.061651
0.938477 1.000000 0.061795
1.000000 1.000000 0.061932
1.000000 1.000000 0.062052
1.000000 1.000000 0.062052
0.000000 0.000000 0.000000
0.000000 0.000000 0.000000
0.000000 0.000000 0.000000
0.000000 0.000000 0.000000
0.066991 0.000000 0.027812
0.138126 0.000000 0.046277
0.211319 0.000000 0.059345
0.285782 0.000000 0.069080
0.361084 0.000000 0.076614
0.436971 0.000000 0.082617
0.513279 0.000000 0.087512
0.589903 0.000000 0.091581
0.666768 0.000000 0.095017
0.743823 0.000000 0.097955
0.821028 0.000000 0.100498
0.891640 0.000000 0.102539
0.891640 0.000000 0.102539
0.000000 0.000000 0.000000
0.000000 0.000000 0.000000
0.031225 0.013641 0.024851
0.081096 0.024290 0.044252
0.139399 0.031767 0.057873
0.202854 0.037306 0.067963
0.269688 0.041573 0.075736
0.338857 0.044961 0.081910
0.409707 0.047717 0.086930
0.481808 0.050003 0.091094
0.554864 0.051929 0.094602
0.628667 0.053574 0.097599
0.703064 0.054995 0.100189
0.777942 0.056235 0.102449
0.853215 0.057327 0.104438
0.922242 0.058217 0.106058
0.922242 0.058217 0.106058
0.002267 0.023847 0.021722
0.028669 0.046254 0.042133
0.070797 0.061855 0.056344
0.122431 0.073342 0.066807
0.180249 0.082153 0.074833
0.242315 0.089125 0.081183
0.307425 0.094780 0.086334
0.374790 0.099458 0.090596
0.443874 0.103393 0.094180
0.514296 0.106749 0.097236
0.585781 0.109644 0.099874
0.658125 0.112168 0.102173
0.731172 0.114387 0.104194
0.804802 0.116354 0.105986
0.878922 0.118109 0.107585
0.946971 0.119555 0.108902
0.946971 0.119555 0.108902
0.005713 0.090164 0.054753
0.044644 0.108045 0.065611
0.092858 0.121696 0.073901
0.147410 0.132459 0.080437
0.206481 0.141164 0.085723
0.268888 0.148348 0.090086
0.333826 0.154379 0.093749
0.400732 0.159514 0.096866
0.469198 0.163938 0.099553
0.538920 0.167789 0.101892
0.609669 0.171173 0.103947
0.681269 0.174169 0.105766
0.753582 0.176840 0.107388
0.826497 0.179236 0.108843
0.899927 0.181398 0.110156
0.967371 0.183196 0.111248
0.967371 0.183196 0.111248
0.007611 0.160152 0.072941
0.054211 0.174929 0.079671
0.106926 0.186843 0.085097
0.164138 0.196654 0.089565
0.224751 0.204872 0.093308
0.288000 0.211857 0.096489
0.353333 0.217867 0.099227
0.420342 0.223092 0.101606
0.488718 0.227678 0.103695
0.558226 0.231734 0.105542
0.628680 0.235347 0.107188
0.699933 0.238587 0.108663
0.771867 0.241507 0.109993
0.844386 0.244154 0.111199
0.917412 0.246564 0.112296
0.984487 0.248583 0.113216
0.984487 0.248583 0.113216
0.008813 0.231792 0.084455
0.060580 0.244354 0.089032
0.116679 0.254856 0.092858
0.176123 0.263766 0.096105
0.238206 0.271421 0.098894
0.302407 0.278069 0.101316
0.368333 0.283896 0.103439
0.435684 0.289044 0.105315
0.504225 0.293628 0.106985
0.573770 0.297733 0.108481
0.644169 0.301432 0.109829
0.715302 0.304782 0.111049
0.787070 0.307830 0.112160
0.859390 0.310615 0.113175
0.932194 0.313170 0.114106
0.999053 0.315326 0.114891
0.999053 0.315326 0.114891
0.009642 0.304314 0.092399
0.065126 0.315228 0.095713
0.123837 0.324591 0.098556
0.185132 0.332710 0.101021
0.248528 0.339819 0.103179
0.313655 0.346095 0.105085
0.380228 0.351676 0.106779
0.448017 0.356671 0.108296
0.516841 0.361169 0.109662
0.586553 0.365240 0.110898
0.657032 0.368942 0.112022
0.728179 0.372322 0.113048
0.799909 0.375422 0.113990
0.872154 0.378275 0.114856
0.944854 0.380908 0.115655
1.000000 0.383143 0.116334
1.000000 0.383143 0.116334
0.010248 0.377364 0.098211
0.068534 0.387007 0.100720
0.129315 0.395441 0.102915
0.192151 0.402878 0.104851
0.256697 0.409487 0.106571
0.322682 0.415397 0.108109
0.389890 0.420715 0.109493
0.458146 0.425524 0.110745
0.527306 0.429895 0.111882
0.597252 0.433885 0.112921
0.667885 0.437542 0.113872
0.739124 0.440905 0.114748
0.810897 0.444009 0.115555
0.883146 0.446882 0.116303
0.955818 0.449550 0.116997
1.000000 0.451825 0.117589
1.000000 0.451825 0.117589
0.010711 0.450754 0.102647
0.071183 0.459390 0.104613
0.133643 0.467055 0.106359
0.197774 0.473906 0.107919
0.263323 0.480065 0.109322
0.330085 0.485632 0.110589
0.397895 0.490688 0.111741
0.466613 0.495301 0.112791
0.536126 0.499527 0.113754
0.606337 0.503411 0.114638
0.677165 0.506995 0.115454
0.748541 0.510311 0.116210
0.820406 0.513389 0.116910
0.892710 0.516254 0.117563
0.965407 0.518925 0.118171
1.000000 0.521214 0.118692
1.000000 0.521214 0.118692
0.011076 0.524376 0.106144
0.073301 0.532193 0.107727
0.137147 0.539216 0.109148
0.202379 0.545560 0.110432
0.268805 0.551318 0.111598
0.336267 0.556568 0.112661
0.404635 0.561375 0.113634
0.473797 0.565792 0.114528
0.543660 0.569865 0.115352
0.614147 0.573633 0.116115
0.685190 0.577129 0.116823
0.756730 0.580381 0.117481
0.828717 0.583414 0.118095
0.901107 0.586249 0.118669
0.973863 0.588905 0.119206
1.000000 0.591188 0.119668
1.000000 0.591188 0.119668
0.011371 0.598164 0.108973
0.075034 0.605304 0.110273
0.140043 0.611781 0.111453
0.206221 0.617683 0.112528
0.273417 0.623084 0.113512
0.341507 0.628045 0.114416
0.410388 0.632618 0.115249
0.479968 0.636846 0.116020
0.550172 0.640768 0.116734
0.620935 0.644414 0.117398
0.692199 0.647814 0.118018
0.763916 0.650991 0.118596
0.836042 0.653967 0.119139
0.908540 0.656760 0.119647
0.981376 0.659387 0.120126
1.000000 0.661652 0.120539
1.000000 0.661652 0.120539
0.011615 0.672074 0.111307
0.076477 0.678644 0.112395
0.142477 0.684653 0.113390
0.209473 0.690169 0.114303
0.277350 0.695251 0.115145
0.346005 0.699949 0.115923
0.415356 0.704304 0.116644
0.485327 0.708353 0.117315
0.555856 0.712126 0.117940
0.626887 0.715651 0.118524
0.698374 0.718952 0.119070
0.770273 0.722049 0.119583
0.842547 0.724961 0.120066
0.915164 0.727704 0.120520
0.988096 0.730292 0.120948
1.000000 0.732530 0.121319
1.000000 0.732530 0.121319
0.011819 0.746077 0.113266
0.077698 0.752161 0.114189
0.144550 0.757763 0.115040
0.212263 0.762940 0.115826
0.280743 0.767737 0.116554
0.349909 0.772195 0.117231
0.419689 0.776348 0.117861
0.490024 0.780227 0.118450
0.560860 0.783858 0.119002
0.632150 0.787265 0.119519
0.703854 0.790467 0.120005
0.775936 0.793481 0.120463
0.848363 0.796326 0.120894
0.921106 0.799013 0.121302
0.994141 0.801556 0.121688
1.000000 0.803762 0.122023
1.000000 0.803762 0.122023
0.011993 0.820152 0.114934
0.078745 0.825817 0.115728
0.146338 0.831064 0.116463
0.214683 0.835939 0.117146
0.283702 0.840479 0.117782
0.353328 0.844718 0.118376
0.423502 0.848685 0.118932
0.494175 0.852406 0.119454
0.565299 0.855902 0.119944
0.636837 0.859193 0.120405
0.708752 0.862297 0.120840
0.781013 0.865230 0.121251
0.853593 0.868004 0.121640
0.926465 0.870634 0.122008
0.999609 0.873128 0.122358
1.000000 0.875298 0.122662
1.000000 0.875298 0.122662
0.012143 0.894284 0.116371
0.079652 0.899583 0.117060
0.147896 0.904517 0.117702
0.216801 0.909123 0.118302
0.286303 0.913431 0.118862
0.356347 0.917471 0.119388
0.426884 0.921266 0.119882
0.497869 0.924838 0.120347
0.569265 0.928206 0.120785
0.641037 0.931387 0.121199
0.713155 0.934396 0.121590
0.785591 0.937247 0.121961
0.858321 0.939952 0.122313
0.931324 0.942522 0.122648
1.000000 0.944967 0.122966
1.000000 0.947097 0.123243
1.000000 0.947097 0.123243
0.012274 0.968462 0.117622
0.080445 0.973440 0.118226
0.149265 0.978096 0.118792
0.218670 0.982460 0.119322
0.288609 0.986558 0.119820
0.359034 0.990415 0.120288
0.429902 0.994051 0.120730
0.501178 0.997484 0.121147
0.572828 1.000000 0.121541
0.644822 1.000000 0.121915
0.717134 1.000000 0.122269
0.789740 1.000000 0.122606
0.862617 1.000000 0.122926
0.935748 1.000000 0.123231
1.000000 1.000000 0.123521
1.000000 1.000000 0.123775
1.000000 1.000000 0.123775
0.012371 1.000000 0.118556
0.081040 1.000000 0.119100
0.150294 1.000000 0.119611
0.220082 1.000000 0.120092
0.290356 1.000000 0.120545
0.361075 1.000000 0.120972
0.432203 1.000000 0.121376
0.503707 1.000000 0.121758
0.575558 1.000000 0.122120
0.647730 1.000000 0.122464
0.720198 1.000000 0.122791
0.792941 1.000000 0.123103
0.865940 1.000000 0.123399
0.939177 1.000000 0.123682
1.000000 1.000000 0.123952
1.000000 1.000000 0.124189
1.000000 1.000000 0.124189
0.000000 0.000000 0.000000
0.000000 0.000000 0.000000
0.000000 0.000000 0.000000
0.019274 0.000000 0.015776
0.083612 0.000000 0.052069
0.152432 0.000000 0.076605
0.223860 0.000000 0.094300
0.296939 0.000000 0.107666
0.371129 0.000000 0.118118
0.446103 0.000000 0.126515
0.521649 0.000000 0.133409
0.597628 0.000000 0.139171
0.673939 0.000000 0.144058
0.750514 0.000000 0.148255
0.827300 0.000000 0.151899
0.897572 0.000000 0.154831
0.897572 0.000000 0.154831
0.000000 0.000000 0.000000
0.004431 0.003575 0.009769
