luts/WarmFilm.cube
TITLE "WarmFilm"
LUT_3D_SIZE 5
DOMAIN_MIN 0.0 0.0 0.0
DOMAIN_MAX 1.0 1.0 1.0
0.000000 0.000000 0.000000
0.025857 0.000000 0.000000
0.338557 0.000000 0.000000
0.651257 0.000000 0.000000
0.878997 0.000000 0.000000
0.007046 0.148252 0.000000
0.218957 0.199591 0.000000
0.482345 0.224709 0.000000
0.765795 0.239608 0.000000
0.978756 0.247136 0.000000
0.010560 0.444412 0.000000
0.261126 0.476061 0.000000
0.533168 0.496771 0.000000
0.817192 0.511378 0.000000
1.000000 0.519569 0.000000
0.011751 0.741755 0.000000
0.279597 0.764602 0.000000
0.559159 0.781482 0.000000
0.846377 0.794462 0.000000
1.000000 0.802174 0.000000
0.012331 1.000000 0.000000
0.289641 1.000000 0.000000
0.574438 1.000000 0.000000
0.864574 1.000000 0.000000
1.000000 1.000000 0.000000
0.000000 0.000000 0.000000
0.098235 0.000000 0.081567
0.380475 0.000000 0.161456
0.680759 0.000000 0.194021
0.903264 0.000000 0.207751
0.008093 0.170300 0.155125
0.229954 0.209615 0.190937
0.494595 0.230416 0.209884
0.777555 0.243287 0.221608
0.989901 0.249950 0.227677
0.010850 0.456587 0.207950
0.265377 0.483810 0.220349
0.538923 0.502133 0.228694
0.823471 0.515307 0.234694
1.000000 0.522789 0.238102
0.011884 0.750160 0.227772
0.281835 0.770723 0.234015
0.562490 0.786137 0.238695
0.850275 0.798121 0.242334
1.000000 0.805296 0.244512
0.012409 1.000000 0.237840
0.291043 1.000000 0.241660
0.576641 1.000000 0.244700
0.867264 1.000000 0.247176
1.000000 1.000000 0.248708
0.000000 0.000000 0.000000
0.142552 0.000000 0.236730
0.412145 0.000000 0.349791
0.704995 0.000000 0.401856
0.923911 0.000000 0.424999
0.008872 0.186687 0.340103
0.238917 0.217786 0.396758
0.505074 0.235298 0.428661
0.787920 0.246530 0.449124
0.999877 0.252469 0.459943
0.011096 0.466950 0.425341
0.269111 0.490618 0.446900
0.544088 0.506945 0.461772
0.829193 0.518888 0.472650
1.000000 0.525748 0.478899
0.012003 0.757685 0.460113
0.283871 0.776290 0.471410
0.565556 0.790421 0.479992
0.853897 0.801520 0.486732
1.000000 0.808213 0.490796
0.012480 1.000000 0.478417
0.292343 1.000000 0.485480
0.578699 1.000000 0.491147
0.869795 1.000000 0.495794
1.000000 1.000000 0.490175
0.001029 0.000000 0.059166
0.172478 0.000000 0.429639
0.436916 0.000000 0.556222
0.725258 0.000000 0.620109
0.941690 0.000000 0.649766
0.009474 0.199345 0.544745
0.246363 0.224573 0.613684
0.514141 0.239521 0.654533
0.797124 0.249410 0.681556
1.000000 0.254737 0.696112
0.011308 0.475879 0.650211
0.272418 0.496646 0.678586
0.548748 0.511287 0.698590
0.834428 0.522164 0.713452
1.000000 0.528476 0.722076
0.012110 0.764461 0.696341
0.285731 0.781375 0.711748
0.568387 0.794378 0.723592
0.857270 0.804686 0.732982
1.000000 0.810944 0.738681
0.012546 1.000000 0.721409
0.293553 1.000000 0.731232
0.580627 1.000000 0.739174
0.872179 1.000000 0.745729
1.000000 1.000000 0.715278
0.004203 0.000000 0.322241
0.194044 0.000000 0.644478
0.456821 0.000000 0.775416
0.742452 0.000000 0.846413
0.957162 0.000000 0.880589
0.009953 0.209418 0.763026
0.252646 0.230300 0.839113
0.522062 0.243211 0.886157
0.805352 0.251984 0.918121
1.000000 0.256789 0.935627
0.011493 0.483651 0.881107
0.275366 0.502022 0.914574
0.552974 0.515225 0.938628
0.839236 0.525173 0.956750
1.000000 0.531001 0.967367
0.012207 0.770595 0.935904
0.287436 0.786039 0.954661
0.571009 0.798044 0.969241
0.860419 0.807643 0.980899
1.000000 0.813505 0.988020
0.012607 1.000000 0.966543
0.294680 1.000000 0.978720
0.582436 1.000000 0.988638
0.864791 1.000000 0.985884
1.000000 1.000000 0.928468
