luts/WarmFilm.cube
TITLE "WarmFilm"
LUT_3D_SIZE 9
DOMAIN_MIN 0.0 0.0 0.0
DOMAIN_MAX 1.0 1.0 1.0
0.000000 0.000000 0.000000
0.000000 0.000000 0.000000
0.025857 0.000000 0.000000
0.182207 0.000000 0.000000
0.338557 0.000000 0.000000
0.494907 0.000000 0.000000
0.651257 0.000000 0.000000
0.807607 0.000000 0.000000
0.878997 0.000000 0.000000
0.000260 0.002733 0.000000
0.059654 0.052120 0.000000
0.168001 0.076571 0.000000
0.295700 0.091165 0.000000
0.433011 0.100863 0.000000
0.575792 0.107774 0.000000
0.721982 0.112950 0.000000
0.870440 0.116970 0.000000
0.938783 0.118521 0.000000
0.007046 0.148252 0.000000
0.102571 0.179234 0.000000
0.218957 0.199591 0.000000
0.347042 0.213988 0.000000
0.482345 0.224709 0.000000
0.622414 0.233002 0.000000
0.765795 0.239608 0.000000
0.911571 0.244994 0.000000
0.978756 0.247136 0.000000
0.009379 0.296038 0.000000
0.121533 0.318551 0.000000
0.245162 0.335217 0.000000
0.376312 0.348054 0.000000
0.512656 0.358244 0.000000
0.652738 0.366530 0.000000
0.795601 0.373400 0.000000
0.940588 0.379189 0.000000
1.000000 0.381539 0.000000
0.010560 0.444412 0.000000
0.132219 0.462082 0.000000
0.261126 0.476061 0.000000
0.395224 0.487395 0.000000
0.533168 0.496771 0.000000
0.674039 0.504655 0.000000
0.817192 0.511378 0.000000
0.962155 0.517178 0.000000
1.000000 0.519569 0.000000
0.011273 0.593023 0.000000
0.139078 0.607564 0.000000
0.271871 0.619563 0.000000
0.408451 0.629633 0.000000
0.547972 0.638205 0.000000
0.689823 0.645590 0.000000
0.833552 0.652019 0.000000
0.978816 0.657666 0.000000
1.000000 0.660022 0.000000
0.011751 0.741755 0.000000
0.143853 0.754106 0.000000
0.279597 0.764602 0.000000
0.418221 0.773632 0.000000
0.559159 0.781482 0.000000
0.701987 0.788369 0.000000
0.846377 0.794462 0.000000
0.992073 0.799888 0.000000
1.000000 0.802174 0.000000
0.012092 0.890556 0.000000
0.147368 0.901291 0.000000
0.285419 0.910612 0.000000
0.425732 0.918781 0.000000
0.567911 0.925999 0.000000
0.711649 0.932423 0.000000
0.856701 0.938178 0.000000
1.000000 0.943362 0.000000
1.000000 0.945562 0.000000
0.012331 1.000000 0.000000
0.149874 1.000000 0.000000
0.289641 1.000000 0.000000
0.431261 1.000000 0.000000
0.574438 1.000000 0.000000
0.718939 1.000000 0.000000
0.864574 1.000000 0.000000
1.000000 1.000000 0.000000
1.000000 1.000000 0.000000
0.000000 0.000000 0.000000
0.000000 0.000000 0.000000
0.066991 0.000000 0.027812
0.211319 0.000000 0.059345
0.361084 0.000000 0.076614
0.513279 0.000000 0.087512
0.666768 0.000000 0.095017
0.821028 0.000000 0.100498
0.891640 0.000000 0.102539
0.002267 0.023847 0.021722
0.070797 0.061855 0.056344
0.180249 0.082153 0.074833
0.307425 0.094780 0.086334
0.443874 0.103393 0.094180
0.585781 0.109644 0.099874
0.731172 0.114387 0.104194
0.878922 0.118109 0.107585
0.946971 0.119555 0.108902
0.007611 0.160152 0.072941
0.106926 0.186843 0.085097
0.224751 0.204872 0.093308
0.353333 0.217867 0.099227
0.488718 0.227678 0.103695
0.628680 0.235347 0.107188
0.771867 0.241507 0.109993
0.917412 0.246564 0.112296
0.984487 0.248583 0.113216
0.009642 0.304314 0.092399
0.123837 0.324591 0.098556
0.248528 0.339819 0.103179
0.380228 0.351676 0.106779
0.516841 0.361169 0.109662
0.657032 0.368942 0.112022
0.799909 0.375422 0.113990
0.944854 0.380908 0.115655
1.000000 0.383143 0.116334
0.010711 0.450754 0.102647
0.133643 0.467055 0.106359
0.263323 0.480065 0.109322
0.397895 0.490688 0.111741
0.536126 0.499527 0.113754
0.677165 0.506995 0.115454
0.820406 0.513389 0.116910
0.965407 0.518925 0.118171
1.000000 0.521214 0.118692
0.011371 0.598164 0.108973
0.140043 0.611781 0.111453
0.273417 0.623084 0.113512
0.410388 0.632618 0.115249
0.550172 0.640768 0.116734
0.692199 0.647814 0.118018
0.836042 0.653967 0.119139
0.981376 0.659387 0.120126
1.000000 0.661652 0.120539
0.011819 0.746077 0.113266
0.144550 0.757763 0.115040
0.280743 0.767737 0.116554
0.419689 0.776348 0.117861
0.560860 0.783858 0.119002
0.703854 0.790467 0.120005
0.848363 0.796326 0.120894
0.994141 0.801556 0.121688
1.000000 0.803762 0.122023
0.012143 0.894284 0.116371
0.147896 0.904517 0.117702
0.286303 0.913431 0.118862
0.426884 0.921266 0.119882
0.569265 0.928206 0.120785
0.713155 0.934396 0.121590
0.858321 0.939952 0.122313
1.000000 0.944967 0.122966
1.000000 0.947097 0.123243
0.012371 1.000000 0.118556
0.150294 1.000000 0.119611
0.290356 1.000000 0.120545
0.432203 1.000000 0.121376
0.575558 1.000000 0.122120
0.720198 1.000000 0.122791
0.865940 1.000000 0.123399
1.000000 1.000000 0.123952
1.000000 1.000000 0.124189
0.000000 0.000000 0.000000
0.000000 0.000000 0.000000
0.098235 0.000000 0.081567
0.235296 0.000000 0.132157
0.380475 0.000000 0.161456
0.529538 0.000000 0.180569
0.680759 0.000000 0.194021
0.833304 0.000000 0.204002
0.903264 0.000000 0.207751
0.003767 0.039633 0.072202
0.079904 0.069813 0.127184
0.190743 0.086936 0.158379
0.317770 0.097969 0.178479
0.453651 0.105671 0.192509
0.594903 0.111351 0.202858
0.739656 0.115715 0.210807
0.886820 0.119171 0.217103
0.954622 0.120521 0.219563
0.008093 0.170300 0.155125
0.110756 0.193536 0.176290
0.229954 0.209615 0.190937
0.359068 0.221403 0.201674
0.494595 0.230416 0.209884
0.634509 0.237529 0.216363
0.777555 0.243287 0.221608
0.922917 0.248043 0.225940
0.989901 0.249950 0.227677
0.009877 0.311729 0.189301
0.125934 0.330088 0.200449
0.251627 0.344056 0.208932
0.383867 0.355042 0.215603
0.520759 0.363907 0.220987
0.661076 0.371212 0.225423
0.803987 0.377336 0.229141
0.948909 0.382543 0.232303
1.000000 0.384670 0.233595
0.010850 0.456587 0.207950
0.134964 0.471672 0.214821
0.265377 0.483810 0.220349
0.400408 0.493787 0.224893
0.538923 0.502133 0.228694
0.680134 0.509218 0.231921
0.823471 0.515307 0.234694
0.968517 0.520597 0.237104
1.000000 0.522789 0.238102
0.011462 0.602969 0.219695
0.140951 0.615747 0.224351
0.274878 0.626414 0.228238
0.412226 0.635453 0.231531
0.552269 0.643210 0.234358
0.694471 0.649941 0.236810
0.838430 0.655835 0.238958
0.983838 0.661040 0.240854
1.000000 0.663220 0.241649
0.011884 0.750160 0.227772
0.145212 0.761234 0.231134
0.281835 0.770723 0.234015
0.421093 0.778944 0.236511
0.562490 0.786137 0.238695
0.705649 0.792482 0.240622
0.850275 0.798121 0.242334
0.996137 0.803166 0.243865
1.000000 0.805296 0.244512
0.012191 0.897834 0.233665
0.148400 0.907600 0.236207
0.287150 0.916133 0.238428
0.427990 0.923654 0.240385
0.570568 0.930331 0.242123
0.714608 0.936300 0.243676
0.859888 0.941667 0.245073
1.000000 0.946520 0.246336
1.000000 0.948584 0.246873
0.012409 1.000000 0.237840
0.150698 1.000000 0.239866
0.291043 1.000000 0.241660
0.433112 1.000000 0.243262
0.576641 1.000000 0.244700
0.721416 1.000000 0.245998
0.867264 1.000000 0.247176
1.000000 1.000000 0.248249
1.000000 1.000000 0.248708
0.000000 0.000000 0.000000
0.012941 0.000000 0.030898
0.122772 0.000000 0.152911
0.255387 0.000000 0.215161
0.397341 0.000000 0.252920
0.544028 0.000000 0.278265
0.693443 0.000000 0.296453
0.844574 0.000000 0.310142
0.913988 0.000000 0.315326
0.004931 0.051882 0.141776
0.087487 0.076438 0.208880
0.199836 0.091080 0.248893
0.326965 0.100804 0.275465
0.462498 0.107731 0.294394
0.603266 0.112917 0.308564
0.747514 0.116944 0.319569
0.894193 0.120162 0.328363
0.961786 0.121425 0.331816
0.008510 0.179055 0.244650
0.114151 0.199468 0.272541
0.234653 0.213899 0.292258
0.364318 0.224641 0.306935
0.500031 0.232948 0.318286
0.639945 0.239564 0.327326
0.782896 0.244958 0.334695
0.928114 0.249440 0.340819
0.995023 0.251243 0.343283
0.010088 0.318411 0.290038
0.127851 0.335112 0.305251
0.254490 0.347971 0.316964
0.387258 0.358178 0.326261
0.524435 0.366476 0.333819
0.664892 0.373355 0.340085
0.807852 0.379150 0.345364
0.952767 0.384099 0.349872
1.000000 0.386126 0.351718
0.010977 0.461969 0.315602
0.136193 0.475970 0.325168
0.267303 0.487321 0.332922
0.402777 0.496709 0.339336
0.541573 0.504602 0.344728
0.682958 0.511332 0.349326
0.826397 0.517138 0.353293
0.971496 0.522198 0.356749
1.000000 0.524299 0.358184
0.011548 0.607468 0.332002
0.141806 0.619483 0.338569
0.276261 0.629566 0.344079
0.413975 0.638148 0.348770
0.554270 0.645541 0.352810
0.696646 0.651976 0.356327
0.840722 0.657628 0.359416
0.986206 0.662632 0.362151
1.000000 0.664730 0.363298
0.011945 0.754024 0.343417
0.145841 0.764532 0.348203
0.282877 0.773571 0.352319
0.422436 0.781429 0.355898
0.564054 0.788323 0.359038
0.707375 0.794420 0.361815
0.852119 0.799851 0.364289
0.998065 0.804720 0.366506
1.000000 0.806779 0.367444
0.012237 0.901218 0.351819
0.148882 0.910548 0.355462
0.287962 0.918725 0.358654
0.429054 0.925949 0.361474
0.571824 0.932379 0.363984
0.716011 0.938138 0.366232
0.861403 0.943326 0.368258
1.000000 0.948025 0.370092
1.000000 0.950026 0.370873
0.012445 1.000000 0.357808
0.151086 1.000000 0.360725
0.291705 1.000000 0.363315
0.433989 1.000000 0.365632
0.577687 1.000000 0.367716
0.722595 1.000000 0.369600
0.868549 1.000000 0.371313
1.000000 1.000000 0.372875
1.000000 1.000000 0.372840
0.000000 0.000000 0.000000
0.034539 0.000000 0.109952
0.142552 0.000000 0.236730
0.272466 0.000000 0.306067
0.412145 0.000000 0.349791
0.557023 0.000000 0.379882
0.704995 0.000000 0.401856
0.854958 0.000000 0.418606
0.923911 0.000000 0.424999
0.005861 0.061663 0.224673
0.093899 0.082040 0.298918
0.207789 0.094705 0.345066
0.335192 0.103340 0.376528
0.470541 0.109605 0.399352
0.610960 0.114357 0.416667
0.754811 0.118085 0.430252
0.901092 0.121089 0.441195
0.968508 0.122274 0.445514
0.008872 0.186687 0.340103
0.117181 0.204762 0.373033
0.238917 0.217786 0.396758
0.369142 0.227615 0.414666
0.505074 0.235298 0.428661
0.645028 0.241467 0.439900
0.787920 0.246530 0.449124
0.933027 0.250760 0.456831
0.999877 0.252469 0.459943
0.010280 0.324464 0.394069
0.129610 0.339722 0.412600
0.257143 0.351599 0.427025
0.390425 0.361107 0.438572
0.527890 0.368890 0.448025
0.668497 0.375379 0.455906
0.811520 0.380872 0.462577
0.956444 0.385581 0.468296
1.000000 0.387515 0.470645
0.011096 0.466950 0.425341
0.137341 0.479980 0.437209
0.269111 0.490618 0.446900
0.405014 0.499468 0.454961
0.544088 0.506945 0.461772
0.685648 0.513346 0.467603
0.829193 0.518888 0.472650
0.974350 0.523733 0.477063
1.000000 0.525748 0.478899
0.011628 0.611691 0.445747
0.142614 0.623009 0.453995
0.277572 0.632554 0.460951
0.415639 0.640713 0.466896
0.556181 0.647767 0.472036
0.698729 0.653925 0.476524
0.842923 0.659350 0.480477
0.988485 0.664163 0.483984
1.000000 0.666186 0.485458
0.012003 0.757685 0.460113
0.146440 0.767670 0.466176
0.283871 0.776290 0.471410
0.423722 0.783807 0.475976
0.565556 0.790421 0.479992
0.709036 0.796285 0.483553
0.853897 0.801520 0.486732
0.999928 0.806222 0.489587
1.000000 0.808213 0.490796
0.012281 0.904448 0.470774
0.149343 0.913371 0.475418
0.288742 0.921212 0.479500
0.430077 0.928158 0.483115
0.573035 0.934354 0.486340
0.717366 0.939914 0.489234
0.862869 0.944932 0.491846
1.000000 0.949483 0.494215
1.000000 0.951424 0.495225
0.012480 1.000000 0.478417
0.151459 1.000000 0.482154
0.292343 1.000000 0.485480
0.434836 1.000000 0.488461
0.578699 1.000000 0.491147
0.723738 1.000000 0.493580
0.869795 1.000000 0.495794
1.000000 1.000000 0.497817
1.000000 1.000000 0.490175
0.000000 0.000000 0.000000
0.050930 0.000000 0.202662
0.158837 0.000000 0.329717
0.287163 0.000000 0.403220
0.425244 0.000000 0.451135
0.568742 0.000000 0.484843
0.715559 0.000000 0.509847
0.864556 0.000000 0.529132
0.933120 0.000000 0.536544
0.006621 0.069654 0.317235
0.099392 0.086839 0.395503
0.214806 0.097903 0.445897
0.342595 0.105623 0.481056
0.477885 0.111316 0.506981
0.618064 0.115687 0.526889
0.761606 0.119148 0.542656
0.907561 0.121958 0.555452
0.974829 0.123072 0.560527
0.009191 0.193398 0.440411
0.119902 0.209517 0.477117
0.242805 0.221329 0.504017
0.373590 0.230358 0.524577
0.509766 0.237483 0.540803
0.649789 0.243249 0.553934
0.792655 0.248012 0.564779
0.937681 0.252011 0.573886
1.000000 0.253632 0.577577
0.010455 0.329972 0.500948
0.131230 0.343967 0.522194
0.259609 0.354970 0.538899
0.393389 0.363849 0.552378
0.531144 0.371164 0.563483
0.671909 0.377295 0.572791
0.815007 0.382508 0.580705
0.959951 0.386995 0.587517
1.000000 0.388842 0.590321
0.011206 0.471575 0.536941
0.138414 0.483731 0.550782
0.270813 0.493721 0.562158
0.407130 0.502078 0.571672
0.546476 0.509170 0.579749
0.688212 0.515266 0.586689
0.831868 0.520562 0.592719
0.977088 0.525204 0.598005
1.000000 0.527139 0.600208
0.011704 0.615662 0.560801
0.143377 0.626343 0.570530
0.278818 0.635392 0.578773
0.417225 0.643158 0.585847
0.558009 0.649895 0.591984
0.700727 0.655795 0.597358
0.845039 0.661005 0.602103
0.990682 0.665639 0.606325
1.000000 0.667589 0.608101
0.012058 0.761160 0.577778
0.147010 0.770659 0.584989
0.284821 0.778889 0.591236
0.424954 0.786088 0.596700
0.566999 0.792438 0.601521
0.710636 0.798082 0.605805
0.855613 0.803131 0.609637
1.000000 0.807674 0.613086
1.000000 0.809600 0.614548
0.012323 0.907534 0.590475
0.149785 0.916075 0.596032
0.289491 0.923602 0.600929
0.431063 0.930285 0.605278
0.574204 0.936259 0.609164
0.718676 0.941631 0.612659
0.864288 0.946486 0.615819
1.000000 0.950898 0.618689
1.000000 0.952780 0.619914
0.012514 1.000000 0.599629
0.151818 1.000000 0.604120
0.292959 1.000000 0.608128
0.435655 1.000000 0.611725
0.579678 1.000000 0.614972
0.724846 1.000000 0.617919
0.871004 1.000000 0.620604
1.000000 1.000000 0.615987
1.000000 1.000000 0.604277
0.001029 0.000000 0.059166
0.063794 0.000000 0.304622
0.172478 0.000000 0.429639
0.299943 0.000000 0.505399
0.436916 0.000000 0.556222
0.579366 0.000000 0.592680
0.725258 0.000000 0.620109
0.873454 0.000000 0.641494
0.941690 0.000000 0.649766
0.007253 0.076305 0.417031
0.104149 0.090995 0.497322
0.221041 0.100745 0.550608
0.349294 0.107688 0.588553
0.484618 0.112884 0.616949
0.624642 0.116918 0.638996
0.767949 0.120141 0.656610
0.913639 0.122775 0.671007
0.980783 0.123824 0.676740
0.009474 0.199345 0.544745
0.122358 0.213809 0.584271
0.246363 0.224573 0.613684
0.377704 0.232895 0.636425
0.514141 0.239521 0.654533
0.654259 0.244923 0.669294
0.797124 0.249410 0.681556
0.942094 0.253197 0.691905
1.000000 0.254737 0.696112
0.010614 0.335006 0.610309
0.132726 0.347889 0.633777
0.261906 0.358111 0.652401
0.396170 0.366421 0.667539
0.534214 0.373309 0.680088
0.675143 0.379111 0.690658
0.818325 0.384065 0.699683
0.963301 0.388345 0.707480
1.000000 0.390111 0.710698
0.011308 0.475879 0.650211
0.139420 0.487246 0.665742
0.272418 0.496646 0.678586
0.409135 0.504550 0.689385
0.548748 0.511287 0.698590
0.690660 0.517099 0.706531
0.834428 0.522164 0.713452
0.979716 0.526617 0.719536
1.000000 0.528476 0.722076
0.011775 0.619403 0.677051
0.144099 0.629498 0.688085
0.280001 0.638090 0.697477
0.418738 0.645491 0.705566
0.559758 0.651932 0.712607
0.702644 0.657589 0.718791
0.847075 0.662597 0.724265
0.992799 0.667062 0.729145
1.000000 0.668943 0.731201
0.012110 0.764461 0.696341
0.147554 0.773510 0.704583
0.285731 0.781375 0.711748
0.426137 0.788276 0.718033
0.568387 0.794378 0.723592
0.712178 0.799814 0.728543
0.857270 0.804686 0.732982
1.000000 0.809079 0.736983
1.000000 0.810944 0.738681
0.012363 0.910485 0.710874
0.150210 0.918669 0.717264
0.290211 0.925900 0.722909
0.432013 0.932335 0.727933
0.575332 0.938099 0.732433
0.719943 0.943291 0.736487
0.865663 0.947992 0.740158
1.000000 0.952270 0.743498
1.000000 0.954097 0.744925
0.012546 1.000000 0.721409
0.152164 1.000000 0.726595
0.293553 1.000000 0.731232
0.436446 1.000000 0.735403
0.580627 1.000000 0.739174
0.725920 1.000000 0.742601
0.872179 1.000000 0.745729
0.992530 1.000000 0.728947
1.000000 1.000000 0.715278
0.002834 0.000000 0.190132
0.074159 0.000000 0.413136
0.184071 0.000000 0.534935
0.311160 0.000000 0.611681
0.447383 0.000000 0.664470
0.589040 0.000000 0.703006
0.734193 0.000000 0.732374
0.881727 0.000000 0.755498
0.949686 0.000000 0.764497
0.007787 0.081926 0.522382
0.108310 0.094631 0.603389
0.226619 0.103288 0.658587
0.355383 0.109566 0.698616
0.490812 0.114327 0.728973
0.630751 0.118061 0.752786
0.773883 0.121069 0.771965
0.919360 0.123544 0.787743
0.986401 0.124533 0.794053
0.009726 0.204652 0.652456
0.124587 0.217704 0.694067
0.249632 0.227553 0.725465
0.381521 0.235248 0.749998
0.518230 0.241427 0.769697
0.658464 0.246497 0.785861
0.801350 0.250732 0.799364
0.946285 0.254323 0.810813
1.000000 0.255788 0.815481
0.010760 0.339625 0.721843
0.134112 0.351522 0.747130
0.264051 0.361045 0.767369
0.398784 0.368839 0.783935
0.537114 0.375336 0.797743
0.678213 0.380835 0.809431
0.821487 0.385549 0.819451
0.966502 0.389636 0.828137
1.000000 0.391326 0.831729
0.011403 0.479895 0.764981
0.140365 0.490548 0.781963
0.273933 0.499409 0.796088
0.411037 0.506895 0.808021
0.550911 0.513303 0.818236
0.692999 0.518851 0.827079
0.836882 0.523700 0.834808
0.982242 0.527974 0.841623
1.000000 0.529763 0.844473
0.011842 0.622934 0.794395
0.144784 0.632491 0.806582
0.281128 0.640658 0.816998
0.420184 0.647719 0.826002
0.561433 0.653884 0.833863
0.704485 0.659313 0.840787
0.849035 0.664130 0.846931
0.994842 0.668435 0.852419
1.000000 0.670251 0.854736
0.012160 0.767603 0.815736
0.148073 0.776231 0.824906
0.286601 0.783756 0.832903
0.427273 0.790376 0.839938
0.569723 0.796245 0.846175
0.713665 0.801484 0.851742
0.858871 0.806189 0.856743
1.000000 0.810439 0.861258
1.000000 0.812245 0.863177
0.012401 0.913310 0.831926
0.150617 0.921159 0.839076
0.290904 0.928111 0.845408
0.432928 0.934311 0.851056
0.576422 0.939876 0.856124
0.721169 0.944897 0.860699
0.866996 0.949452 0.864847
1.000000 0.953601 0.868627
1.000000 0.955376 0.870244
0.012577 1.000000 0.843724
0.152497 1.000000 0.849550
0.294126 1.000000 0.854770
0.437211 1.000000 0.859474
0.581546 1.000000 0.863735
0.726962 1.000000 0.867612
0.873320 1.000000 0.871155
0.978972 1.000000 0.838821
1.000000 1.000000 0.823302
0.004203 0.000000 0.322241
0.082689 0.000000 0.526464
0.194044 0.000000 0.644478
0.321082 0.000000 0.721357
0.456821 0.000000 0.775416
0.597887 0.000000 0.815502
0.742452 0.000000 0.846413
0.889437 0.000000 0.870976
0.957162 0.000000 0.880589
0.008245 0.086741 0.632092
0.111980 0.097837 0.712953
0.231639 0.105575 0.769342
0.360942 0.111280 0.810909
0.496530 0.115658 0.842818
0.636439 0.119126 0.868086
0.779447 0.121940 0.888589
0.924755 0.124269 0.905561
0.991711 0.125204 0.912374
0.009953 0.209418 0.763026
0.126619 0.221255 0.806156
0.252646 0.230300 0.839113
0.385071 0.237437 0.865116
0.522062 0.243211 0.886157
0.662426 0.247980 0.903531
0.805352 0.251984 0.918121
0.950270 0.255394 0.930546
1.000000 0.256789 0.935627
0.010895 0.343878 0.835293
0.135400 0.354899 0.862065
0.266059 0.363791 0.883663
0.401246 0.371116 0.901455
0.539859 0.377254 0.916366
0.681130 0.382473 0.929043
0.824503 0.386964 0.939953
0.969566 0.390871 0.949442
1.000000 0.392490 0.953375
0.011493 0.483651 0.881107
0.141254 0.493655 0.899332
0.275366 0.502022 0.914574
0.412843 0.509123 0.927511
0.552974 0.515225 0.938628
0.695237 0.520526 0.948284
0.839236 0.525173 0.956750
0.984670 0.529280 0.964233
1.000000 0.531001 0.967367
0.011905 0.626271 0.912744
0.145434 0.635331 0.925948
0.282202 0.643106 0.937279
0.421566 0.649849 0.947107
0.563040 0.655755 0.955714
0.706255 0.660969 0.963314
0.850923 0.665607 0.970073
0.996814 0.669759 0.976125
1.000000 0.671514 0.978682
0.012207 0.770595 0.935904
0.148569 0.778833 0.945909
0.287436 0.786039 0.954661
0.428364 0.792395 0.962381
0.571009 0.798044 0.969241
0.715100 0.803096 0.975378
0.860419 0.807643 0.980899
1.000000 0.811755 0.985894
1.000000 0.813505 0.988020
0.012438 0.916017 0.953591
0.151008 0.923551 0.961434
0.291572 0.930240 0.968397
0.433812 0.936218 0.974620
0.577475 0.941593 0.980216
0.722356 0.946453 0.985275
0.868288 0.950867 0.989870
1.000000 0.954895 0.994063
1.000000 0.956619 0.995858
0.012607 1.000000 0.966543
0.152818 1.000000 0.972960
0.294680 1.000000 0.978720
0.437951 1.000000 0.983920
0.582436 1.000000 0.988638
0.727974 1.000000 0.992937
0.864791 1.000000 0.985884
0.965778 1.000000 0.945733
1.000000 1.000000 0.928468
